luts/ACEScct_to_linear.spi1d
Version 1
From -0.24913611 1.468
Length 4096
Components 1
{
 -3.0553543940e-02
 -3.0513761565e-02
 -3.0473979190e-02
 -3.0434198678e-02
 -3.0394412577e-02
 -3.0354628339e-02
 -3.0314845964e-02
 -3.0275065452e-02
 -3.0235277489e-02
 -3.0195495114e-02
 -3.0155712739e-02
 -3.0115928501e-02
 -3.0076144263e-02
 -3.0036363751e-02
 -2.9996579513e-02
 -2.9956793413e-02
 -2.9917012900e-02
 -2.9877230525e-02
 -2.9837448150e-02
 -2.9797662050e-02
 -2.9757879674e-02
 -2.9718097299e-02
 -2.9678314924e-02
 -2.9638528824e-02
 -2.9598744586e-02
 -2.9558964074e-02
 -2.9519181699e-02
 -2.9479395598e-02
 -2.9439611360e-02
 -2.9399830848e-02
 -2.9360048473e-02
 -2.9320266098e-02
 -2.9280483723e-02
 -2.9240697622e-02
 -2.9200913385e-02
 -2.9161132872e-02
 -2.9121346772e-02
 -2.9081562534e-02
 -2.9041782022e-02
 -2.9001995921e-02
 -2.8962217271e-02
 -2.8922434896e-02
 -2.8882648796e-02
 -2.8842866421e-02
 -2.8803084046e-02
 -2.8763299808e-02
 -2.8723519295e-02
 -2.8683733195e-02
 -2.8643947095e-02
 -2.8604168445e-02
 -2.8564382344e-02
 -2.8524599969e-02
 -2.8484813869e-02
 -2.8445031494e-02
 -2.8405249119e-02
 -2.8365466744e-02
 -2.8325680643e-02
 -2.8285898268e-02
 -2.8246115893e-02
 -2.8206333518e-02
 -2.8166551143e-02
 -2.8126765043e-02
 -2.8086982667e-02
 -2.8047202155e-02
 -2.8007417917e-02
 -2.7967631817e-02
 -2.7927849442e-02
 -2.7888067067e-02
 -2.7848284692e-02
 -2.7808502316e-02
 -2.7768718079e-02
 -2.7728933841e-02
 -2.7689151466e-02
 -2.7649367228e-02
 -2.7609584853e-02
 -2.7569800615e-02
 -2.7530018240e-02
 -2.7490234002e-02
 -2.7450453490e-02
 -2.7410667390e-02
 -2.7370883152e-02
 -2.7331102639e-02
 -2.7291318402e-02
 -2.7251536027e-02
 -2.7211749926e-02
 -2.7171969414e-02
 -2.7132185176e-02
 -2.7092404664e-02
 -2.7052620426e-02
 -2.7012834325e-02
 -2.6973051950e-02
 -2.6933269575e-02
 -2.6893485337e-02
 -2.6853701100e-02
 -2.6813916862e-02
 -2.6774134487e-02
 -2.6734352112e-02
 -2.6694571599e-02
 -2.6654785499e-02
 -2.6615001261e-02
 -2.6575220749e-02
 -2.6535436511e-02
 -2.6495654136e-02
 -2.6455868036e-02
 -2.6416085660e-02
 -2.6376303285e-02
 -2.6336522773e-02
 -2.6296736673e-02
 -2.6256952435e-02
 -2.6217170060e-02
 -2.6177387685e-02
 -2.6137603447e-02
 -2.6097819209e-02
 -2.6058036834e-02
 -2.6018252596e-02
 -2.5978470221e-02
 -2.5938687846e-02
 -2.5898901746e-02
 -2.5859119371e-02
 -2.5819338858e-02
 -2.5779554620e-02
 -2.5739772245e-02
 -2.5699988008e-02
 -2.5660203770e-02
 -2.5620421395e-02
 -2.5580639020e-02
 -2.5540854782e-02
 -2.5501070544e-02
 -2.5461290032e-02
 -2.5421505794e-02
 -2.5381721556e-02
 -2.5341937318e-02
 -2.5302154943e-02
 -2.5262370706e-02
 -2.5222588331e-02
 -2.5182805955e-02
 -2.5143019855e-02
 -2.5103237480e-02
 -2.5063455105e-02
 -2.5023672730e-02
 -2.4983886629e-02
 -2.4944104254e-02
 -2.4904321879e-02
 -2.4864539504e-02
 -2.4824757129e-02
 -2.4784971029e-02
 -2.4745188653e-02
 -2.4705406278e-02
 -2.4665623903e-02
 -2.4625839666e-02
 -2.4586055428e-02
 -2.4546273053e-02
 -2.4506488815e-02
 -2.4466708302e-02
 -2.4426922202e-02
 -2.4387137964e-02
 -2.4347355589e-02
 -2.4307573214e-02
 -2.4267790839e-02
 -2.4228004739e-02
 -2.4188222364e-02
 -2.4148439988e-02
 -2.4108657613e-02
 -2.4068877101e-02
 -2.4029089138e-02
 -2.3989306763e-02
 -2.3949524388e-02
 -2.3909743875e-02
 -2.3869955912e-02
 -2.3830171674e-02
 -2.3790391162e-02
 -2.3750606924e-02
 -2.3710824549e-02
 -2.3671040311e-02
 -2.3631256074e-02
 -2.3591473699e-02
 -2.3551691324e-02
 -2.3511908948e-02
 -2.3472122848e-02
 -2.3432340473e-02
 -2.3392558098e-02
 -2.3352775723e-02
 -2.3312989622e-02
 -2.3273207247e-02
 -2.3233424872e-02
 -2.3193642497e-02
 -2.3153861985e-02
 -2.3114074022e-02
 -2.3074291646e-02
 -2.3034509271e-02
 -2.2994725034e-02
 -2.2954944521e-02
 -2.2915158421e-02
 -2.2875374183e-02
 -2.2835589945e-02
 -2.2795811296e-02
 -2.2756025195e-02
 -2.2716240957e-02
 -2.2676460445e-02
 -2.2636678070e-02
 -2.2596893832e-02
 -2.2557107732e-02
 -2.2517327219e-02
 -2.2477541119e-02
 -2.2437762469e-02
 -2.2397980094e-02
 -2.2358193994e-02
 -2.2318411618e-02
 -2.2278627381e-02
 -2.2238843143e-02
 -2.2199060768e-02
 -2.2159278393e-02
 -2.2119496018e-02
 -2.2079709917e-02
 -2.2039929405e-02
 -2.2000145167e-02
 -2.1960359067e-02
 -2.1920578554e-02
 -2.1880796179e-02
 -2.1841013804e-02
 -2.1801225841e-02
 -2.1761445329e-02
 -2.1721661091e-02
 -2.1681880578e-02
 -2.1642092615e-02
 -2.1602312103e-02
 -2.1562529728e-02
 -2.1522747353e-02
 -2.1482963115e-02
 -2.1443178877e-02
 -2.1403394639e-02
 -2.1363612264e-02
 -2.1323828027e-02
 -2.1284045652e-02
 -2.1244263276e-02
 -2.1204479039e-02
 -2.1164696664e-02
 -2.1124914289e-02
 -2.1085128188e-02
 -2.1045345813e-02
 -2.1005563438e-02
 -2.0965779200e-02
 -2.0925996825e-02
 -2.0886212587e-02
 -2.0846430212e-02
 -2.0806647837e-02
 -2.0766865462e-02
 -2.0727081224e-02
 -2.0687296987e-02
 -2.0647512749e-02
 -2.0607730374e-02
 -2.0567947999e-02
 -2.0528163761e-02
 -2.0488381386e-02
 -2.0448597148e-02
 -2.0408812910e-02
 -2.0369030535e-02
 -2.0329246297e-02
 -2.0289463922e-02
 -2.0249681547e-02
 -2.0209899172e-02
 -2.0170114934e-02
 -2.0130330697e-02
 -2.0090546459e-02
 -2.0050764084e-02
 -2.0010981709e-02
 -1.9971197471e-02
 -1.9931415096e-02
 -1.9891632721e-02
 -1.9851848483e-02
 -1.9812066108e-02
 -1.9772280008e-02
 -1.9732497633e-02
 -1.9692713395e-02
 -1.9652931020e-02
 -1.9613148645e-02
 -1.9573362544e-02
 -1.9533580169e-02
 -1.9493797794e-02
 -1.9454015419e-02
 -1.9414231181e-02
 -1.9374446943e-02
 -1.9334664568e-02
 -1.9294882193e-02
 -1.9255099818e-02
 -1.9215313718e-02
 -1.9175531343e-02
 -1.9135748968e-02
 -1.9095966592e-02
 -1.9056182355e-02
 -1.9016398117e-02
 -1.8976615742e-02
 -1.8936833367e-02
 -1.8897050992e-02
 -1.8857264891e-02
 -1.8817482516e-02
 -1.8777698278e-02
 -1.8737915903e-02
 -1.8698131666e-02
 -1.8658351153e-02
 -1.8618565053e-02
 -1.8578784540e-02
 -1.8539002165e-02
 -1.8499216065e-02
 -1.8459431827e-02
 -1.8419649452e-02
 -1.8379867077e-02
 -1.8340084702e-02
 -1.8300300464e-02
 -1.8260518089e-02
 -1.8220735714e-02
 -1.8180951476e-02
 -1.8141167238e-02
 -1.8101383001e-02
 -1.8061600626e-02
 -1.8021818250e-02
 -1.7982034013e-02
 -1.7942251638e-02
 -1.7902465537e-02
 -1.7862683162e-02
 -1.7822900787e-02
 -1.7783118412e-02
 -1.7743334174e-02
 -1.7703551799e-02
 -1.7663767561e-02
 -1.7623985186e-02
 -1.7584202811e-02
 -1.7544418573e-02
 -1.7504634336e-02
 -1.7464851961e-02
 -1.7425069585e-02
 -1.7385285348e-02
 -1.7345502973e-02
 -1.7305718735e-02
 -1.7265934497e-02
 -1.7226153985e-02
 -1.7186367884e-02
 -1.7146585509e-02
 -1.7106801271e-02
 -1.7067018896e-02
 -1.7027236521e-02
 -1.6987452284e-02
 -1.6947668046e-02
 -1.6907885671e-02
 -1.6868103296e-02
 -1.6828319058e-02
 -1.6788534820e-02
 -1.6748752445e-02
 -1.6708970070e-02
 -1.6669187695e-02
 -1.6629405320e-02
 -1.6589619219e-02
 -1.6549836844e-02
 -1.6510052606e-02
 -1.6470272094e-02
 -1.6430485994e-02
 -1.6390703619e-02
 -1.6350919381e-02
 -1.6311138868e-02
 -1.6271352768e-02
 -1.6231568530e-02
 -1.6191786155e-02
 -1.6152005643e-02
 -1.6112223268e-02
 -1.6072437167e-02
 -1.6032652929e-02
 -1.5992872417e-02
 -1.5953090042e-02
 -1.5913303941e-02
 -1.5873521566e-02
 -1.5833739191e-02
 -1.5793956816e-02
 -1.5754170716e-02
 -1.5714390203e-02
 -1.5674605966e-02
 -1.5634823591e-02
 -1.5595039353e-02
 -1.5555256046e-02
 -1.5515472740e-02
 -1.5475687571e-02
 -1.5435905196e-02
 -1.5396122821e-02
 -1.5356338583e-02
 -1.5316556208e-02
 -1.5276771970e-02
 -1.5236989595e-02
 -1.5197206289e-02
 -1.5157422982e-02
 -1.5117638744e-02
 -1.5077856369e-02
 -1.5038072132e-02
 -1.4998290688e-02
 -1.4958506450e-02
 -1.4918722212e-02
 -1.4878939837e-02
 -1.4839157462e-02
 -1.4799372293e-02
 -1.4759590849e-02
 -1.4719805680e-02
 -1.4680024236e-02
 -1.4640241861e-02
 -1.4600456692e-02
 -1.4560673386e-02
 -1.4520891011e-02
 -1.4481108636e-02
 -1.4441325329e-02
 -1.4401542023e-02
 -1.4361755922e-02
 -1.4321973547e-02
 -1.4282191172e-02
 -1.4242406934e-02
 -1.4202624559e-02
 -1.4162840322e-02
 -1.4123057947e-02
 -1.4083275571e-02
 -1.4043491334e-02
 -1.4003707096e-02
 -1.3963924721e-02
 -1.3924142346e-02
 -1.3884359039e-02
 -1.3844575733e-02
 -1.3804791495e-02
 -1.3765009120e-02
 -1.3725226745e-02
 -1.3685441576e-02
 -1.3645659201e-02
 -1.3605874963e-02
 -1.3566092588e-02
 -1.3526310213e-02
 -1.3486525975e-02
 -1.3446742669e-02
 -1.3406958431e-02
 -1.3367176056e-02
 -1.3327393681e-02
 -1.3287610374e-02
 -1.3247825205e-02
 -1.3208042830e-02
 -1.3168261386e-02
 -1.3128477149e-02
 -1.3088693842e-02
 -1.3048909605e-02
 -1.3009126298e-02
 -1.2969343923e-02
 -1.2929559685e-02
 -1.2889776379e-02
 -1.2849994004e-02
 -1.2810210697e-02
 -1.2770427391e-02
 -1.2730645016e-02
 -1.2690859847e-02
 -1.2651077472e-02
 -1.2611294165e-02
 -1.2571509928e-02
 -1.2531727552e-02
 -1.2491943315e-02
 -1.2452160940e-02
 -1.2412378564e-02
 -1.2372594327e-02
 -1.2332811952e-02
 -1.2293027714e-02
 -1.2253244407e-02
 -1.2213462032e-02
 -1.2173677795e-02
 -1.2133893557e-02
 -1.2094111182e-02
 -1.2054328807e-02
 -1.2014544569e-02
 -1.1974762194e-02
 -1.1934977956e-02
 -1.1895195581e-02
 -1.1855412275e-02
 -1.1815628037e-02
 -1.1775845662e-02
 -1.1736061424e-02
 -1.1696279049e-02
 -1.1656495742e-02
 -1.1616712436e-02
 -1.1576929130e-02
 -1.1537145823e-02
 -1.1497362517e-02
 -1.1457579210e-02
 -1.1417794973e-02
 -1.1378012598e-02
 -1.1338230222e-02
 -1.1298445985e-02
 -1.1258663610e-02
 -1.1218881235e-02
 -1.1179096997e-02
 -1.1139313690e-02
 -1.1099531315e-02
 -1.1059748009e-02
 -1.1019963771e-02
 -1.0980179533e-02
 -1.0940398090e-02
 -1.0900612921e-02
 -1.0860830545e-02
 -1.0821047239e-02
 -1.0781264864e-02
 -1.0741481557e-02
 -1.0701697320e-02
 -1.0661914013e-02
 -1.0622131638e-02
 -1.0582348332e-02
 -1.0542564094e-02
 -1.0502781719e-02
 -1.0462998413e-02
 -1.0423215106e-02
 -1.0383432731e-02
 -1.0343648493e-02
 -1.0303865187e-02
 -1.0264082812e-02
 -1.0224298574e-02
 -1.0184515268e-02
 -1.0144731961e-02
 -1.0104949586e-02
 -1.0065165348e-02
 -1.0025382042e-02
 -9.9855987355e-03
 -9.9458163604e-03
 -9.9060330540e-03
 -9.8662488163e-03
 -9.8264655098e-03
 -9.7866812721e-03
 -9.7468988970e-03
 -9.7071155906e-03
 -9.6673322842e-03
 -9.6275499091e-03
 -9.5877656713e-03
 -9.5479832962e-03
 -9.5081990585e-03
 -9.4684166834e-03
 -9.4286324456e-03
 -9.3888491392e-03
 -9.3490658328e-03
 -9.3092825264e-03
 -9.2695010826e-03
 -9.2297159135e-03
 -9.1899335384e-03
 -9.1501502320e-03
 -9.1103678569e-03
 -9.0705836192e-03
 -9.0308003128e-03
 -8.9910170063e-03
 -8.9512327686e-03
 -8.9114503935e-03
 -8.8716670871e-03
 -8.8318837807e-03
 -8.7921014056e-03
 -8.7523171678e-03
 -8.7125347927e-03
 -8.6727514863e-03
 -8.6329672486e-03
 -8.5931839421e-03
 -8.5534006357e-03
 -8.5136182606e-03
 -8.4738340229e-03
 -8.4340516478e-03
 -8.3942692727e-03
 -8.3544850349e-03
 -8.3147026598e-03
 -8.2749184221e-03
 -8.2351360470e-03
 -8.1953518093e-03
 -8.1555694342e-03
 -8.1157851964e-03
 -8.0760028213e-03
 -8.0362185836e-03
 -7.9964362085e-03
 -7.9566519707e-03
 -7.9168695956e-03
 -7.8770853579e-03
 -7.8373029828e-03
 -7.7975196764e-03
 -7.7577363700e-03
 -7.7179525979e-03
 -7.6781692915e-03
 -7.6383859850e-03
 -7.5986026786e-03
 -7.5588193722e-03
 -7.5190360658e-03
 -7.4792532250e-03
 -7.4394699186e-03
 -7.3996861465e-03
 -7.3599028401e-03
 -7.3201199993e-03
 -7.2803366929e-03
 -7.2405543178e-03
 -7.2007710114e-03
 -7.1609867737e-03
 -7.1212034672e-03
 -7.0814201608e-03
 -7.0416368544e-03
 -7.0018544793e-03
 -6.9620711729e-03
 -6.9222878665e-03
 -6.8825045601e-03
 -6.8427207880e-03
 -6.8029374816e-03
 -6.7631546408e-03
 -6.7233713344e-03
 -6.6835880280e-03
 -6.6438051872e-03
 -6.6040214151e-03
 -6.5642381087e-03
 -6.5244548023e-03
 -6.4846719615e-03
 -6.4448886551e-03
 -6.4051053487e-03
 -6.3653225079e-03
 -6.3255387358e-03
 -6.2857549638e-03
 -6.2459716573e-03
 -6.2061892822e-03
 -6.1664059758e-03
 -6.1266222037e-03
 -6.0868388973e-03
 -6.0470555909e-03
 -6.0072722845e-03
 -5.9674889781e-03
 -5.9277061373e-03
 -5.8879223652e-03
 -5.8481395245e-03
 -5.8083562180e-03
 -5.7685729116e-03
 -5.7287896052e-03
 -5.6890062988e-03
 -5.6492229924e-03
 -5.6094396859e-03
 -5.5696568452e-03
 -5.5298740044e-03
 -5.4900897667e-03
 -5.4503064603e-03
 -5.4105231538e-03
 -5.3707407787e-03
 -5.3309570067e-03
 -5.2911741659e-03
 -5.2513908595e-03
 -5.2116075531e-03
 -5.1718242466e-03
 -5.1320409402e-03
 -5.0922576338e-03
 -5.0524747930e-03
 -5.0126910210e-03
 -4.9729081802e-03
 -4.9331244081e-03
 -4.8933406360e-03
 -4.8535577953e-03
 -4.8137749545e-03
 -4.7739916481e-03
 -4.7342083417e-03
 -4.6944245696e-03
 -4.6546412632e-03
 -4.6148579568e-03
 -4.5750746503e-03
 -4.5352918096e-03
 -4.4955085032e-03
 -4.4557251967e-03
 -4.4159418903e-03
 -4.3761585839e-03
 -4.3363757432e-03
 -4.2965919711e-03
 -4.2568091303e-03
 -4.2170258239e-03
 -4.1772425175e-03
 -4.1374592111e-03
 -4.0976759046e-03
 -4.0578921326e-03
 -4.0181088261e-03
 -3.9783259854e-03
 -3.9385426790e-03
 -3.8987598382e-03
 -3.8589762989e-03
 -3.8191929925e-03
 -3.7794096861e-03
 -3.7396266125e-03
 -3.6998430733e-03
 -3.6600599997e-03
 -3.6202771589e-03
 -3.5804933868e-03
 -3.5407100804e-03
 -3.5009267740e-03
 -3.4611439332e-03
 -3.4213603940e-03
 -3.3815773204e-03
 -3.3417940140e-03
 -3.3020107076e-03
 -3.2622274011e-03
 -3.2224440947e-03
 -3.1826612540e-03
 -3.1428774819e-03
 -3.1030941755e-03
 -3.0633111019e-03
 -3.0235277954e-03
 -2.9837444890e-03
 -2.9439611826e-03
 -2.9041781090e-03
 -2.8643948026e-03
 -2.8246112633e-03
 -2.7848284226e-03
 -2.7450448833e-03
 -2.7052615769e-03
 -2.6654782705e-03
 -2.6256954297e-03
 -2.5859121233e-03
 -2.5461288169e-03
 -2.5063455105e-03
 -2.4665622041e-03
 -2.4267788976e-03
 -2.3869955912e-03
 -2.3472122848e-03
 -2.3074289784e-03
 -2.2676456720e-03
 -2.2278625984e-03
 -2.1880792920e-03
 -2.1482959855e-03
 -2.1085129119e-03
 -2.0687296055e-03
 -2.0289460663e-03
 -1.9891627599e-03
 -1.9493799191e-03
 -1.9095964963e-03
 -1.8698131898e-03
 -1.8300302327e-03
 -1.7902466934e-03
 -1.7504633870e-03
 -1.7106800806e-03
 -1.6708970070e-03
 -1.6311137006e-03
 -1.5913302777e-03
 -1.5515473206e-03
 -1.5117638977e-03
 -1.4719805913e-03
 -1.4321971685e-03
 -1.3924142113e-03
 -1.3526307885e-03
 -1.3128474820e-03
 -1.2730644085e-03
 -1.2332811020e-03
 -1.1934977956e-03
 -1.1537144892e-03
 -1.1139312992e-03
 -1.0741479928e-03
 -1.0343646863e-03
 -9.9458172917e-04
 -9.5479789888e-04
 -9.1501523275e-04
 -8.7523186812e-04
 -8.3544850349e-04
 -7.9566513887e-04
 -7.5588177424e-04
 -7.1609846782e-04
 -6.7631504498e-04
 -6.3653237885e-04
 -5.9674901422e-04
 -5.5696564959e-04
 -5.1718234317e-04
 -4.7739894944e-04
 -4.3761558481e-04
 -3.9783224929e-04
 -3.5804958316e-04
 -3.1826618942e-04
 -2.7848282480e-04
 -2.3869947472e-04
 -1.9891612465e-04
 -1.5913276002e-04
 -1.1934938811e-04
 -7.9566721979e-05
 -3.9783360990e-05
 0.0000000000e+00
 3.9783360990e-05
 7.9566721979e-05
 1.1935009388e-04
 1.5913344396e-04
 1.9891612465e-04
 2.3869947472e-04
 2.7848282480e-04
 3.1826618942e-04
 3.5804958316e-04
 3.9783294778e-04
 4.3761628331e-04
 4.7739894944e-04
 5.1718234317e-04
 5.5696564959e-04
 5.9674901422e-04
 6.3653237885e-04
 6.7631574348e-04
 7.1609916631e-04
 7.5588177424e-04
 7.9566513887e-04
 8.3544850349e-04
 8.7523186812e-04
 9.1501523275e-04
 9.5479853917e-04
 9.9458207842e-04
 1.0343646863e-03
 1.0741479928e-03
 1.1139312992e-03
 1.1537147220e-03
 1.1934980284e-03
 1.2332815677e-03
 1.2730647577e-03
 1.3128474820e-03
 1.3526307885e-03
 1.3924142113e-03
 1.4321976341e-03
 1.4719809406e-03
 1.5117643634e-03
 1.5515476698e-03
 1.5913302777e-03
 1.6311137006e-03
 1.6708970070e-03
 1.7106804298e-03
 1.7504637362e-03
 1.7902471591e-03
 1.8300304655e-03
 1.8698131898e-03
 1.9095964963e-03
 1.9493799191e-03
 1.9891634583e-03
 2.0289467648e-03
 2.0687300712e-03
 2.1085133776e-03
 2.1482959855e-03
 2.1880792920e-03
 2.2278625984e-03
 2.2676459048e-03
 2.3074294440e-03
 2.3472127505e-03
 2.3869960569e-03
 2.4267788976e-03
 2.4665622041e-03
 2.5063455105e-03
 2.5461288169e-03
 2.5859121233e-03
 2.6256956626e-03
 2.6654789690e-03
 2.7052615769e-03
 2.7450448833e-03
 2.7848284226e-03
 2.8246117290e-03
 2.8643952683e-03
 2.9041783419e-03
 2.9439618811e-03
 2.9837444890e-03
 3.0235277954e-03
 3.0633111019e-03
 3.1030946411e-03
 3.1428779475e-03
 3.1826612540e-03
 3.2224445604e-03
 3.2622274011e-03
 3.3020107076e-03
 3.3417940140e-03
 3.3815775532e-03
 3.4213608596e-03
 3.4611441661e-03
 3.5009274725e-03
 3.5407100804e-03
 3.5804933868e-03
 3.6202771589e-03
 3.6600604653e-03
 3.6998437718e-03
 3.7396270782e-03
 3.7794103846e-03
 3.8191929925e-03
 3.8589762989e-03
 3.8987598382e-03
 3.9385426790e-03
 3.9783269167e-03
 4.0181097575e-03
 4.0578935295e-03
 4.0976759046e-03
 4.1374592111e-03
 4.1772425175e-03
 4.2170258239e-03
 4.2568091303e-03
 4.2965924367e-03
 4.3363757432e-03
 4.3761585839e-03
 4.4159418903e-03
 4.4557251967e-03
 4.4955085032e-03
 4.5352918096e-03
 4.5750755817e-03
 4.6148579568e-03
 4.6546412632e-03
 4.6944245696e-03
 4.7342083417e-03
 4.7739916481e-03
 4.8137749545e-03
 4.8535582609e-03
 4.8933406360e-03
 4.9331244081e-03
 4.9729081802e-03
 5.0126914866e-03
 5.0524747930e-03
 5.0922576338e-03
 5.1320414059e-03
 5.1718242466e-03
 5.2116080187e-03
 5.2513908595e-03
 5.2911746316e-03
 5.3309570067e-03
 5.3707398474e-03
 5.4105245508e-03
 5.4503064603e-03
 5.4900911637e-03
 5.5298740044e-03
 5.5696577765e-03
 5.6094406173e-03
 5.6492225267e-03
 5.6890067644e-03
 5.7287896052e-03
 5.7685738429e-03
 5.8083562180e-03
 5.8481404558e-03
 5.8879228309e-03
 5.9277056716e-03
 5.9674894437e-03
 6.0072722845e-03
 6.0470569879e-03
 6.0868388973e-03
 6.1266226694e-03
 6.1664059758e-03
 6.2061883509e-03
 6.2459725887e-03
 6.2857549638e-03
 6.3255392015e-03
 6.3653225079e-03
 6.4051058143e-03
 6.4448886551e-03
 6.4846719615e-03
 6.5244557336e-03
 6.5642381087e-03
 6.6040218808e-03
 6.6438051872e-03
 6.6835889593e-03
 6.7233713344e-03
 6.7631546408e-03
 6.8029384129e-03
 6.8427207880e-03
 6.8825050257e-03
 6.9222878665e-03
 6.9620721042e-03
 7.0018544793e-03
 7.0416368544e-03
 7.0814215578e-03
 7.1212034672e-03
 7.1609877050e-03
 7.2007710114e-03
 7.2405547835e-03
 7.2803366929e-03
 7.3201199993e-03
 7.3599042371e-03
 7.3996861465e-03
 7.4394708499e-03
 7.4792532250e-03
 7.5190379284e-03
 7.5588193722e-03
 7.5986026786e-03
 7.6383873820e-03
 7.6781692915e-03
 7.7179539949e-03
 7.7577363700e-03
 7.7975206077e-03
 7.8373411670e-03
 7.8773517162e-03
 7.9175690189e-03
 7.9579902813e-03
 7.9986173660e-03
 8.0394530669e-03
 8.0804936588e-03
 8.1217493862e-03
 8.1632109359e-03
 8.2048866898e-03
 8.2467757165e-03
 8.2888770849e-03
 8.3311935887e-03
 8.3737270907e-03
 8.4164775908e-03
 8.4594432265e-03
 8.5026333109e-03
 8.5460394621e-03
 8.5896691307e-03
 8.6335213855e-03
 8.6775980890e-03
 8.7219001725e-03
 8.7664257735e-03
 8.8111832738e-03
 8.8561633602e-03
 8.9013800025e-03
 8.9468210936e-03
 8.9924950153e-03
 9.0384073555e-03
 9.0845469385e-03
 9.1309286654e-03
 9.1775422916e-03
 9.2243999243e-03
 9.2714885250e-03
 9.3188239262e-03
 9.3663986772e-03
 9.4142137095e-03
 9.4622792676e-03
 9.5105823129e-03
 9.5591396093e-03
 9.6079390496e-03
 9.6569899470e-03
 9.7062923014e-03
 9.7558451816e-03
 9.8056523129e-03
 9.8557099700e-03
 9.9060283974e-03
 9.9565982819e-03
 1.0007429868e-02
 1.0058520362e-02
 1.0109871626e-02
 1.0161486454e-02
 1.0213363916e-02
 1.0265504941e-02
 1.0317914188e-02
 1.0370588861e-02
 1.0423530824e-02
 1.0476749390e-02
 1.0530232452e-02
 1.0583992116e-02
 1.0638027452e-02
 1.0692337528e-02
 1.0746924207e-02
 1.0801790282e-02
 1.0856937617e-02
 1.0912360623e-02
 1.0968075134e-02
 1.1024067178e-02
 1.1080347002e-02
 1.1136916466e-02
 1.1193772778e-02
 1.1250920594e-02
 1.1308359914e-02
 1.1366091669e-02
 1.1424114928e-02
 1.1482442729e-02
 1.1541060172e-02
 1.1599980295e-02
 1.1659201235e-02
 1.1718725786e-02
 1.1778553016e-02
 1.1838684790e-02
 1.1899124831e-02
 1.1959869415e-02
 1.2020932510e-02
 1.2082298286e-02
 1.2143985368e-02
 1.2205980718e-02
 1.2268295512e-02
 1.2330927886e-02
 1.2393876910e-02
 1.2457155623e-02
 1.2520748191e-02
 1.2584675103e-02
 1.2648918666e-02
 1.2713499367e-02
 1.2778401375e-02
 1.2843634002e-02
 1.2909209356e-02
 1.2975109741e-02
 1.3041355647e-02
 1.3107932173e-02
 1.3174856082e-02
 1.3242112473e-02
 1.3309717178e-02
 1.3377667405e-02
 1.3445959426e-02
 1.3514609076e-02
 1.3583600521e-02
 1.3652953319e-02
 1.3722651638e-02
 1.3792709447e-02
 1.3863125816e-02
 1.3933899812e-02
 1.4005036093e-02
 1.4076531865e-02
 1.4148401096e-02
 1.4220627956e-02
 1.4293229207e-02
 1.4366199262e-02
 1.4439542778e-02
 1.4513260685e-02
 1.4587355778e-02
 1.4661828056e-02
 1.4736676589e-02
 1.4811915345e-02
 1.4887529425e-02
 1.4963534661e-02
 1.5039928257e-02
 1.5116711147e-02
 1.5193886124e-02
 1.5271455050e-02
 1.5349419788e-02
 1.5427783132e-02
 1.5506545082e-02
 1.5585706569e-02
 1.5665281564e-02
 1.5745252371e-02
 1.5825636685e-02
 1.5906430781e-02
 1.5987638384e-02
 1.6069259495e-02
 1.6151297837e-02
 1.6233751550e-02
 1.6316624358e-02
 1.6399931163e-02
 1.6483651474e-02
 1.6567807645e-02
 1.6652388498e-02
 1.6737407073e-02
 1.6822855920e-02
 1.6908738762e-02
 1.6995064914e-02
 1.7081823200e-02
 1.7169035971e-02
 1.7256682739e-02
 1.7344783992e-02
 1.7433332279e-02
 1.7522335052e-02
 1.7611794174e-02
 1.7701698467e-02
 1.7792079598e-02
 1.7882905900e-02
 1.7974207178e-02
 1.8065964803e-02
 1.8158204854e-02
 1.8250899389e-02
 1.8344070762e-02
 1.8437728286e-02
 1.8531851470e-02
 1.8626468256e-02
 1.8721554428e-02
 1.8817139789e-02
 1.8913200125e-02
 1.9009757787e-02
 1.9106809050e-02
 1.9204353914e-02
 1.9302397966e-02
 1.9400935620e-02
 1.9499991089e-02
 1.9599538296e-02
 1.9699599594e-02
 1.9800171256e-02
 1.9901257008e-02
 2.0002856851e-02
 2.0104976371e-02
 2.0207617432e-02
 2.0310778171e-02
 2.0414471626e-02
 2.0518690348e-02
 2.0623443648e-02
 2.0728733391e-02
 2.0834561437e-02
 2.0940925926e-02
 2.1047836170e-02
 2.1155284718e-02
 2.1263293922e-02
 2.1371843293e-02
 2.1480951458e-02
 2.1590618417e-02
 2.1700844169e-02
 2.1811632439e-02
 2.1922988817e-02
 2.2034909576e-02
 2.2147398442e-02
 2.2260475904e-02
 2.2374112159e-02
 2.2488338873e-02
 2.2603150457e-02
 2.2718543187e-02
 2.2834528238e-02
 2.2951107472e-02
 2.3068277165e-02
 2.3186039180e-02
 2.3304417729e-02
 2.3423386738e-02
 2.3542968556e-02
 2.3663163185e-02
 2.3783970624e-02
 2.3905396461e-02
 2.4027436972e-02
 2.4150107056e-02
 2.4273389950e-02
 2.4397311732e-02
 2.4521866813e-02
 2.4647058919e-02
 2.4772888049e-02
 2.4899361655e-02
 2.5026479736e-02
 2.5154247880e-02
 2.5282658637e-02
 2.5411732495e-02
 2.5541476905e-02
 2.5671865791e-02
 2.5802925229e-02
 2.5934655219e-02
 2.6067061350e-02
 2.6200141758e-02
 2.6333902031e-02
 2.6468332857e-02
 2.6603464037e-02
 2.6739288121e-02
 2.6875792071e-02
 2.7013000101e-02
 2.7150908485e-02
 2.7289515361e-02
 2.7428844944e-02
 2.7568874881e-02
 2.7709612623e-02
 2.7851078659e-02
 2.7993265539e-02
 2.8136178851e-02
 2.8279822320e-02
 2.8424199671e-02
