luts/Canon-Log2_to_linear.spi1d
Version 1
From 0 1
Length 4096
Components 1
{
 -6.0723819770e-03
 -6.0624447651e-03
 -6.0524838045e-03
 -6.0425000265e-03
 -6.0324929655e-03
 -6.0224621557e-03
 -6.0124085285e-03
 -6.0023311526e-03
 -5.9922300279e-03
 -5.9821056202e-03
 -5.9719579294e-03
 -5.9617860243e-03
 -5.9515903704e-03
 -5.9413714334e-03
 -5.9311282821e-03
 -5.9208613820e-03
 -5.9105707332e-03
 -5.9002554044e-03
 -5.8899167925e-03
 -5.8795535006e-03
 -5.8691664599e-03
 -5.8587547392e-03
 -5.8483192697e-03
 -5.8378591202e-03
 -5.8273747563e-03
 -5.8168657124e-03
 -5.8063324541e-03
 -5.7957740501e-03
 -5.7851914316e-03
 -5.7745841332e-03
 -5.7639521547e-03
 -5.7532954961e-03
 -5.7426136918e-03
 -5.7319072075e-03
 -5.7211755775e-03
 -5.7104188018e-03
 -5.6996368803e-03
 -5.6888302788e-03
 -5.6779980659e-03
 -5.6671407074e-03
 -5.6562582031e-03
 -5.6453500874e-03
 -5.6344168261e-03
 -5.6234574877e-03
 -5.6124730036e-03
 -5.6014629081e-03
 -5.5904272012e-03
 -5.5793654174e-03
 -5.5682780221e-03
 -5.5571650155e-03
 -5.5460259318e-03
 -5.5348607711e-03
 -5.5236695334e-03
 -5.5124522187e-03
 -5.5012088269e-03
 -5.4899388924e-03
 -5.4786428809e-03
 -5.4673207924e-03
 -5.4559721611e-03
 -5.4445969872e-03
 -5.4331952706e-03
 -5.4217670113e-03
 -5.4103117436e-03
 -5.3988299333e-03
 -5.3873215802e-03
 -5.3757862188e-03
 -5.3642243147e-03
 -5.3526349366e-03
 -5.3410185501e-03
 -5.3293756209e-03
 -5.3177052177e-03
 -5.3060073406e-03
 -5.2942824550e-03
 -5.2825300954e-03
 -5.2707502618e-03
 -5.2589429542e-03
 -5.2471081726e-03
 -5.2352459170e-03
 -5.2233561873e-03
 -5.2114385180e-03
 -5.1994929090e-03
 -5.1875193603e-03
 -5.1755178720e-03
 -5.1634889096e-03
 -5.1514315419e-03
 -5.1393457688e-03
 -5.1272320561e-03
 -5.1150904037e-03
 -5.1029198803e-03
 -5.0907214172e-03
 -5.0784940831e-03
 -5.0662388094e-03
 -5.0539546646e-03
 -5.0416416489e-03
 -5.0293002278e-03
 -5.0169299357e-03
 -5.0045303069e-03
 -4.9921022728e-03
 -4.9796453677e-03
 -4.9671591260e-03
 -4.9546440132e-03
 -4.9420990981e-03
 -4.9295257777e-03
 -4.9169226550e-03
 -4.9042901956e-03
 -4.8916279338e-03
 -4.8789368011e-03
 -4.8662154004e-03
 -4.8534651287e-03
 -4.8406845890e-03
 -4.8278742470e-03
 -4.8150341026e-03
 -4.8021636903e-03
 -4.7892639413e-03
 -4.7763334587e-03
 -4.7633731738e-03
 -4.7503826208e-03
 -4.7373617999e-03
 -4.7243102454e-03
 -4.7112288885e-03
 -4.6981163323e-03
 -4.6849735081e-03
 -4.6718004160e-03
 -4.6585961245e-03
 -4.6453610994e-03
 -4.6320953406e-03
 -4.6187983826e-03
 -4.6054706909e-03
 -4.5921117999e-03
 -4.5787217095e-03
 -4.5653004199e-03
 -4.5518479310e-03
 -4.5383637771e-03
 -4.5248484239e-03
 -4.5113014057e-03
 -4.4977231883e-03
 -4.4841128401e-03
 -4.4704708271e-03
 -4.4567971490e-03
 -4.4430913404e-03
 -4.4293538667e-03
 -4.4155842625e-03
 -4.4017825276e-03
 -4.3879486620e-03
 -4.3740822002e-03
 -4.3601836078e-03
 -4.3462528847e-03
 -4.3322890997e-03
 -4.3182931840e-03
 -4.3042646721e-03
 -4.2902030982e-03
 -4.2761089280e-03
 -4.2619816959e-03
 -4.2478218675e-03
 -4.2336285114e-03
 -4.2194025591e-03
 -4.2051430792e-03
 -4.1908505373e-03
 -4.1765244678e-03
 -4.1621653363e-03
 -4.1477722116e-03
 -4.1333460249e-03
 -4.1188858449e-03
 -4.1043921374e-03
 -4.0898644365e-03
 -4.0753032081e-03
 -4.0607075207e-03
 -4.0460783057e-03
 -4.0314146318e-03
 -4.0167164989e-03
 -4.0019843727e-03
 -3.9872182533e-03
 -3.9724172093e-03
 -3.9575817063e-03
 -3.9427117445e-03
 -3.9278073236e-03
 -3.9128675126e-03
 -3.8978932425e-03
 -3.8828840479e-03
 -3.8678399287e-03
 -3.8527604192e-03
 -3.8376459852e-03
 -3.8224963937e-03
 -3.8073111791e-03
 -3.7920905743e-03
 -3.7768345792e-03
 -3.7615431938e-03
 -3.7462159526e-03
 -3.7308528554e-03
 -3.7154539023e-03
 -3.7000193261e-03
 -3.6845484283e-03
 -3.6690416746e-03
 -3.6534985993e-03
 -3.6379194353e-03
 -3.6223037168e-03
 -3.6066516768e-03
 -3.5909633152e-03
 -3.5752381664e-03
 -3.5594764631e-03
 -3.5436777398e-03
 -3.5278424621e-03
 -3.5119701643e-03
 -3.4960606135e-03
 -3.4801142756e-03
 -3.4641306847e-03
 -3.4481096081e-03
 -3.4320512787e-03
 -3.4159556963e-03
 -3.3998223953e-03
 -3.3836513758e-03
 -3.3674426377e-03
 -3.3511961810e-03
 -3.3349120058e-03
 -3.3185896464e-03
 -3.3022291027e-03
 -3.2858306076e-03
 -3.2693939283e-03
 -3.2529188320e-03
 -3.2364050858e-03
 -3.2198531553e-03
 -3.2032623421e-03
 -3.1866331119e-03
 -3.1699647661e-03
 -3.1532577705e-03
 -3.1365116592e-03
 -3.1197266653e-03
 -3.1029025558e-03
 -3.0860390980e-03
 -3.0691362917e-03
 -3.0521939043e-03
 -3.0352121685e-03
 -3.0181908514e-03
 -3.0011299532e-03
 -2.9840290081e-03
 -2.9668882489e-03
 -2.9497076757e-03
 -2.9324868228e-03
 -2.9152259231e-03
 -2.8979247436e-03
 -2.8805832844e-03
 -2.8632010799e-03
 -2.8457785957e-03
 -2.8283153661e-03
 -2.8108116239e-03
 -2.7932669036e-03
 -2.7756812051e-03
 -2.7580545284e-03
 -2.7403866407e-03
 -2.7226777747e-03
 -2.7049274649e-03
 -2.6871357113e-03
 -2.6693025138e-03
 -2.6514278725e-03
 -2.6335113216e-03
 -2.6155530941e-03
 -2.5975529570e-03
 -2.5795106776e-03
 -2.5614264887e-03
 -2.5433001574e-03
 -2.5251314510e-03
 -2.5069203693e-03
 -2.4886669125e-03
 -2.4703708477e-03
 -2.4520319421e-03
 -2.4336504284e-03
 -2.4152260739e-03
 -2.3967586458e-03
 -2.3782481439e-03
 -2.3596945684e-03
 -2.3410976864e-03
 -2.3224574979e-03
 -2.3037735373e-03
 -2.2850462701e-03
 -2.2662752308e-03
 -2.2474604193e-03
 -2.2286018357e-03
 -2.2096990142e-03
 -2.1907524206e-03
 -2.1717613563e-03
 -2.1527260542e-03
 -2.1336465143e-03
 -2.1145222709e-03
 -2.0953535568e-03
 -2.0761401393e-03
 -2.0568817854e-03
 -2.0375787280e-03
 -2.0182305016e-03
 -1.9988371059e-03
 -1.9793985412e-03
 -1.9599145744e-03
 -1.9403853221e-03
 -1.9208104350e-03
 -1.9011899130e-03
 -1.8815235235e-03
 -1.8618113827e-03
 -1.8420531414e-03
 -1.8222489161e-03
 -1.8023984740e-03
 -1.7825016985e-03
 -1.7625585897e-03
 -1.7425689148e-03
 -1.7225326737e-03
 -1.7024496337e-03
 -1.6823197948e-03
 -1.6621429240e-03
 -1.6419190215e-03
 -1.6216479708e-03
 -1.6013296554e-03
 -1.5809639590e-03
 -1.5605507651e-03
 -1.5400899574e-03
 -1.5195814194e-03
 -1.4990250347e-03
 -1.4784206869e-03
 -1.4577682596e-03
 -1.4370677527e-03
 -1.4163189335e-03
 -1.3955216855e-03
 -1.3746758923e-03
 -1.3537815539e-03
 -1.3328384375e-03
 -1.3118465431e-03
 -1.2908056378e-03
 -1.2697156053e-03
 -1.2485764455e-03
 -1.2273880420e-03
 -1.2061501620e-03
 -1.1848626891e-03
 -1.1635256233e-03
 -1.1421387317e-03
 -1.1207020143e-03
 -1.0992153548e-03
 -1.0776785202e-03
 -1.0560913943e-03
 -1.0344539769e-03
 -1.0127661517e-03
 -9.9102768581e-04
 -9.6923846286e-04
 -9.4739848282e-04
 -9.2550751287e-04
 -9.0356555302e-04
 -8.8157237042e-04
 -8.5952790687e-04
 -8.3743198775e-04
 -8.1528461305e-04
 -7.9308549175e-04
 -7.7083468204e-04
 -7.4853189290e-04
 -7.2617712431e-04
 -7.0377020165e-04
 -6.8131106673e-04
 -6.5879948670e-04
 -6.3623546157e-04
 -6.1361875851e-04
 -5.9094931930e-04
 -5.6822696934e-04
 -5.4545165040e-04
 -5.2262324607e-04
 -4.9974158173e-04
 -4.7680651187e-04
 -4.5381797827e-04
 -4.3077583541e-04
 -4.0767993778e-04
 -3.8453013985e-04
 -3.6132638343e-04
 -3.3806849387e-04
 -3.1475638389e-04
 -2.9138987884e-04
 -2.6796886232e-04
 -2.4449324701e-04
 -2.2096285829e-04
 -1.9737757975e-04
 -1.7373730952e-04
 -1.5004188754e-04
 -1.2629121193e-04
 -1.0248512990e-04
 -7.8623532318e-05
 -5.4706270021e-05
 -3.0733230233e-05
 -6.7042724368e-06
 1.7380729332e-05
 4.1521907406e-05
 6.5719388658e-05
 8.9973313152e-05
 1.1428380094e-04
 1.3865099754e-04
 1.6307501937e-04
 1.8755601195e-04
 2.1209410625e-04
 2.3668943322e-04
 2.6134212385e-04
 2.8605232364e-04
 3.1082014902e-04
 3.3564571640e-04
 3.6052922951e-04
 3.8547074655e-04
 4.1047047125e-04
 4.3552846182e-04
 4.6064492199e-04
 4.8581996816e-04
 5.1105371676e-04
 5.3634634241e-04
 5.6169793243e-04
 5.8710871963e-04
 6.1257870402e-04
 6.3810811844e-04
 6.6369707929e-04
 6.8934570299e-04
 7.1505416417e-04
 7.4082257925e-04
 7.6665112283e-04
 7.9253985314e-04
 8.1848900300e-04
 8.4449868882e-04
 8.7056902703e-04
 8.9670019224e-04
 9.2289230088e-04
 9.4914546935e-04
 9.7545987228e-04
 1.0018356843e-03
 1.0282730218e-03
 1.0547719430e-03
 1.0813326808e-03
 1.1079554679e-03
 1.1346403044e-03
 1.1613873066e-03
 1.1881968239e-03
 1.2150687398e-03
 1.2420034036e-03
 1.2690009316e-03
 1.2960613240e-03
 1.3231849298e-03
 1.3503717491e-03
 1.3776218984e-03
 1.4049357269e-03
 1.4323132345e-03
 1.4597545378e-03
 1.4872599859e-03
 1.5148294624e-03
 1.5424632002e-03
 1.5701615484e-03
 1.5979243908e-03
 1.6257519601e-03
 1.6536444891e-03
 1.6816020943e-03
 1.7096248921e-03
 1.7377129989e-03
 1.7658666475e-03
 1.7940860707e-03
 1.8223711522e-03
 1.8507222412e-03
 1.8791395705e-03
 1.9076230237e-03
 1.9361730665e-03
 1.9647895824e-03
 1.9934729207e-03
 2.0222230814e-03
 2.0510402974e-03
 2.0799248014e-03
 2.1088765934e-03
 2.1378959063e-03
 2.1669829730e-03
 2.1961377934e-03
 2.2253608331e-03
 2.2546518594e-03
 2.2840111051e-03
 2.3134390358e-03
 2.3429354187e-03
 2.3725007195e-03
 2.4021349382e-03
 2.4318383075e-03
 2.4616110604e-03
 2.4914531969e-03
 2.5213647168e-03
 2.5513463188e-03
 2.5813975371e-03
 2.6115190703e-03
 2.6417106856e-03
 2.6719728485e-03
 2.7023055591e-03
 2.7327090502e-03
 2.7631835546e-03
 2.7937288396e-03
 2.8243456036e-03
 2.8550338466e-03
 2.8857933357e-03
 2.9166247696e-03
 2.9475281481e-03
 2.9785037041e-03
 3.0095512047e-03
 3.0406713486e-03
 3.0718641356e-03
 3.1031295657e-03
 3.1344678719e-03
 3.1658792868e-03
 3.1973640434e-03
 3.2289221417e-03
 3.2605538145e-03
 3.2922592945e-03
 3.3240388148e-03
 3.3558923751e-03
 3.3878202084e-03
 3.4198225476e-03
 3.4518996254e-03
 3.4840514418e-03
 3.5162782297e-03
 3.5485802218e-03
 3.5809576511e-03
 3.6134102847e-03
 3.6459388211e-03
 3.6785432603e-03
 3.7112236023e-03
 3.7439803127e-03
 3.7768133916e-03
 3.8097230718e-03
 3.8427093532e-03
 3.8757727016e-03
 3.9089131169e-03
 3.9421310648e-03
 3.9754263125e-03
 4.0087993257e-03
 4.0422496386e-03
 4.0757786483e-03
 4.1093854234e-03
 4.1430708952e-03
 4.1768345982e-03
 4.2106774636e-03
 4.2445990257e-03
 4.2785997503e-03
 4.3126796372e-03
 4.3468391523e-03
 4.3810782954e-03
 4.4153970666e-03
 4.4497963972e-03
 4.4842758216e-03
 4.5188353397e-03
 4.5534758829e-03
 4.5881969854e-03
 4.6229991131e-03
 4.6578822657e-03
 4.6928469092e-03
 4.7278930433e-03
 4.7630211338e-03
 4.7982307151e-03
 4.8335227184e-03
 4.8688971438e-03
 4.9043539912e-03
 4.9398932606e-03
 4.9755158834e-03
 5.0112213939e-03
 5.0470097922e-03
 5.0828820094e-03
 5.1188380457e-03
 5.1548779011e-03
 5.1910015754e-03
 5.2272100002e-03
 5.2635022439e-03
 5.2998797037e-03
 5.3363414481e-03
 5.3728884086e-03
 5.4095210508e-03
 5.4462384433e-03
 5.4830419831e-03
 5.5199312046e-03
 5.5569065735e-03
 5.5939680897e-03
 5.6311157532e-03
 5.6683504954e-03
 5.7056718506e-03
 5.7430802844e-03
 5.7805762626e-03
 5.8181593195e-03
 5.8558303863e-03
 5.8935889974e-03
 5.9314356185e-03
 5.9693707153e-03
 6.0073942877e-03
 6.0455068015e-03
 6.0837077908e-03
 6.1219977215e-03
 6.1603775248e-03
 6.1988462694e-03
 6.2374053523e-03
 6.2760538422e-03
 6.3147926703e-03
 6.3536218368e-03
 6.3925418071e-03
 6.4315521158e-03
 6.4706536941e-03
 6.5098465420e-03
 6.5491306596e-03
 6.5885065123e-03
 6.6279741004e-03
 6.6675338894e-03
 6.7071854137e-03
 6.7469300702e-03
 6.7867669277e-03
 6.8266969174e-03
 6.8667205051e-03
 6.9068367593e-03
 6.9470470771e-03
 6.9873505272e-03
 7.0277485065e-03
 7.0682405494e-03
 7.1088271216e-03
 7.1495082229e-03
 7.1902843192e-03
 7.2311558761e-03
 7.2721219622e-03
 7.3131844401e-03
 7.3543419130e-03
 7.3955957778e-03
 7.4369460344e-03
 7.4783922173e-03
 7.5199357234e-03
 7.5615756214e-03
 7.6033128425e-03
 7.6451473869e-03
 7.6870792545e-03
 7.7291093767e-03
 7.7712372877e-03
 7.8134639189e-03
 7.8557878733e-03
 7.8982114792e-03
 7.9407338053e-03
 7.9833557829e-03
 8.0260764807e-03
 8.0688968301e-03
 8.1118177623e-03
 8.1548383459e-03
 8.1979585811e-03
 8.2411803305e-03
 8.2845026627e-03
 8.3279255778e-03
 8.3714509383e-03
 8.4150768816e-03
 8.4588043392e-03
 8.5026342422e-03
 8.5465665907e-03
 8.5906013846e-03
 8.6347386241e-03
 8.6789783090e-03
 8.7233223021e-03
 8.7677687407e-03
 8.8123194873e-03
 8.8569736108e-03
 8.9017320424e-03
 8.9465947822e-03
 8.9915627614e-03
 9.0366350487e-03
 9.0818125755e-03
 9.1270953417e-03
 9.1724842787e-03
 9.2179784551e-03
 9.2635797337e-03
 9.3092862517e-03
 9.3550998718e-03
 9.4010196626e-03
 9.4470474869e-03
 9.4931824133e-03
 9.5394244418e-03
 9.5857754350e-03
 9.6322335303e-03
 9.6788005903e-03
 9.7254756838e-03
 9.7722597420e-03
 9.8191536963e-03
 9.8661556840e-03
 9.9132684991e-03
 9.9604902789e-03
 1.0007822886e-02
 1.0055265389e-02
 1.0102818720e-02
 1.0150483809e-02
 1.0198258795e-02
 1.0246145539e-02
 1.0294144973e-02
 1.0342255235e-02
 1.0390478186e-02
 1.0438812897e-02
 1.0487261228e-02
 1.0535822250e-02
 1.0584496893e-02
 1.0633284226e-02
 1.0682186112e-02
 1.0731201619e-02
 1.0780331679e-02
 1.0829576291e-02
 1.0878935456e-02
 1.0928410105e-02
 1.0978000239e-02
 1.1027705856e-02
 1.1077526957e-02
 1.1127465405e-02
 1.1177519336e-02
 1.1227690615e-02
 1.1277978308e-02
 1.1328383349e-02
 1.1378906667e-02
 1.1429547332e-02
 1.1480306275e-02
 1.1531182565e-02
 1.1582178995e-02
 1.1633293703e-02
 1.1684527621e-02
 1.1735880747e-02
 1.1787354015e-02
 1.1838947423e-02
 1.1890661903e-02
 1.1942495592e-02
 1.1994451284e-02
 1.2046527117e-02
 1.2098724954e-02
 1.2151044793e-02
 1.2203486636e-02
 1.2256050482e-02
 1.2308737263e-02
 1.2361546047e-02
 1.2414478697e-02
 1.2467535213e-02
 1.2520714663e-02
 1.2574017979e-02
 1.2627447024e-02
 1.2680999003e-02
 1.2734676711e-02
 1.2788480148e-02
 1.2842408381e-02
 1.2896462344e-02
 1.2950642966e-02
 1.3004949316e-02
 1.3059382327e-02
 1.3113942929e-02
 1.3168630190e-02
 1.3223445043e-02
 1.3278387487e-02
 1.3333459385e-02
 1.3388658874e-02
 1.3443986885e-02
 1.3499443419e-02
 1.3555030338e-02
 1.3610746711e-02
 1.3666592538e-02
 1.3722569682e-02
 1.3778676279e-02
 1.3834914193e-02
 1.3891283423e-02
 1.3947783969e-02
 1.4004415832e-02
 1.4061180875e-02
 1.4118077233e-02
 1.4175106771e-02
 1.4232269488e-02
 1.4289565384e-02
 1.4346994460e-02
 1.4404557645e-02
 1.4462255873e-02
 1.4520088211e-02
 1.4578054659e-02
 1.4636157081e-02
 1.4694395475e-02
 1.4752768911e-02
 1.4811279252e-02
 1.4869925566e-02
 1.4928707853e-02
 1.4987628907e-02
 1.5046685934e-02
 1.5105881728e-02
 1.5165214427e-02
 1.5224686824e-02
 1.5284297056e-02
 1.5344046988e-02
 1.5403935686e-02
 1.5463964082e-02
 1.5524133109e-02
 1.5584441833e-02
 1.5644891188e-02
 1.5705483034e-02
 1.5766214579e-02
 1.5827087685e-02
 1.5888104215e-02
 1.5949260443e-02
 1.6010561958e-02
 1.6072005033e-02
 1.6133591533e-02
 1.6195323318e-02
 1.6257196665e-02
 1.6319215298e-02
 1.6381379217e-02
 1.6443686560e-02
 1.6506141052e-02
 1.6568740830e-02
 1.6631485894e-02
 1.6694378108e-02
 1.6757415608e-02
 1.6820602119e-02
 1.6883933917e-02
 1.6947414726e-02
 1.7011044547e-02
 1.7074821517e-02
 1.7138745636e-02
 1.7202820629e-02
 1.7267046496e-02
 1.7331419513e-02
 1.7395943403e-02
 1.7460618168e-02
 1.7525443807e-02
 1.7590420321e-02
 1.7655549571e-02
 1.7720829695e-02
 1.7786262557e-02
 1.7851848155e-02
 1.7917584628e-02
 1.7983477563e-02
 1.8049521372e-02
 1.8115721643e-02
 1.8182074651e-02
 1.8248582259e-02
 1.8315246329e-02
 1.8382064998e-02
 1.8449040130e-02
 1.8516171724e-02
 1.8583457917e-02
 1.8650902435e-02
 1.8718505278e-02
 1.8786264583e-02
 1.8854182214e-02
 1.8922258168e-02
 1.8990492448e-02
 1.9058886915e-02
 1.9127439708e-02
 1.9196152687e-02
 1.9265025854e-02
 1.9334061071e-02
 1.9403256476e-02
 1.9472612068e-02
 1.9542131573e-02
 1.9611811265e-02
 1.9681654871e-02
 1.9751660526e-02
 1.9821830094e-02
 1.9892161712e-02
 1.9962659106e-02
 2.0033320412e-02
 2.0104147494e-02
 2.0175138488e-02
 2.0246295258e-02
 2.0317617804e-02
 2.0389107987e-02
 2.0460763946e-02
 2.0532585680e-02
 2.0604576916e-02
 2.0676735789e-02
 2.0749062300e-02
 2.0821558312e-02
 2.0894221961e-02
 2.0967056975e-02
 2.1040061489e-02
 2.1113235503e-02
 2.1186579019e-02
 2.1260095760e-02
 2.1333783865e-02
 2.1407643333e-02
 2.1481674165e-02
 2.1555878222e-02
 2.1630255505e-02
 2.1704806015e-02
 2.1779531613e-02
 2.1854430437e-02
 2.1929504350e-02
 2.2004753351e-02
 2.2080177441e-02
 2.2155776620e-02
 2.2231554613e-02
 2.2307507694e-02
 2.2383637726e-02
 2.2459946573e-02
 2.2536432371e-02
 2.2613095120e-02
 2.2689938545e-02
 2.2766960785e-02
 2.2844163701e-02
 2.2921545431e-02
 2.2999107838e-02
 2.3076852784e-02
 2.3154776543e-02
 2.3232882842e-02
 2.3311171681e-02
 2.3389643058e-02
 2.3468296975e-02
 2.3547135293e-02
 2.3626158014e-02
 2.3705363274e-02
 2.3784754798e-02
 2.3864330724e-02
 2.3944091052e-02
 2.4024039507e-02
 2.4104174227e-02
 2.4184495211e-02
 2.4265002459e-02
 2.4345699698e-02
 2.4426583201e-02
 2.4507656693e-02
 2.4588918313e-02
 2.4670369923e-02
 2.4752011523e-02
 2.4833843112e-02
 2.4915866554e-02
 2.4998079985e-02
 2.5080485269e-02
 2.5163084269e-02
 2.5245875120e-02
 2.5328857824e-02
 2.5412036106e-02
 2.5495408103e-02
 2.5578973815e-02
 2.5662733242e-02
 2.5746690109e-02
 2.5830842555e-02
 2.5915190578e-02
 2.5999736041e-02
 2.6084477082e-02
 2.6169417426e-02
 2.6254555210e-02
 2.6339892298e-02
 2.6425426826e-02
 2.6511162519e-02
 2.6597097516e-02
 2.6683231816e-02
 2.6769569144e-02
 2.6856107637e-02
 2.6942845434e-02
 2.7029788122e-02
 2.7116931975e-02
 2.7204280719e-02
 2.7291832492e-02
 2.7379587293e-02
 2.7467548847e-02
 2.7555713430e-02
 2.7644084767e-02
 2.7732662857e-02
 2.7821447700e-02
 2.7910437435e-02
 2.7999637648e-02
 2.8089042753e-02
 2.8178658336e-02
 2.8268482536e-02
 2.8358517215e-02
 2.8448760509e-02
 2.8539214283e-02
 2.8629880399e-02
 2.8720756993e-02
 2.8811845928e-02
 2.8903145343e-02
 2.8994660825e-02
 2.9086388648e-02
 2.9178328812e-02
 2.9270485044e-02
 2.9362855479e-02
 2.9455441982e-02
 2.9548244551e-02
 2.9641263187e-02
 2.9734497890e-02
 2.9827952385e-02
 2.9921622947e-02
 3.0015511438e-02
 3.0109621584e-02
 3.0203947797e-02
 3.0298497528e-02
 3.0393265188e-02
 3.0488254502e-02
 3.0583465472e-02
 3.0678899959e-02
 3.0774554238e-02
 3.0870433897e-02
 3.0966537073e-02
 3.1062863767e-02
 3.1159413978e-02
 3.1256191432e-02
 3.1353194267e-02
 3.1450420618e-02
 3.1547877938e-02
 3.1645558774e-02
 3.1743470579e-02
 3.1841609627e-02
 3.1939975917e-02
 3.2038573176e-02
 3.2137401402e-02
 3.2236456871e-02
 3.2335747033e-02
 3.2435268164e-02
 3.2535020262e-02
 3.2635003328e-02
 3.2735221088e-02
 3.2835673541e-02
 3.2936360687e-02
 3.3037282526e-02
 3.3138439059e-02
 3.3239830285e-02
 3.3341459930e-02
 3.3443324268e-02
 3.3545427024e-02
 3.3647771925e-02
 3.3750351518e-02
 3.3853169531e-02
 3.3956229687e-02
 3.4059528261e-02
 3.4163068980e-02
 3.4266851842e-02
 3.4370876849e-02
 3.4475143999e-02
 3.4579653293e-02
 3.4684408456e-02
 3.4789405763e-02
 3.4894648939e-02
 3.5000137985e-02
 3.5105872899e-02
 3.5211853683e-02
 3.5318080336e-02
 3.5424556583e-02
 3.5531282425e-02
 3.5638254136e-02
 3.5745479167e-02
 3.5852950066e-02
 3.5960674286e-02
 3.6068651825e-02
 3.6176875234e-02
 3.6285355687e-02
 3.6394089460e-02
 3.6503072828e-02
 3.6612313241e-02
 3.6721810699e-02
 3.6831557751e-02
 3.6941565573e-02
 3.7051826715e-02
 3.7162348628e-02
 3.7273127586e-02
 3.7384163588e-02
 3.7495456636e-02
 3.7607010454e-02
 3.7718825042e-02
 3.7830900401e-02
 3.7943240255e-02
 3.8055837154e-02
 3.8168698549e-02
 3.8281824440e-02
 3.8395214826e-02
 3.8508865982e-02
 3.8622785360e-02
 3.8736969233e-02
 3.8851417601e-02
 3.8966137916e-02
 3.9081122726e-02
 3.9196375757e-02
 3.9311897010e-02
 3.9427686483e-02
 3.9543747902e-02
 3.9660081267e-02
 3.9776682854e-02
 3.9893560112e-02
 4.0010709316e-02
 4.0128130466e-02
 4.0245823562e-02
 4.0363792330e-02
 4.0482036769e-02
 4.0600560606e-02
 4.0719356388e-02
 4.0838431567e-02
 4.0957782418e-02
 4.1077412665e-02
 4.1197322309e-02
 4.1317511350e-02
 4.1437979788e-02
 4.1558727622e-02
 4.1679762304e-02
 4.1801076382e-02
 4.1922673583e-02
 4.2044553906e-02
 4.2166717350e-02
 4.2289167643e-02
 4.2411901057e-02
 4.2534925044e-02
 4.2658232152e-02
 4.2781829834e-02
 4.2905714363e-02
 4.3029885739e-02
 4.3154351413e-02
 4.3279103935e-02
 4.3404147029e-02
 4.3529484421e-02
 4.3655112386e-02
 4.3781034648e-02
 4.3907247484e-02
 4.4033758342e-02
 4.4160563499e-02
 4.4287662953e-02
 4.4415060431e-02
 4.4542752206e-02
 4.4670745730e-02
 4.4799037278e-02
 4.4927626848e-02
 4.5056514442e-02
 4.5185703784e-02
 4.5315194875e-02
 4.5444987714e-02
 4.5575086027e-02
 4.5705486089e-02
 4.5836187899e-02
 4.5967195183e-02
 4.6098511666e-02
 4.6230129898e-02
 4.6362057328e-02
 4.6494293958e-02
 4.6626836061e-02
 4.6759691089e-02
 4.6892851591e-02
 4.7026325017e-02
 4.7160111368e-02
 4.7294206917e-02
 4.7428615391e-02
 4.7563336790e-02
 4.7698374838e-02
 4.7833725810e-02
 4.7969393432e-02
 4.8105377704e-02
 4.8241678625e-02
 4.8378296196e-02
 4.8515234143e-02
 4.8652492464e-02
 4.8790071160e-02
 4.8927966505e-02
 4.9066185951e-02
 4.9204729497e-02
 4.9343593419e-02
 4.9482785165e-02
 4.9622297287e-02
 4.9762137234e-02
 4.9902301282e-02
 5.0042793155e-02
 5.0183612853e-02
 5.0324764103e-02
 5.0466239452e-02
 5.0608046353e-02
 5.0750184804e-02
 5.0892654806e-02
 5.1035460085e-02
 5.1178593189e-02
 5.1322061568e-02
 5.1465865225e-02
 5.1610004157e-02
 5.1754482090e-02
 5.1899291575e-02
 5.2044443786e-02
 5.2189931273e-02
 5.2335757762e-02
 5.2481926978e-02
 5.2628435194e-02
 5.2775286138e-02
 5.2922479808e-02
 5.3070016205e-02
 5.3217899054e-02
 5.3366120905e-02
 5.3514692932e-02
 5.3663611412e-02
 5.3812876344e-02
 5.3962491453e-02
 5.4112453014e-02
 5.4262764752e-02
 5.4413426667e-02
 5.4564442486e-02
 5.4715808481e-02
 5.4867524654e-02
 5.5019598454e-02
 5.5172026157e-02
 5.5324811488e-02
 5.5477950722e-02
 5.5631447583e-02
 5.5785302073e-02
 5.5939514190e-02
 5.6094087660e-02
 5.6249022484e-02
 5.6404318660e-02
 5.6559976190e-02
 5.6715995073e-02
 5.6872379035e-02
 5.7029128075e-02
 5.7186245918e-02
 5.7343725115e-02
 5.7501573116e-02
 5.7659789920e-02
 5.7818375528e-02
 5.7977333665e-02
 5.8136656880e-02
 5.8296356350e-02
 5.8456428349e-02
 5.8616869152e-02
 5.8777689934e-02
 5.8938883245e-02
 5.9100449085e-02
 5.9262394905e-02
 5.9424720705e-02
 5.9587422758e-02
 5.9750504792e-02
 5.9913966805e-02
 6.0077808797e-02
 6.0242034495e-02
 6.0406643897e-02
 6.0571637005e-02
 6.0737013817e-02
 6.0902778059e-02
 6.1068926007e-02
 6.1235461384e-02
 6.1402387917e-02
 6.1569701880e-02
 6.1737406999e-02
 6.1905506998e-02
 6.2073994428e-02
 6.2242876738e-02
 6.2412150204e-02
 6.2581822276e-02
 6.2751889229e-02
 6.2922351062e-02
 6.3093207777e-02
 6.3264466822e-02
 6.3436128199e-02
 6.3608184457e-02
 6.3780643046e-02
 6.3953503966e-02
 6.4126767218e-02
 6.4300440252e-02
 6.4474515617e-02
 6.4648993313e-02
 6.4823880792e-02
 6.4999178052e-02
 6.5174877644e-02
 6.5350994468e-02
 6.5527521074e-02
 6.5704457462e-02
 6.5881803632e-02
 6.6059567034e-02
