luts/Dolby_PQ_48_nits_Shaper_to_linear.spi1d
Version 1
From 0.0 1.0
Length 4096
Components 3
{
 1.9887378439e-03 1.9887378439e-03 1.9887378439e-03
 1.9887438975e-03 1.9887438975e-03 1.9887438975e-03
 1.9887581002e-03 1.9887581002e-03 1.9887581002e-03
 1.9887781236e-03 1.9887781236e-03 1.9887781236e-03
 1.9888035022e-03 1.9888035022e-03 1.9888035022e-03
 1.9888337702e-03 1.9888337702e-03 1.9888337702e-03
 1.9888686948e-03 1.9888686948e-03 1.9888686948e-03
 1.9889078103e-03 1.9889078103e-03 1.9889078103e-03
 1.9889511168e-03 1.9889511168e-03 1.9889511168e-03
 1.9889986143e-03 1.9889986143e-03 1.9889986143e-03
 1.9890500698e-03 1.9890500698e-03 1.9890500698e-03
 1.9891054835e-03 1.9891054835e-03 1.9891054835e-03
 1.9891646225e-03 1.9891646225e-03 1.9891646225e-03
 1.9892277196e-03 1.9892277196e-03 1.9892277196e-03
 1.9892947748e-03 1.9892947748e-03 1.9892947748e-03
 1.9893653225e-03 1.9893653225e-03 1.9893653225e-03
 1.9894398283e-03 1.9894398283e-03 1.9894398283e-03
 1.9895180594e-03 1.9895180594e-03 1.9895180594e-03
 1.9896000158e-03 1.9896000158e-03 1.9896000158e-03
 1.9896856975e-03 1.9896856975e-03 1.9896856975e-03
 1.9897748716e-03 1.9897748716e-03 1.9897748716e-03
 1.9898680039e-03 1.9898680039e-03 1.9898680039e-03
 1.9899646286e-03 1.9899646286e-03 1.9899646286e-03
 1.9900649786e-03 1.9900649786e-03 1.9900649786e-03
 1.9901692867e-03 1.9901692867e-03 1.9901692867e-03
 1.9902770873e-03 1.9902770873e-03 1.9902770873e-03
 1.9903883804e-03 1.9903883804e-03 1.9903883804e-03
 1.9905036315e-03 1.9905036315e-03 1.9905036315e-03
 1.9906226080e-03 1.9906226080e-03 1.9906226080e-03
 1.9907453097e-03 1.9907453097e-03 1.9907453097e-03
 1.9908715039e-03 1.9908715039e-03 1.9908715039e-03
 1.9910016563e-03 1.9910016563e-03 1.9910016563e-03
 1.9911355339e-03 1.9911355339e-03 1.9911355339e-03
 1.9912729040e-03 1.9912729040e-03 1.9912729040e-03
 1.9914142322e-03 1.9914142322e-03 1.9914142322e-03
 1.9915592857e-03 1.9915592857e-03 1.9915592857e-03
 1.9917080645e-03 1.9917080645e-03 1.9917080645e-03
 1.9918608014e-03 1.9918608014e-03 1.9918608014e-03
 1.9920172635e-03 1.9920172635e-03 1.9920172635e-03
 1.9921774510e-03 1.9921774510e-03 1.9921774510e-03
 1.9923415966e-03 1.9923415966e-03 1.9923415966e-03
 1.9925094675e-03 1.9925094675e-03 1.9925094675e-03
 1.9926812965e-03 1.9926812965e-03 1.9926812965e-03
 1.9928568508e-03 1.9928568508e-03 1.9928568508e-03
 1.9930363633e-03 1.9930363633e-03 1.9930363633e-03
 1.9932198338e-03 1.9932198338e-03 1.9932198338e-03
 1.9934070297e-03 1.9934070297e-03 1.9934070297e-03
 1.9935984164e-03 1.9935984164e-03 1.9935984164e-03
 1.9937935285e-03 1.9937935285e-03 1.9937935285e-03
 1.9939928316e-03 1.9939928316e-03 1.9939928316e-03
 1.9941958599e-03 1.9941958599e-03 1.9941958599e-03
 1.9944030792e-03 1.9944030792e-03 1.9944030792e-03
 1.9946140237e-03 1.9946140237e-03 1.9946140237e-03
 1.9948291592e-03 1.9948291592e-03 1.9948291592e-03
 1.9950484857e-03 1.9950484857e-03 1.9950484857e-03
 1.9952715375e-03 1.9952715375e-03 1.9952715375e-03
 1.9954990130e-03 1.9954990130e-03 1.9954990130e-03
 1.9957302138e-03 1.9957302138e-03 1.9957302138e-03
 1.9959658384e-03 1.9959658384e-03 1.9959658384e-03
 1.9962054212e-03 1.9962054212e-03 1.9962054212e-03
 1.9964491948e-03 1.9964491948e-03 1.9964491948e-03
 1.9966971595e-03 1.9966971595e-03 1.9966971595e-03
 1.9969493151e-03 1.9969493151e-03 1.9969493151e-03
 1.9972054288e-03 1.9972054288e-03 1.9972054288e-03
 1.9974659663e-03 1.9974659663e-03 1.9974659663e-03
 1.9977306947e-03 1.9977306947e-03 1.9977306947e-03
 1.9979998469e-03 1.9979998469e-03 1.9979998469e-03
 1.9982731901e-03 1.9982731901e-03 1.9982731901e-03
 1.9985504914e-03 1.9985504914e-03 1.9985504914e-03
 1.9988324493e-03 1.9988324493e-03 1.9988324493e-03
 1.9991185982e-03 1.9991185982e-03 1.9991185982e-03
 1.9994091708e-03 1.9994091708e-03 1.9994091708e-03
 1.9997041672e-03 1.9997041672e-03 1.9997041672e-03
 2.0000035875e-03 2.0000035875e-03 2.0000035875e-03
 2.0003071986e-03 2.0003071986e-03 2.0003071986e-03
 2.0006152336e-03 2.0006152336e-03 2.0006152336e-03
 2.0009279251e-03 2.0009279251e-03 2.0009279251e-03
 2.0012450404e-03 2.0012450404e-03 2.0012450404e-03
 2.0015665796e-03 2.0015665796e-03 2.0015665796e-03
 2.0018925425e-03 2.0018925425e-03 2.0018925425e-03
 2.0022229291e-03 2.0022229291e-03 2.0022229291e-03
 2.0025582053e-03 2.0025582053e-03 2.0025582053e-03
 2.0028976724e-03 2.0028976724e-03 2.0028976724e-03
 2.0032420289e-03 2.0032420289e-03 2.0032420289e-03
 2.0035910420e-03 2.0035910420e-03 2.0035910420e-03
 2.0039442461e-03 2.0039442461e-03 2.0039442461e-03
 2.0043023396e-03 2.0043023396e-03 2.0043023396e-03
 2.0046650898e-03 2.0046650898e-03 2.0046650898e-03
 2.0050327294e-03 2.0050327294e-03 2.0050327294e-03
 2.0054050256e-03 2.0054050256e-03 2.0054050256e-03
 2.0057817455e-03 2.0057817455e-03 2.0057817455e-03
 2.0061633550e-03 2.0061633550e-03 2.0061633550e-03
 2.0065500867e-03 2.0065500867e-03 2.0065500867e-03
 2.0069412421e-03 2.0069412421e-03 2.0069412421e-03
 2.0073372871e-03 2.0073372871e-03 2.0073372871e-03
 2.0077384543e-03 2.0077384543e-03 2.0077384543e-03
 2.0081440452e-03 2.0081440452e-03 2.0081440452e-03
 2.0085545257e-03 2.0085545257e-03 2.0085545257e-03
 2.0089701284e-03 2.0089701284e-03 2.0089701284e-03
 2.0093906205e-03 2.0093906205e-03 2.0093906205e-03
 2.0098160021e-03 2.0098160021e-03 2.0098160021e-03
 2.0102465060e-03 2.0102465060e-03 2.0102465060e-03
 2.0106821321e-03 2.0106821321e-03 2.0106821321e-03
 2.0111221820e-03 2.0111221820e-03 2.0111221820e-03
 2.0115675870e-03 2.0115675870e-03 2.0115675870e-03
 2.0120181143e-03 2.0120181143e-03 2.0120181143e-03
 2.0124737639e-03 2.0124737639e-03 2.0124737639e-03
 2.0129345357e-03 2.0129345357e-03 2.0129345357e-03
 2.0134004299e-03 2.0134004299e-03 2.0134004299e-03
 2.0138709806e-03 2.0138709806e-03 2.0138709806e-03
 2.0143471193e-03 2.0143471193e-03 2.0143471193e-03
 2.0148288459e-03 2.0148288459e-03 2.0148288459e-03
 2.0153149962e-03 2.0153149962e-03 2.0153149962e-03
 2.0158069674e-03 2.0158069674e-03 2.0158069674e-03
 2.0163038280e-03 2.0163038280e-03 2.0163038280e-03
 2.0168060437e-03 2.0168060437e-03 2.0168060437e-03
 2.0173136145e-03 2.0173136145e-03 2.0173136145e-03
 2.0178267732e-03 2.0178267732e-03 2.0178267732e-03
 2.0183450542e-03 2.0183450542e-03 2.0183450542e-03
 2.0188684575e-03 2.0188684575e-03 2.0188684575e-03
 2.0193979144e-03 2.0193979144e-03 2.0193979144e-03
 2.0199322607e-03 2.0199322607e-03 2.0199322607e-03
 2.0204721950e-03 2.0204721950e-03 2.0204721950e-03
 2.0210174844e-03 2.0210174844e-03 2.0210174844e-03
 2.0215685945e-03 2.0215685945e-03 2.0215685945e-03
 2.0221250597e-03 2.0221250597e-03 2.0221250597e-03
 2.0226868801e-03 2.0226868801e-03 2.0226868801e-03
 2.0232545212e-03 2.0232545212e-03 2.0232545212e-03
 2.0238277502e-03 2.0238277502e-03 2.0238277502e-03
 2.0244061016e-03 2.0244061016e-03 2.0244061016e-03
 2.0249907393e-03 2.0249907393e-03 2.0249907393e-03
 2.0255811978e-03 2.0255811978e-03 2.0255811978e-03
 2.0261765458e-03 2.0261765458e-03 2.0261765458e-03
 2.0267779473e-03 2.0267779473e-03 2.0267779473e-03
 2.0273851696e-03 2.0273851696e-03 2.0273851696e-03
 2.0279982127e-03 2.0279982127e-03 2.0279982127e-03
 2.0286166109e-03 2.0286166109e-03 2.0286166109e-03
 2.0292412955e-03 2.0292412955e-03 2.0292412955e-03
 2.0298715681e-03 2.0298715681e-03 2.0298715681e-03
 2.0305076614e-03 2.0305076614e-03 2.0305076614e-03
 2.0311500411e-03 2.0311500411e-03 2.0311500411e-03
 2.0317977760e-03 2.0317977760e-03 2.0317977760e-03
 2.0324520301e-03 2.0324520301e-03 2.0324520301e-03
 2.0331114065e-03 2.0331114065e-03 2.0331114065e-03
 2.0337773021e-03 2.0337773021e-03 2.0337773021e-03
 2.0344497170e-03 2.0344497170e-03 2.0344497170e-03
 2.0351272542e-03 2.0351272542e-03 2.0351272542e-03
 2.0358110778e-03 2.0358110778e-03 2.0358110778e-03
 2.0365014207e-03 2.0365014207e-03 2.0365014207e-03
 2.0371973515e-03 2.0371973515e-03 2.0371973515e-03
 2.0379002672e-03 2.0379002672e-03 2.0379002672e-03
 2.0386083052e-03 2.0386083052e-03 2.0386083052e-03
 2.0393230952e-03 2.0393230952e-03 2.0393230952e-03
 2.0400434732e-03 2.0400434732e-03 2.0400434732e-03
 2.0407708362e-03 2.0407708362e-03 2.0407708362e-03
 2.0415044855e-03 2.0415044855e-03 2.0415044855e-03
 2.0422437228e-03 2.0422437228e-03 2.0422437228e-03
 2.0429899450e-03 2.0429899450e-03 2.0429899450e-03
 2.0437422208e-03 2.0437422208e-03 2.0437422208e-03
 2.0445005503e-03 2.0445005503e-03 2.0445005503e-03
 2.0452665631e-03 2.0452665631e-03 2.0452665631e-03
 2.0460372325e-03 2.0460372325e-03 2.0460372325e-03
 2.0468155853e-03 2.0468155853e-03 2.0468155853e-03
 2.0475999918e-03 2.0475999918e-03 2.0475999918e-03
 2.0483911503e-03 2.0483911503e-03 2.0483911503e-03
 2.0491883624e-03 2.0491883624e-03 2.0491883624e-03
 2.0499916282e-03 2.0499916282e-03 2.0499916282e-03
 2.0508023445e-03 2.0508023445e-03 2.0508023445e-03
 2.0516200457e-03 2.0516200457e-03 2.0516200457e-03
 2.0524435677e-03 2.0524435677e-03 2.0524435677e-03
 2.0532740746e-03 2.0532740746e-03 2.0532740746e-03
 2.0541113336e-03 2.0541113336e-03 2.0541113336e-03
 2.0549548790e-03 2.0549548790e-03 2.0549548790e-03
 2.0558054093e-03 2.0558054093e-03 2.0558054093e-03
 2.0566629246e-03 2.0566629246e-03 2.0566629246e-03
 2.0575267263e-03 2.0575267263e-03 2.0575267263e-03
 2.0583984442e-03 2.0583984442e-03 2.0583984442e-03
 2.0592757501e-03 2.0592757501e-03 2.0592757501e-03
 2.0601607393e-03 2.0601607393e-03 2.0601607393e-03
 2.0610520151e-03 2.0610520151e-03 2.0610520151e-03
 2.0619514398e-03 2.0619514398e-03 2.0619514398e-03
 2.0628562197e-03 2.0628562197e-03 2.0628562197e-03
 2.0637684502e-03 2.0637684502e-03 2.0637684502e-03
 2.0646885969e-03 2.0646885969e-03 2.0646885969e-03
 2.0656150300e-03 2.0656150300e-03 2.0656150300e-03
 2.0665491465e-03 2.0665491465e-03 2.0665491465e-03
 2.0674883854e-03 2.0674883854e-03 2.0674883854e-03
 2.0684378687e-03 2.0684378687e-03 2.0684378687e-03
 2.0693924744e-03 2.0693924744e-03 2.0693924744e-03
 2.0703547634e-03 2.0703547634e-03 2.0703547634e-03
 2.0713245030e-03 2.0713245030e-03 2.0713245030e-03
 2.0723005291e-03 2.0723005291e-03 2.0723005291e-03
 2.0732842386e-03 2.0732842386e-03 2.0732842386e-03
 2.0742756315e-03 2.0742756315e-03 2.0742756315e-03
 2.0752742421e-03 2.0752742421e-03 2.0752742421e-03
 2.0762807690e-03 2.0762807690e-03 2.0762807690e-03
 2.0772931166e-03 2.0772931166e-03 2.0772931166e-03
 2.0783145446e-03 2.0783145446e-03 2.0783145446e-03
 2.0793422591e-03 2.0793422591e-03 2.0793422591e-03
 2.0803769585e-03 2.0803769585e-03 2.0803769585e-03
 2.0814209711e-03 2.0814209711e-03 2.0814209711e-03
 2.0824708045e-03 2.0824708045e-03 2.0824708045e-03
 2.0835297182e-03 2.0835297182e-03 2.0835297182e-03
 2.0845958497e-03 2.0845958497e-03 2.0845958497e-03
 2.0856694318e-03 2.0856694318e-03 2.0856694318e-03
 2.0867506973e-03 2.0867506973e-03 2.0867506973e-03
 2.0878391806e-03 2.0878391806e-03 2.0878391806e-03
 2.0889351144e-03 2.0889351144e-03 2.0889351144e-03
 2.0900396630e-03 2.0900396630e-03 2.0900396630e-03
 2.0911516622e-03 2.0911516622e-03 2.0911516622e-03
 2.0922711119e-03 2.0922711119e-03 2.0922711119e-03
 2.0933994092e-03 2.0933994092e-03 2.0933994092e-03
 2.0945351571e-03 2.0945351571e-03 2.0945351571e-03
 2.0956778899e-03 2.0956778899e-03 2.0956778899e-03
 2.0968280733e-03 2.0968280733e-03 2.0968280733e-03
 2.0979889669e-03 2.0979889669e-03 2.0979889669e-03
 2.0991552155e-03 2.0991552155e-03 2.0991552155e-03
 2.1003305446e-03 2.1003305446e-03 2.1003305446e-03
 2.1015128586e-03 2.1015128586e-03 2.1015128586e-03
 2.1027042530e-03 2.1027042530e-03 2.1027042530e-03
 2.1039042622e-03 2.1039042622e-03 2.1039042622e-03
 2.1051117219e-03 2.1051117219e-03 2.1051117219e-03
 2.1063282620e-03 2.1063282620e-03 2.1063282620e-03
 2.1075513214e-03 2.1075513214e-03 2.1075513214e-03
 2.1087836940e-03 2.1087836940e-03 2.1087836940e-03
 2.1100230515e-03 2.1100230515e-03 2.1100230515e-03
 2.1112714894e-03 2.1112714894e-03 2.1112714894e-03
 2.1125287749e-03 2.1125287749e-03 2.1125287749e-03
 2.1137946751e-03 2.1137946751e-03 2.1137946751e-03
 2.1150677931e-03 2.1150677931e-03 2.1150677931e-03
 2.1163497586e-03 2.1163497586e-03 2.1163497586e-03
 2.1176408045e-03 2.1176408045e-03 2.1176408045e-03
 2.1189386025e-03 2.1189386025e-03 2.1189386025e-03
 2.1202473436e-03 2.1202473436e-03 2.1202473436e-03
 2.1215630695e-03 2.1215630695e-03 2.1215630695e-03
 2.1228874102e-03 2.1228874102e-03 2.1228874102e-03
 2.1242208313e-03 2.1242208313e-03 2.1242208313e-03
 2.1255631000e-03 2.1255631000e-03 2.1255631000e-03
 2.1269121207e-03 2.1269121207e-03 2.1269121207e-03
 2.1282723173e-03 2.1282723173e-03 2.1282723173e-03
 2.1296413615e-03 2.1296413615e-03 2.1296413615e-03
 2.1310169250e-03 2.1310169250e-03 2.1310169250e-03
 2.1324015688e-03 2.1324015688e-03 2.1324015688e-03
 2.1337971557e-03 2.1337971557e-03 2.1337971557e-03
 2.1351994947e-03 2.1351994947e-03 2.1351994947e-03
 2.1366130095e-03 2.1366130095e-03 2.1366130095e-03
 2.1380328108e-03 2.1380328108e-03 2.1380328108e-03
 2.1394616924e-03 2.1394616924e-03 2.1394616924e-03
 2.1409017500e-03 2.1409017500e-03 2.1409017500e-03
 2.1423483267e-03 2.1423483267e-03 2.1423483267e-03
 2.1438086405e-03 2.1438086405e-03 2.1438086405e-03
 2.1452724468e-03 2.1452724468e-03 2.1452724468e-03
 2.1467481274e-03 2.1467481274e-03 2.1467481274e-03
 2.1482326556e-03 2.1482326556e-03 2.1482326556e-03
 2.1497255657e-03 2.1497255657e-03 2.1497255657e-03
 2.1512296516e-03 2.1512296516e-03 2.1512296516e-03
 2.1527404897e-03 2.1527404897e-03 2.1527404897e-03
 2.1542625036e-03 2.1542625036e-03 2.1542625036e-03
 2.1557933651e-03 2.1557933651e-03 2.1557933651e-03
 2.1573330741e-03 2.1573330741e-03 2.1573330741e-03
 2.1588839591e-03 2.1588839591e-03 2.1588839591e-03
 2.1604408976e-03 2.1604408976e-03 2.1604408976e-03
 2.1620094776e-03 2.1620094776e-03 2.1620094776e-03
 2.1635869052e-03 2.1635869052e-03 2.1635869052e-03
 2.1651755087e-03 2.1651755087e-03 2.1651755087e-03
 2.1667703986e-03 2.1667703986e-03 2.1667703986e-03
 2.1683766972e-03 2.1683766972e-03 2.1683766972e-03
 2.1699941717e-03 2.1699941717e-03 2.1699941717e-03
 2.1716209594e-03 2.1716209594e-03 2.1716209594e-03
 2.1732531022e-03 2.1732531022e-03 2.1732531022e-03
 2.1748999134e-03 2.1748999134e-03 2.1748999134e-03
 2.1765553392e-03 2.1765553392e-03 2.1765553392e-03
 2.1782228723e-03 2.1782228723e-03 2.1782228723e-03
 2.1798955277e-03 2.1798955277e-03 2.1798955277e-03
 2.1815800574e-03 2.1815800574e-03 2.1815800574e-03
 2.1832732018e-03 2.1832732018e-03 2.1832732018e-03
 2.1849777550e-03 2.1849777550e-03 2.1849777550e-03
 2.1866941825e-03 2.1866941825e-03 2.1866941825e-03
 2.1884161979e-03 2.1884161979e-03 2.1884161979e-03
 2.1901533473e-03 2.1901533473e-03 2.1901533473e-03
 2.1918951534e-03 2.1918951534e-03 2.1918951534e-03
 2.1936527919e-03 2.1936527919e-03 2.1936527919e-03
 2.1954148542e-03 2.1954148542e-03 2.1954148542e-03
 2.1971892565e-03 2.1971892565e-03 2.1971892565e-03
 2.1989755332e-03 2.1989755332e-03 2.1989755332e-03
 2.2007701918e-03 2.2007701918e-03 2.2007701918e-03
 2.2025769576e-03 2.2025769576e-03 2.2025769576e-03
 2.2043951321e-03 2.2043951321e-03 2.2043951321e-03
 2.2062184289e-03 2.2062184289e-03 2.2062184289e-03
 2.2080575582e-03 2.2080575582e-03 2.2080575582e-03
 2.2099043708e-03 2.2099043708e-03 2.2099043708e-03
 2.2117637563e-03 2.2117637563e-03 2.2117637563e-03
 2.2136315238e-03 2.2136315238e-03 2.2136315238e-03
 2.2155106999e-03 2.2155106999e-03 2.2155106999e-03
 2.2173984908e-03 2.2173984908e-03 2.2173984908e-03
 2.2192983888e-03 2.2192983888e-03 2.2192983888e-03
 2.2212103941e-03 2.2212103941e-03 2.2212103941e-03
 2.2231342737e-03 2.2231342737e-03 2.2231342737e-03
 2.2250665352e-03 2.2250665352e-03 2.2250665352e-03
 2.2270067129e-03 2.2270067129e-03 2.2270067129e-03
 2.2289589979e-03 2.2289589979e-03 2.2289589979e-03
 2.2309280466e-03 2.2309280466e-03 2.2309280466e-03
 2.2329003550e-03 2.2329003550e-03 2.2329003550e-03
 2.2348894272e-03 2.2348894272e-03 2.2348894272e-03
 2.2368864156e-03 2.2368864156e-03 2.2368864156e-03
 2.2388952784e-03 2.2388952784e-03 2.2388952784e-03
 2.2409127560e-03 2.2409127560e-03 2.2409127560e-03
 2.2429462988e-03 2.2429462988e-03 2.2429462988e-03
 2.2449882235e-03 2.2449882235e-03 2.2449882235e-03
 2.2470375989e-03 2.2470375989e-03 2.2470375989e-03
 2.2491039708e-03 2.2491039708e-03 2.2491039708e-03
 2.2511822172e-03 2.2511822172e-03 2.2511822172e-03
 2.2532683797e-03 2.2532683797e-03 2.2532683797e-03
 2.2553629242e-03 2.2553629242e-03 2.2553629242e-03
 2.2574737668e-03 2.2574737668e-03 2.2574737668e-03
 2.2595967166e-03 2.2595967166e-03 2.2595967166e-03
 2.2617280483e-03 2.2617280483e-03 2.2617280483e-03
 2.2638714872e-03 2.2638714872e-03 2.2638714872e-03
 2.2660274990e-03 2.2660274990e-03 2.2660274990e-03
 2.2681904957e-03 2.2681904957e-03 2.2681904957e-03
 2.2703709546e-03 2.2703709546e-03 2.2703709546e-03
 2.2725637536e-03 2.2725637536e-03 2.2725637536e-03
 2.2747647017e-03 2.2747647017e-03 2.2747647017e-03
 2.2769777570e-03 2.2769777570e-03 2.2769777570e-03
 2.2792029195e-03 2.2792029195e-03 2.2792029195e-03
 2.2814408876e-03 2.2814408876e-03 2.2814408876e-03
 2.2836909629e-03 2.2836909629e-03 2.2836909629e-03
 2.2859489545e-03 2.2859489545e-03 2.2859489545e-03
 2.2882188205e-03 2.2882188205e-03 2.2882188205e-03
 2.2905070800e-03 2.2905070800e-03 2.2905070800e-03
 2.2928018589e-03 2.2928018589e-03 2.2928018589e-03
 2.2951147985e-03 2.2951147985e-03 2.2951147985e-03
 2.2974351887e-03 2.2974351887e-03 2.2974351887e-03
 2.2997620981e-03 2.2997620981e-03 2.2997620981e-03
 2.3021071684e-03 2.3021071684e-03 2.3021071684e-03
 2.3044655100e-03 2.3044655100e-03 2.3044655100e-03
 2.3068354931e-03 2.3068354931e-03 2.3068354931e-03
 2.3092185147e-03 2.3092185147e-03 2.3092185147e-03
 2.3116138764e-03 2.3116138764e-03 2.3116138764e-03
 2.3140166886e-03 2.3140166886e-03 2.3140166886e-03
 2.3164371960e-03 2.3164371960e-03 2.3164371960e-03
 2.3188707419e-03 2.3188707419e-03 2.3188707419e-03
 2.3213103414e-03 2.3213103414e-03 2.3213103414e-03
 2.3237685673e-03 2.3237685673e-03 2.3237685673e-03
 2.3262405302e-03 2.3262405302e-03 2.3262405302e-03
 2.3287180811e-03 2.3287180811e-03 2.3287180811e-03
 2.3312091362e-03 2.3312091362e-03 2.3312091362e-03
 2.3337181192e-03 2.3337181192e-03 2.3337181192e-03
 2.3362403736e-03 2.3362403736e-03 2.3362403736e-03
 2.3387691472e-03 2.3387691472e-03 2.3387691472e-03
 2.3413163144e-03 2.3413163144e-03 2.3413163144e-03
 2.3438700009e-03 2.3438700009e-03 2.3438700009e-03
 2.3464425467e-03 2.3464425467e-03 2.3464425467e-03
 2.3490278982e-03 2.3490278982e-03 2.3490278982e-03
 2.3516262881e-03 2.3516262881e-03 2.3516262881e-03
 2.3542372510e-03 2.3542372510e-03 2.3542372510e-03
 2.3568542674e-03 2.3568542674e-03 2.3568542674e-03
 2.3594968952e-03 2.3594968952e-03 2.3594968952e-03
 2.3621460423e-03 2.3621460423e-03 2.3621460423e-03
 2.3648012429e-03 2.3648012429e-03 2.3648012429e-03
 2.3674820550e-03 2.3674820550e-03 2.3674820550e-03
 2.3701700848e-03 2.3701700848e-03 2.3701700848e-03
 2.3728692904e-03 2.3728692904e-03 2.3728692904e-03
 2.3755894508e-03 2.3755894508e-03 2.3755894508e-03
 2.3783145007e-03 2.3783145007e-03 2.3783145007e-03
 2.3810593411e-03 2.3810593411e-03 2.3810593411e-03
 2.3838174529e-03 2.3838174529e-03 2.3838174529e-03
 2.3865813855e-03 2.3865813855e-03 2.3865813855e-03
 2.3893718608e-03 2.3893718608e-03 2.3893718608e-03
 2.3921681568e-03 2.3921681568e-03 2.3921681568e-03
 2.3949700408e-03 2.3949700408e-03 2.3949700408e-03
 2.3977984674e-03 2.3977984674e-03 2.3977984674e-03
 2.4006338790e-03 2.4006338790e-03 2.4006338790e-03
 2.4034881499e-03 2.4034881499e-03 2.4034881499e-03
 2.4063559249e-03 2.4063559249e-03 2.4063559249e-03
 2.4092360400e-03 2.4092360400e-03 2.4092360400e-03
 2.4121296592e-03 2.4121296592e-03 2.4121296592e-03
 2.4150353856e-03 2.4150353856e-03 2.4150353856e-03
 2.4179541506e-03 2.4179541506e-03 2.4179541506e-03
 2.4208938703e-03 2.4208938703e-03 2.4208938703e-03
 2.4238456972e-03 2.4238456972e-03 2.4238456972e-03
 2.4268026464e-03 2.4268026464e-03 2.4268026464e-03
 2.4297800846e-03 2.4297800846e-03 2.4297800846e-03
 2.4327784777e-03 2.4327784777e-03 2.4327784777e-03
 2.4357829243e-03 2.4357829243e-03 2.4357829243e-03
 2.4388066959e-03 2.4388066959e-03 2.4388066959e-03
 2.4418439716e-03 2.4418439716e-03 2.4418439716e-03
 2.4448935874e-03 2.4448935874e-03 2.4448935874e-03
 2.4479564745e-03 2.4479564745e-03 2.4479564745e-03
 2.4510317016e-03 2.4510317016e-03 2.4510317016e-03
 2.4541288149e-03 2.4541288149e-03 2.4541288149e-03
 2.4572385009e-03 2.4572385009e-03 2.4572385009e-03
 2.4603600614e-03 2.4603600614e-03 2.4603600614e-03
 2.4634953588e-03 2.4634953588e-03 2.4634953588e-03
 2.4666518439e-03 2.4666518439e-03 2.4666518439e-03
 2.4698216002e-03 2.4698216002e-03 2.4698216002e-03
 2.4730032310e-03 2.4730032310e-03 2.4730032310e-03
 2.4761985987e-03 2.4761985987e-03 2.4761985987e-03
 2.4794153869e-03 2.4794153869e-03 2.4794153869e-03
 2.4826361332e-03 2.4826361332e-03 2.4826361332e-03
 2.4858880788e-03 2.4858880788e-03 2.4858880788e-03
 2.4891337380e-03 2.4891337380e-03 2.4891337380e-03
 2.4924115278e-03 2.4924115278e-03 2.4924115278e-03
 2.4957007263e-03 2.4957007263e-03 2.4957007263e-03
 2.4990048259e-03 2.4990048259e-03 2.4990048259e-03
 2.5023194030e-03 2.5023194030e-03 2.5023194030e-03
 2.5056577288e-03 2.5056577288e-03 2.5056577288e-03
 2.5090076961e-03 2.5090076961e-03 2.5090076961e-03
 2.5123711675e-03 2.5123711675e-03 2.5123711675e-03
 2.5157476775e-03 2.5157476775e-03 2.5157476775e-03
 2.5191465393e-03 2.5191465393e-03 2.5191465393e-03
 2.5225575082e-03 2.5225575082e-03 2.5225575082e-03
 2.5259922259e-03 2.5259922259e-03 2.5259922259e-03
 2.5294292718e-03 2.5294292718e-03 2.5294292718e-03
 2.5328891352e-03 2.5328891352e-03 2.5328891352e-03
 2.5363606401e-03 2.5363606401e-03 2.5363606401e-03
 2.5398563594e-03 2.5398563594e-03 2.5398563594e-03
 2.5433544070e-03 2.5433544070e-03 2.5433544070e-03
 2.5468750391e-03 2.5468750391e-03 2.5468750391e-03
 2.5504184887e-03 2.5504184887e-03 2.5504184887e-03
 2.5539752096e-03 2.5539752096e-03 2.5539752096e-03
 2.5575449690e-03 2.5575449690e-03 2.5575449690e-03
 2.5611268356e-03 2.5611268356e-03 2.5611268356e-03
 2.5647310540e-03 2.5647310540e-03 2.5647310540e-03
 2.5683506392e-03 2.5683506392e-03 2.5683506392e-03
 2.5719916448e-03 2.5719916448e-03 2.5719916448e-03
 2.5756454561e-03 2.5756454561e-03 2.5756454561e-03
 2.5793011300e-03 2.5793011300e-03 2.5793011300e-03
 2.5829914957e-03 2.5829914957e-03 2.5829914957e-03
 2.5866953656e-03 2.5866953656e-03 2.5866953656e-03
 2.5904106442e-03 2.5904106442e-03 2.5904106442e-03
 2.5941510685e-03 2.5941510685e-03 2.5941510685e-03
 2.5979029015e-03 2.5979029015e-03 2.5979029015e-03
 2.6016677730e-03 2.6016677730e-03 2.6016677730e-03
 2.6054459158e-03 2.6054459158e-03 2.6054459158e-03
 2.6092473418e-03 2.6092473418e-03 2.6092473418e-03
 2.6130727492e-03 2.6130727492e-03 2.6130727492e-03
 2.6169004850e-03 2.6169004850e-03 2.6169004850e-03
 2.6207631454e-03 2.6207631454e-03 2.6207631454e-03
 2.6246258058e-03 2.6246258058e-03 2.6246258058e-03
 2.6285143103e-03 2.6285143103e-03 2.6285143103e-03
 2.6324158534e-03 2.6324158534e-03 2.6324158534e-03
 2.6363399811e-03 2.6363399811e-03 2.6363399811e-03
 2.6402785443e-03 2.6402785443e-03 2.6402785443e-03
 2.6442282833e-03 2.6442282833e-03 2.6442282833e-03
 2.6482043322e-03 2.6482043322e-03 2.6482043322e-03
 2.6521915570e-03 2.6521915570e-03 2.6521915570e-03
 2.6562027633e-03 2.6562027633e-03 2.6562027633e-03
 2.6602291036e-03 2.6602291036e-03 2.6602291036e-03
 2.6642663870e-03 2.6642663870e-03 2.6642663870e-03
 2.6683281176e-03 2.6683281176e-03 2.6683281176e-03
