luts/Dolby_PQ_4000_nits_Shaper_to_linear.spi1d
Version 1
From 0.0 1.0
Length 4096
Components 3
{
 4.3945314246e-05 4.3945314246e-05 4.3945314246e-05
 4.4216991228e-05 4.4216991228e-05 4.4216991228e-05
 4.4857210014e-05 4.4857210014e-05 4.4857210014e-05
 4.5770611905e-05 4.5770611905e-05 4.5770611905e-05
 4.6921915782e-05 4.6921915782e-05 4.6921915782e-05
 4.8291392886e-05 4.8291392886e-05 4.8291392886e-05
 4.9866393965e-05 4.9866393965e-05 4.9866393965e-05
 5.1638144214e-05 5.1638144214e-05 5.1638144214e-05
 5.3599982493e-05 5.3599982493e-05 5.3599982493e-05
 5.5747048464e-05 5.5747048464e-05 5.5747048464e-05
 5.8075471316e-05 5.8075471316e-05 5.8075471316e-05
 6.0582256992e-05 6.0582256992e-05 6.0582256992e-05
 6.3264873461e-05 6.3264873461e-05 6.3264873461e-05
 6.6121341661e-05 6.6121341661e-05 6.6121341661e-05
 6.9149980845e-05 6.9149980845e-05 6.9149980845e-05
 7.2349714173e-05 7.2349714173e-05 7.2349714173e-05
 7.5719319284e-05 7.5719319284e-05 7.5719319284e-05
 7.9258272308e-05 7.9258272308e-05 7.9258272308e-05
 8.2965663751e-05 8.2965663751e-05 8.2965663751e-05
 8.6840969743e-05 8.6840969743e-05 8.6840969743e-05
 9.0883913799e-05 9.0883913799e-05 9.0883913799e-05
 9.5094379503e-05 9.5094379503e-05 9.5094379503e-05
 9.9472090369e-05 9.9472090369e-05 9.9472090369e-05
 1.0401686450e-04 1.0401686450e-04 1.0401686450e-04
 1.0872822895e-04 1.0872822895e-04 1.0872822895e-04
 1.1360743520e-04 1.1360743520e-04 1.1360743520e-04
 1.1865398847e-04 1.1865398847e-04 1.1865398847e-04
 1.2386744493e-04 1.2386744493e-04 1.2386744493e-04
 1.2924967450e-04 1.2924967450e-04 1.2924967450e-04
 1.3479898917e-04 1.3479898917e-04 1.3479898917e-04
 1.4051789185e-04 1.4051789185e-04 1.4051789185e-04
 1.4640460722e-04 1.4640460722e-04 1.4640460722e-04
 1.5246035764e-04 1.5246035764e-04 1.5246035764e-04
 1.5868525952e-04 1.5868525952e-04 1.5868525952e-04
 1.6508036060e-04 1.6508036060e-04 1.6508036060e-04
 1.7164710152e-04 1.7164710152e-04 1.7164710152e-04
 1.7838369240e-04 1.7838369240e-04 1.7838369240e-04
 1.8529244699e-04 1.8529244699e-04 1.8529244699e-04
 1.9237167726e-04 1.9237167726e-04 1.9237167726e-04
 1.9962577790e-04 1.9962577790e-04 1.9962577790e-04
 2.0705116913e-04 2.0705116913e-04 2.0705116913e-04
 2.1465140162e-04 2.1465140162e-04 2.1465140162e-04
 2.2242568957e-04 2.2242568957e-04 2.2242568957e-04
 2.3037589563e-04 2.3037589563e-04 2.3037589563e-04
 2.3850121943e-04 2.3850121943e-04 2.3850121943e-04
 2.4680033675e-04 2.4680033675e-04 2.4680033675e-04
 2.5527953403e-04 2.5527953403e-04 2.5527953403e-04
 2.6393518783e-04 2.6393518783e-04 2.6393518783e-04
 2.7276866604e-04 2.7276866604e-04 2.7276866604e-04
 2.8178462526e-04 2.8178462526e-04 2.8178462526e-04
 2.9097526567e-04 2.9097526567e-04 2.9097526567e-04
 3.0035123928e-04 3.0035123928e-04 3.0035123928e-04
 3.0990724918e-04 3.0990724918e-04 3.0990724918e-04
 3.1964172376e-04 3.1964172376e-04 3.1964172376e-04
 3.2956345240e-04 3.2956345240e-04 3.2956345240e-04
 3.3966475166e-04 3.3966475166e-04 3.3966475166e-04
 3.4995534224e-04 3.4995534224e-04 3.4995534224e-04
 3.6042754073e-04 3.6042754073e-04 3.6042754073e-04
 3.7108518882e-04 3.7108518882e-04 3.7108518882e-04
 3.8193038199e-04 3.8193038199e-04 3.8193038199e-04
 3.9296230534e-04 3.9296230534e-04 3.9296230534e-04
 4.0418282151e-04 4.0418282151e-04 4.0418282151e-04
 4.1559420060e-04 4.1559420060e-04 4.1559420060e-04
 4.2719504563e-04 4.2719504563e-04 4.2719504563e-04
 4.3898547301e-04 4.3898547301e-04 4.3898547301e-04
 4.5096880058e-04 4.5096880058e-04 4.5096880058e-04
 4.6314304927e-04 4.6314304927e-04 4.6314304927e-04
 4.7551357420e-04 4.7551357420e-04 4.7551357420e-04
 4.8807240091e-04 4.8807240091e-04 4.8807240091e-04
 5.0083373208e-04 5.0083373208e-04 5.0083373208e-04
 5.1378679927e-04 5.1378679927e-04 5.1378679927e-04
 5.2693649195e-04 5.2693649195e-04 5.2693649195e-04
 5.4028368322e-04 5.4028368322e-04 5.4028368322e-04
 5.5383308791e-04 5.5383308791e-04 5.5383308791e-04
 5.6757463608e-04 5.6757463608e-04 5.6757463608e-04
 5.8152468409e-04 5.8152468409e-04 5.8152468409e-04
 5.9566745767e-04 5.9566745767e-04 5.9566745767e-04
 6.1002071016e-04 6.1002071016e-04 6.1002071016e-04
 6.2457442982e-04 6.2457442982e-04 6.2457442982e-04
 6.3932646299e-04 6.3932646299e-04 6.3932646299e-04
 6.5428792732e-04 6.5428792732e-04 6.5428792732e-04
 6.6945725121e-04 6.6945725121e-04 6.6945725121e-04
 6.8482354982e-04 6.8482354982e-04 6.8482354982e-04
 7.0040841820e-04 7.0040841820e-04 7.0040841820e-04
 7.1620207746e-04 7.1620207746e-04 7.1620207746e-04
 7.3219253682e-04 7.3219253682e-04 7.3219253682e-04
 7.4840383604e-04 7.4840383604e-04 7.4840383604e-04
 7.6482247096e-04 7.6482247096e-04 7.6482247096e-04
 7.8145810403e-04 7.8145810403e-04 7.8145810403e-04
 7.9831003677e-04 7.9831003677e-04 7.9831003677e-04
 8.1536342623e-04 8.1536342623e-04 8.1536342623e-04
 8.3263486158e-04 8.3263486158e-04 8.3263486158e-04
 8.5013330681e-04 8.5013330681e-04 8.5013330681e-04
 8.6783932056e-04 8.6783932056e-04 8.6783932056e-04
 8.8576588314e-04 8.8576588314e-04 8.8576588314e-04
 9.0391584672e-04 9.0391584672e-04 9.0391584672e-04
 9.2227302957e-04 9.2227302957e-04 9.2227302957e-04
 9.4086007448e-04 9.4086007448e-04 9.4086007448e-04
 9.5966132358e-04 9.5966132358e-04 9.5966132358e-04
 9.7870023455e-04 9.7870023455e-04 9.7870023455e-04
 9.9795032293e-04 9.9795032293e-04 9.9795032293e-04
 1.0174333584e-03 1.0174333584e-03 1.0174333584e-03
 1.0371494573e-03 1.0371494573e-03 1.0371494573e-03
 1.0570702143e-03 1.0570702143e-03 1.0570702143e-03
 1.0772304377e-03 1.0772304377e-03 1.0772304377e-03
 1.0976195335e-03 1.0976195335e-03 1.0976195335e-03
 1.1182432063e-03 1.1182432063e-03 1.1182432063e-03
 1.1390940053e-03 1.1390940053e-03 1.1390940053e-03
 1.1601779843e-03 1.1601779843e-03 1.1601779843e-03
 1.1814825702e-03 1.1814825702e-03 1.1814825702e-03
 1.2030325597e-03 1.2030325597e-03 1.2030325597e-03
 1.2248291168e-03 1.2248291168e-03 1.2248291168e-03
 1.2468383648e-03 1.2468383648e-03 1.2468383648e-03
 1.2691037264e-03 1.2691037264e-03 1.2691037264e-03
 1.2915948173e-03 1.2915948173e-03 1.2915948173e-03
 1.3143265387e-03 1.3143265387e-03 1.3143265387e-03
 1.3372972608e-03 1.3372972608e-03 1.3372972608e-03
 1.3605196727e-03 1.3605196727e-03 1.3605196727e-03
 1.3839768944e-03 1.3839768944e-03 1.3839768944e-03
 1.4076690422e-03 1.4076690422e-03 1.4076690422e-03
 1.4316281304e-03 1.4316281304e-03 1.4316281304e-03
 1.4558184193e-03 1.4558184193e-03 1.4558184193e-03
 1.4802498044e-03 1.4802498044e-03 1.4802498044e-03
 1.5049328795e-03 1.5049328795e-03 1.5049328795e-03
 1.5298755607e-03 1.5298755607e-03 1.5298755607e-03
 1.5550613170e-03 1.5550613170e-03 1.5550613170e-03
 1.5804884024e-03 1.5804884024e-03 1.5804884024e-03
 1.6061781207e-03 1.6061781207e-03 1.6061781207e-03
 1.6321233707e-03 1.6321233707e-03 1.6321233707e-03
 1.6583072720e-03 1.6583072720e-03 1.6583072720e-03
 1.6847688239e-03 1.6847688239e-03 1.6847688239e-03
 1.7114852089e-03 1.7114852089e-03 1.7114852089e-03
 1.7384336097e-03 1.7384336097e-03 1.7384336097e-03
 1.7656530254e-03 1.7656530254e-03 1.7656530254e-03
 1.7931320472e-03 1.7931320472e-03 1.7931320472e-03
 1.8208783586e-03 1.8208783586e-03 1.8208783586e-03
 1.8488697242e-03 1.8488697242e-03 1.8488697242e-03
 1.8771422328e-03 1.8771422328e-03 1.8771422328e-03
 1.9056776073e-03 1.9056776073e-03 1.9056776073e-03
 1.9344618777e-03 1.9344618777e-03 1.9344618777e-03
 1.9635341596e-03 1.9635341596e-03 1.9635341596e-03
 1.9928519614e-03 1.9928519614e-03 1.9928519614e-03
 2.0224624313e-03 2.0224624313e-03 2.0224624313e-03
 2.0523110870e-03 2.0523110870e-03 2.0523110870e-03
 2.0824493840e-03 2.0824493840e-03 2.0824493840e-03
 2.1128826775e-03 2.1128826775e-03 2.1128826775e-03
 2.1435485687e-03 2.1435485687e-03 2.1435485687e-03
 2.1744978148e-03 2.1744978148e-03 2.1744978148e-03
 2.2057378665e-03 2.2057378665e-03 2.2057378665e-03
 2.2372372914e-03 2.2372372914e-03 2.2372372914e-03
 2.2690526675e-03 2.2690526675e-03 2.2690526675e-03
 2.3010950536e-03 2.3010950536e-03 2.3010950536e-03
 2.3334503639e-03 2.3334503639e-03 2.3334503639e-03
 2.3660575971e-03 2.3660575971e-03 2.3660575971e-03
 2.3989814799e-03 2.3989814799e-03 2.3989814799e-03
 2.4321861565e-03 2.4321861565e-03 2.4321861565e-03
 2.4656434543e-03 2.4656434543e-03 2.4656434543e-03
 2.4994134437e-03 2.4994134437e-03 2.4994134437e-03
 2.5334586389e-03 2.5334586389e-03 2.5334586389e-03
 2.5677825324e-03 2.5677825324e-03 2.5677825324e-03
 2.6024589315e-03 2.6024589315e-03 2.6024589315e-03
 2.6373376604e-03 2.6373376604e-03 2.6373376604e-03
 2.6725644711e-03 2.6725644711e-03 2.6725644711e-03
 2.7080662549e-03 2.7080662549e-03 2.7080662549e-03
 2.7438721154e-03 2.7438721154e-03 2.7438721154e-03
 2.7799576055e-03 2.7799576055e-03 2.7799576055e-03
 2.8163094539e-03 2.8163094539e-03 2.8163094539e-03
 2.8530068230e-03 2.8530068230e-03 2.8530068230e-03
 2.8900147881e-03 2.8900147881e-03 2.8900147881e-03
 2.9272928368e-03 2.9272928368e-03 2.9272928368e-03
 2.9648772907e-03 2.9648772907e-03 2.9648772907e-03
 3.0027686153e-03 3.0027686153e-03 3.0027686153e-03
 3.0409526080e-03 3.0409526080e-03 3.0409526080e-03
 3.0794497579e-03 3.0794497579e-03 3.0794497579e-03
 3.1182582024e-03 3.1182582024e-03 3.1182582024e-03
 3.1573558226e-03 3.1573558226e-03 3.1573558226e-03
 3.1968045514e-03 3.1968045514e-03 3.1968045514e-03
 3.2365175430e-03 3.2365175430e-03 3.2365175430e-03
 3.2765695360e-03 3.2765695360e-03 3.2765695360e-03
 3.3169151284e-03 3.3169151284e-03 3.3169151284e-03
 3.3576190472e-03 3.3576190472e-03 3.3576190472e-03
 3.3985669725e-03 3.3985669725e-03 3.3985669725e-03
 3.4398611169e-03 3.4398611169e-03 3.4398611169e-03
 3.4814996179e-03 3.4814996179e-03 3.4814996179e-03
 3.5234361421e-03 3.5234361421e-03 3.5234361421e-03
 3.5657135304e-03 3.5657135304e-03 3.5657135304e-03
 3.6082274746e-03 3.6082274746e-03 3.6082274746e-03
 3.6512003280e-03 3.6512003280e-03 3.6512003280e-03
 3.6944048479e-03 3.6944048479e-03 3.6944048479e-03
 3.7379565183e-03 3.7379565183e-03 3.7379565183e-03
 3.7818490528e-03 3.7818490528e-03 3.7818490528e-03
 3.8260268047e-03 3.8260268047e-03 3.8260268047e-03
 3.8705505431e-03 3.8705505431e-03 3.8705505431e-03
 3.9154104888e-03 3.9154104888e-03 3.9154104888e-03
 3.9606164210e-03 3.9606164210e-03 3.9606164210e-03
 4.0061650798e-03 4.0061650798e-03 4.0061650798e-03
 4.0519926697e-03 4.0519926697e-03 4.0519926697e-03
 4.0982179344e-03 4.0982179344e-03 4.0982179344e-03
 4.1447295807e-03 4.1447295807e-03 4.1447295807e-03
 4.1915667243e-03 4.1915667243e-03 4.1915667243e-03
 4.2388155125e-03 4.2388155125e-03 4.2388155125e-03
 4.2863311246e-03 4.2863311246e-03 4.2863311246e-03
 4.3342574500e-03 4.3342574500e-03 4.3342574500e-03
 4.3825083412e-03 4.3825083412e-03 4.3825083412e-03
 4.4311056845e-03 4.4311056845e-03 4.4311056845e-03
 4.4800387695e-03 4.4800387695e-03 4.4800387695e-03
 4.5293048024e-03 4.5293048024e-03 4.5293048024e-03
 4.5789042488e-03 4.5789042488e-03 4.5789042488e-03
 4.6288967133e-03 4.6288967133e-03 4.6288967133e-03
 4.6792319044e-03 4.6792319044e-03 4.6792319044e-03
 4.7298958525e-03 4.7298958525e-03 4.7298958525e-03
 4.7809672542e-03 4.7809672542e-03 4.7809672542e-03
 4.8323678784e-03 4.8323678784e-03 4.8323678784e-03
 4.8840916716e-03 4.8840916716e-03 4.8840916716e-03
 4.9361521378e-03 4.9361521378e-03 4.9361521378e-03
 4.9886857159e-03 4.9886857159e-03 4.9886857159e-03
 5.0414754078e-03 5.0414754078e-03 5.0414754078e-03
 5.0946683623e-03 5.0946683623e-03 5.0946683623e-03
 5.1481784321e-03 5.1481784321e-03 5.1481784321e-03
 5.2021062002e-03 5.2021062002e-03 5.2021062002e-03
 5.2564227954e-03 5.2564227954e-03 5.2564227954e-03
 5.3110723384e-03 5.3110723384e-03 5.3110723384e-03
 5.3661246784e-03 5.3661246784e-03 5.3661246784e-03
 5.4214871489e-03 5.4214871489e-03 5.4214871489e-03
 5.4772663862e-03 5.4772663862e-03 5.4772663862e-03
 5.5333562195e-03 5.5333562195e-03 5.5333562195e-03
 5.5898637511e-03 5.5898637511e-03 5.5898637511e-03
 5.6467708200e-03 5.6467708200e-03 5.6467708200e-03
 5.7040606625e-03 5.7040606625e-03 5.7040606625e-03
 5.7616848499e-03 5.7616848499e-03 5.7616848499e-03
 5.8197104372e-03 5.8197104372e-03 5.8197104372e-03
 5.8781378902e-03 5.8781378902e-03 5.8781378902e-03
 5.9368764050e-03 5.9368764050e-03 5.9368764050e-03
 5.9961136431e-03 5.9961136431e-03 5.9961136431e-03
 6.0556628741e-03 6.0556628741e-03 6.0556628741e-03
 6.1156079173e-03 6.1156079173e-03 6.1156079173e-03
 6.1759524979e-03 6.1759524979e-03 6.1759524979e-03
 6.2367068604e-03 6.2367068604e-03 6.2367068604e-03
 6.2977666967e-03 6.2977666967e-03 6.2977666967e-03
 6.3593285158e-03 6.3593285158e-03 6.3593285158e-03
 6.4212889411e-03 6.4212889411e-03 6.4212889411e-03
 6.4835469238e-03 6.4835469238e-03 6.4835469238e-03
 6.5462142229e-03 6.5462142229e-03 6.5462142229e-03
 6.6093858331e-03 6.6093858331e-03 6.6093858331e-03
 6.6728512757e-03 6.6728512757e-03 6.6728512757e-03
 6.7368280143e-03 6.7368280143e-03 6.7368280143e-03
 6.8010897376e-03 6.8010897376e-03 6.8010897376e-03
 6.8657654338e-03 6.8657654338e-03 6.8657654338e-03
 6.9309426472e-03 6.9309426472e-03 6.9309426472e-03
 6.9964067079e-03 6.9964067079e-03 6.9964067079e-03
 7.0625031367e-03 7.0625031367e-03 7.0625031367e-03
 7.1287597530e-03 7.1287597530e-03 7.1287597530e-03
 7.1955462918e-03 7.1955462918e-03 7.1955462918e-03
 7.2627337649e-03 7.2627337649e-03 7.2627337649e-03
 7.3303058743e-03 7.3303058743e-03 7.3303058743e-03
 7.3983869515e-03 7.3983869515e-03 7.3983869515e-03
 7.4667595327e-03 7.4667595327e-03 7.4667595327e-03
 7.5356485322e-03 7.5356485322e-03 7.5356485322e-03
 7.6049366035e-03 7.6049366035e-03 7.6049366035e-03
 7.6746209525e-03 7.6746209525e-03 7.6746209525e-03
 7.7448221855e-03 7.7448221855e-03 7.7448221855e-03
 7.8152855858e-03 7.8152855858e-03 7.8152855858e-03
 7.8862812370e-03 7.8862812370e-03 7.8862812370e-03
 7.9576745629e-03 7.9576745629e-03 7.9576745629e-03
 8.0295810476e-03 8.0295810476e-03 8.0295810476e-03
 8.1017622724e-03 8.1017622724e-03 8.1017622724e-03
 8.1744622439e-03 8.1744622439e-03 8.1744622439e-03
 8.2476707175e-03 8.2476707175e-03 8.2476707175e-03
 8.3212992176e-03 8.3212992176e-03 8.3212992176e-03
 8.3951707929e-03 8.3951707929e-03 8.3951707929e-03
 8.4697073326e-03 8.4697073326e-03 8.4697073326e-03
 8.5446368903e-03 8.5446368903e-03 8.5446368903e-03
 8.6201066151e-03 8.6201066151e-03 8.6201066151e-03
 8.6958119646e-03 8.6958119646e-03 8.6958119646e-03
 8.7720537558e-03 8.7720537558e-03 8.7720537558e-03
 8.8486848399e-03 8.8486848399e-03 8.8486848399e-03
 8.9258300141e-03 8.9258300141e-03 8.9258300141e-03
 9.0035218745e-03 9.0035218745e-03 9.0035218745e-03
 9.0814614668e-03 9.0814614668e-03 9.0814614668e-03
 9.1600846499e-03 9.1600846499e-03 9.1600846499e-03
 9.2389173806e-03 9.2389173806e-03 9.2389173806e-03
 9.3184700236e-03 9.3184700236e-03 9.3184700236e-03
 9.3982256949e-03 9.3982256949e-03 9.3982256949e-03
 9.4785299152e-03 9.4785299152e-03 9.4785299152e-03
 9.5593808219e-03 9.5593808219e-03 9.5593808219e-03
 9.6406042576e-03 9.6406042576e-03 9.6406042576e-03
 9.7223771736e-03 9.7223771736e-03 9.7223771736e-03
 9.8046744242e-03 9.8046744242e-03 9.8046744242e-03
 9.8871896043e-03 9.8871896043e-03 9.8871896043e-03
 9.9704302847e-03 9.9704302847e-03 9.9704302847e-03
 1.0054016486e-02 1.0054016486e-02 1.0054016486e-02
 1.0138181970e-02 1.0138181970e-02 1.0138181970e-02
 1.0222709738e-02 1.0222709738e-02 1.0222709738e-02
 1.0307762772e-02 1.0307762772e-02 1.0307762772e-02
 1.0393206030e-02 1.0393206030e-02 1.0393206030e-02
 1.0479194112e-02 1.0479194112e-02 1.0479194112e-02
 1.0565740988e-02 1.0565740988e-02 1.0565740988e-02
 1.0652810335e-02 1.0652810335e-02 1.0652810335e-02
 1.0740264319e-02 1.0740264319e-02 1.0740264319e-02
 1.0828081518e-02 1.0828081518e-02 1.0828081518e-02
 1.0916443542e-02 1.0916443542e-02 1.0916443542e-02
 1.1005563661e-02 1.1005563661e-02 1.1005563661e-02
 1.1094830930e-02 1.1094830930e-02 1.1094830930e-02
 1.1184853502e-02 1.1184853502e-02 1.1184853502e-02
 1.1275234632e-02 1.1275234632e-02 1.1275234632e-02
 1.1366163380e-02 1.1366163380e-02 1.1366163380e-02
 1.1457467452e-02 1.1457467452e-02 1.1457467452e-02
 1.1549508199e-02 1.1549508199e-02 1.1549508199e-02
 1.1641925201e-02 1.1641925201e-02 1.1641925201e-02
 1.1734686792e-02 1.1734686792e-02 1.1734686792e-02
 1.1828212067e-02 1.1828212067e-02 1.1828212067e-02
 1.1922268197e-02 1.1922268197e-02 1.1922268197e-02
 1.2016695924e-02 1.2016695924e-02 1.2016695924e-02
 1.2111485936e-02 1.2111485936e-02 1.2111485936e-02
 1.2207023799e-02 1.2207023799e-02 1.2207023799e-02
 1.2303117663e-02 1.2303117663e-02 1.2303117663e-02
 1.2399575673e-02 1.2399575673e-02 1.2399575673e-02
 1.2496597134e-02 1.2496597134e-02 1.2496597134e-02
 1.2594170868e-02 1.2594170868e-02 1.2594170868e-02
 1.2692067772e-02 1.2692067772e-02 1.2692067772e-02
 1.2790762819e-02 1.2790762819e-02 1.2790762819e-02
 1.2890006416e-02 1.2890006416e-02 1.2890006416e-02
 1.2989616953e-02 1.2989616953e-02 1.2989616953e-02
 1.3089784421e-02 1.3089784421e-02 1.3089784421e-02
 1.3190503232e-02 1.3190503232e-02 1.3190503232e-02
 1.3291792013e-02 1.3291792013e-02 1.3291792013e-02
 1.3393628411e-02 1.3393628411e-02 1.3393628411e-02
 1.3495822437e-02 1.3495822437e-02 1.3495822437e-02
 1.3598564081e-02 1.3598564081e-02 1.3598564081e-02
 1.3702125289e-02 1.3702125289e-02 1.3702125289e-02
 1.3805992901e-02 1.3805992901e-02 1.3805992901e-02
 1.3910671696e-02 1.3910671696e-02 1.3910671696e-02
 1.4015699737e-02 1.4015699737e-02 1.4015699737e-02
 1.4121016487e-02 1.4121016487e-02 1.4121016487e-02
 1.4227150008e-02 1.4227150008e-02 1.4227150008e-02
 1.4333895408e-02 1.4333895408e-02 1.4333895408e-02
 1.4441156760e-02 1.4441156760e-02 1.4441156760e-02
 1.4549016953e-02 1.4549016953e-02 1.4549016953e-02
 1.4657433145e-02 1.4657433145e-02 1.4657433145e-02
 1.4766183682e-02 1.4766183682e-02 1.4766183682e-02
 1.4875728637e-02 1.4875728637e-02 1.4875728637e-02
 1.4985872433e-02 1.4985872433e-02 1.4985872433e-02
 1.5096294694e-02 1.5096294694e-02 1.5096294694e-02
 1.5207559802e-02 1.5207559802e-02 1.5207559802e-02
 1.5319435857e-02 1.5319435857e-02 1.5319435857e-02
 1.5431572683e-02 1.5431572683e-02 1.5431572683e-02
 1.5544320457e-02 1.5544320457e-02 1.5544320457e-02
 1.5657873824e-02 1.5657873824e-02 1.5657873824e-02
 1.5772029757e-02 1.5772029757e-02 1.5772029757e-02
 1.5886491165e-02 1.5886491165e-02 1.5886491165e-02
 1.6001768410e-02 1.6001768410e-02 1.6001768410e-02
 1.6117351130e-02 1.6117351130e-02 1.6117351130e-02
 1.6233786941e-02 1.6233786941e-02 1.6233786941e-02
 1.6350796446e-02 1.6350796446e-02 1.6350796446e-02
 1.6468407586e-02 1.6468407586e-02 1.6468407586e-02
 1.6586575657e-02 1.6586575657e-02 1.6586575657e-02
 1.6705030575e-02 1.6705030575e-02 1.6705030575e-02
 1.6824634746e-02 1.6824634746e-02 1.6824634746e-02
 1.6944529489e-02 1.6944529489e-02 1.6944529489e-02
 1.7064707354e-02 1.7064707354e-02 1.7064707354e-02
 1.7186040059e-02 1.7186040059e-02 1.7186040059e-02
 1.7307702452e-02 1.7307702452e-02 1.7307702452e-02
 1.7429875210e-02 1.7429875210e-02 1.7429875210e-02
 1.7552990466e-02 1.7552990466e-02 1.7552990466e-02
 1.7676325515e-02 1.7676325515e-02 1.7676325515e-02
 1.7800552770e-02 1.7800552770e-02 1.7800552770e-02
 1.7925387248e-02 1.7925387248e-02 1.7925387248e-02
 1.8050482497e-02 1.8050482497e-02 1.8050482497e-02
 1.8176782876e-02 1.8176782876e-02 1.8176782876e-02
 1.8303345889e-02 1.8303345889e-02 1.8303345889e-02
 1.8430158496e-02 1.8430158496e-02 1.8430158496e-02
 1.8558176234e-02 1.8558176234e-02 1.8558176234e-02
 1.8686501309e-02 1.8686501309e-02 1.8686501309e-02
 1.8815686926e-02 1.8815686926e-02 1.8815686926e-02
 1.8945492804e-02 1.8945492804e-02 1.8945492804e-02
 1.9075838849e-02 1.9075838849e-02 1.9075838849e-02
 1.9206807017e-02 1.9206807017e-02 1.9206807017e-02
 1.9338317215e-02 1.9338317215e-02 1.9338317215e-02
 1.9470430911e-02 1.9470430911e-02 1.9470430911e-02
 1.9603479654e-02 1.9603479654e-02 1.9603479654e-02
 1.9737087190e-02 1.9737087190e-02 1.9737087190e-02
 1.9870916381e-02 1.9870916381e-02 1.9870916381e-02
 2.0005676895e-02 2.0005676895e-02 2.0005676895e-02
 2.0141376182e-02 2.0141376182e-02 2.0141376182e-02
 2.0277358592e-02 2.0277358592e-02 2.0277358592e-02
 2.0414223894e-02 2.0414223894e-02 2.0414223894e-02
 2.0551694557e-02 2.0551694557e-02 2.0551694557e-02
 2.0689718425e-02 2.0689718425e-02 2.0689718425e-02
 2.0828347653e-02 2.0828347653e-02 2.0828347653e-02
 2.0967528224e-02 2.0967528224e-02 2.0967528224e-02
 2.1107710898e-02 2.1107710898e-02 2.1107710898e-02
 2.1248452365e-02 2.1248452365e-02 2.1248452365e-02
 2.1389739588e-02 2.1389739588e-02 2.1389739588e-02
 2.1531639621e-02 2.1531639621e-02 2.1531639621e-02
 2.1674500778e-02 2.1674500778e-02 2.1674500778e-02
 2.1817967296e-02 2.1817967296e-02 2.1817967296e-02
 2.1961973980e-02 2.1961973980e-02 2.1961973980e-02
 2.2106595337e-02 2.2106595337e-02 2.2106595337e-02
 2.2252190858e-02 2.2252190858e-02 2.2252190858e-02
 2.2397959605e-02 2.2397959605e-02 2.2397959605e-02
 2.2545138374e-02 2.2545138374e-02 2.2545138374e-02
 2.2692043334e-02 2.2692043334e-02 2.2692043334e-02
 2.2840391845e-02 2.2840391845e-02 2.2840391845e-02
 2.2989263758e-02 2.2989263758e-02 2.2989263758e-02
 2.3138813674e-02 2.3138813674e-02 2.3138813674e-02
 2.3288834840e-02 2.3288834840e-02 2.3288834840e-02
 2.3439923301e-02 2.3439923301e-02 2.3439923301e-02
 2.3591550067e-02 2.3591550067e-02 2.3591550067e-02
 2.3743771017e-02 2.3743771017e-02 2.3743771017e-02
 2.3896601051e-02 2.3896601051e-02 2.3896601051e-02
 2.4050431326e-02 2.4050431326e-02 2.4050431326e-02
 2.4204812944e-02 2.4204812944e-02 2.4204812944e-02
 2.4360265583e-02 2.4360265583e-02 2.4360265583e-02
 2.4515835568e-02 2.4515835568e-02 2.4515835568e-02
 2.4672431871e-02 2.4672431871e-02 2.4672431871e-02
 2.4829547852e-02 2.4829547852e-02 2.4829547852e-02
 2.4987768382e-02 2.4987768382e-02 2.4987768382e-02
 2.5146087632e-02 2.5146087632e-02 2.5146087632e-02
 2.5305435061e-02 2.5305435061e-02 2.5305435061e-02
 2.5465812534e-02 2.5465812534e-02 2.5465812534e-02
 2.5626787916e-02 2.5626787916e-02 2.5626787916e-02
 2.5788363069e-02 2.5788363069e-02 2.5788363069e-02
 2.5950470939e-02 2.5950470939e-02 2.5950470939e-02
 2.6113608852e-02 2.6113608852e-02 2.6113608852e-02
 2.6277421042e-02 2.6277421042e-02 2.6277421042e-02
 2.6442212984e-02 2.6442212984e-02 2.6442212984e-02
 2.6607595384e-02 2.6607595384e-02 2.6607595384e-02
 2.6773044840e-02 2.6773044840e-02 2.6773044840e-02
 2.6940077543e-02 2.6940077543e-02 2.6940077543e-02
 2.7107715607e-02 2.7107715607e-02 2.7107715607e-02
 2.7275869623e-02 2.7275869623e-02 2.7275869623e-02
 2.7445159853e-02 2.7445159853e-02 2.7445159853e-02
 2.7614969760e-02 2.7614969760e-02 2.7614969760e-02
 2.7785371989e-02 2.7785371989e-02 2.7785371989e-02
 2.7956372127e-02 2.7956372127e-02 2.7956372127e-02
 2.8128424659e-02 2.8128424659e-02 2.8128424659e-02
 2.8301570565e-02 2.8301570565e-02 2.8301570565e-02
 2.8474807739e-02 2.8474807739e-02 2.8474807739e-02
 2.8649639338e-02 2.8649639338e-02 2.8649639338e-02
 2.8824461624e-02 2.8824461624e-02 2.8824461624e-02
 2.9000457376e-02 2.9000457376e-02 2.9000457376e-02
 2.9177039862e-02 2.9177039862e-02 2.9177039862e-02
 2.9354654253e-02 2.9354654253e-02 2.9354654253e-02
 2.9532913119e-02 2.9532913119e-02 2.9532913119e-02
 2.9711676762e-02 2.9711676762e-02 2.9711676762e-02
 2.9891632497e-02 2.9891632497e-02 2.9891632497e-02
 3.0072096735e-02 3.0072096735e-02 3.0072096735e-02
 3.0253646895e-02 3.0253646895e-02 3.0253646895e-02
 3.0435880646e-02 3.0435880646e-02 3.0435880646e-02
 3.0618604273e-02 3.0618604273e-02 3.0618604273e-02
 3.0802441761e-02 3.0802441761e-02 3.0802441761e-02
