luts/linear_to_sRGB.spi1d
Version 1
From 0 1
Length 4096
Components 1
{
 0.0000000000e+00
 3.1550670974e-03
 6.3101341948e-03
 9.4652017578e-03
 1.2620268390e-02
 1.5775335953e-02
 1.8930403516e-02
 2.2085469216e-02
 2.5240536779e-02
 2.8395604342e-02
 3.1550671905e-02
 3.4705739468e-02
 3.7860807031e-02
 4.1004087776e-02
 4.4014777988e-02
 4.6902466565e-02
 4.9679905176e-02
 5.2357826382e-02
 5.4945353419e-02
 5.7450313121e-02
 5.9879489243e-02
 6.2238801271e-02
 6.4533449709e-02
 6.6768027842e-02
 6.8946614861e-02
 7.1072876453e-02
 7.3150083423e-02
 7.5181186199e-02
 7.7168866992e-02
 7.9115562141e-02
 8.1023469567e-02
 8.2894638181e-02
 8.4730908275e-02
 8.6534008384e-02
 8.8305510581e-02
 9.0046867728e-02
 9.1759435833e-02
 9.3444481492e-02
 9.5103159547e-02
 9.6736565232e-02
 9.8345719278e-02
 9.9931575358e-02
 1.0149502754e-01
 1.0303691030e-01
 1.0455801338e-01
 1.0605908185e-01
 1.0754081607e-01
 1.0900387168e-01
 1.1044888943e-01
 1.1187644303e-01
 1.1328710616e-01
 1.1468140036e-01
 1.1605983973e-01
 1.1742290109e-01
 1.1877103895e-01
 1.2010469288e-01
 1.2142427266e-01
 1.2273018062e-01
 1.2402279675e-01
 1.2530246377e-01
 1.2656955421e-01
 1.2782438099e-01
 1.2906725705e-01
 1.3029849529e-01
 1.3151839375e-01
 1.3272720575e-01
 1.3392522931e-01
 1.3511271775e-01
 1.3628990948e-01
 1.3745702803e-01
 1.3861434162e-01
 1.3976204395e-01
 1.4090034366e-01
 1.4202946424e-01
 1.4314961433e-01
 1.4426094294e-01
 1.4536367357e-01
 1.4645797014e-01
 1.4754401147e-01
 1.4862196147e-01
 1.4969198406e-01
 1.5075422823e-01
 1.5180884302e-01
 1.5285599232e-01
 1.5389579535e-01
 1.5492841601e-01
 1.5595395863e-01
 1.5697258711e-01
 1.5798439085e-01
 1.5898951888e-01
 1.5998807549e-01
 1.6098017991e-01
 1.6196595132e-01
 1.6294549406e-01
 1.6391891241e-01
 1.6488629580e-01
 1.6584776342e-01
 1.6680340469e-01
 1.6775332391e-01
 1.6869759560e-01
 1.6963633895e-01
 1.7056959867e-01
 1.7149749398e-01
 1.7242009938e-01
 1.7333748937e-01
 1.7424975336e-01
 1.7515695095e-01
 1.7605918646e-01
 1.7695650458e-01
 1.7784899473e-01
 1.7873671651e-01
 1.7961975932e-01
 1.8049815297e-01
 1.8137198687e-01
 1.8224133551e-01
 1.8310622871e-01
 1.8396675587e-01
 1.8482296169e-01
 1.8567492068e-01
 1.8652266264e-01
 1.8736627698e-01
 1.8820579350e-01
 1.8904125690e-01
 1.8987275660e-01
 1.9070030749e-01
 1.9152398407e-01
 1.9234381616e-01
 1.9315986335e-01
 1.9397218525e-01
 1.9478079677e-01
 1.9558575749e-01
 1.9638712704e-01
 1.9718493521e-01
 1.9797922671e-01
 1.9877003133e-01
 1.9955740869e-01
 2.0034138858e-01
 2.0112201571e-01
 2.0189931989e-01
 2.0267334580e-01
 2.0344413817e-01
 2.0421171188e-01
 2.0497612655e-01
 2.0573741198e-01
 2.0649559796e-01
 2.0725069940e-01
 2.0800279081e-01
 2.0875187218e-01
 2.0949798822e-01
 2.1024116874e-01
 2.1098145843e-01
 2.1171885729e-01
 2.1245342493e-01
 2.1318517625e-01
 2.1391414106e-01
 2.1464034915e-01
 2.1536383033e-01
 2.1608459949e-01
 2.1680271626e-01
 2.1751816571e-01
 2.1823100746e-01
 2.1894125640e-01
 2.1964894235e-01
 2.2035406530e-01
 2.2105668485e-01
 2.2175680101e-01
 2.2245445848e-01
 2.2314965725e-01
 2.2384244204e-01
 2.2453281283e-01
 2.2522081435e-01
 2.2590644658e-01
 2.2658975422e-01
 2.2727075219e-01
 2.2794945538e-01
 2.2862587869e-01
 2.2930005193e-01
 2.2997200489e-01
 2.3064173758e-01
 2.3130927980e-01
 2.3197466135e-01
 2.3263788223e-01
 2.3329895735e-01
 2.3395793140e-01
 2.3461480439e-01
 2.3526959121e-01
 2.3592233658e-01
 2.3657302558e-01
 2.3722168803e-01
 2.3786833882e-01
 2.3851299286e-01
 2.3915567994e-01
 2.3979640007e-01
 2.4043518305e-01
 2.4107202888e-01
 2.4170696735e-01
 2.4234001338e-01
 2.4297118187e-01
 2.4360047281e-01
 2.4422791600e-01
 2.4485352635e-01
 2.4547731876e-01
 2.4609929323e-01
 2.4671947956e-01
 2.4733787775e-01
 2.4795451760e-01
 2.4856941402e-01
 2.4918255210e-01
 2.4979397655e-01
 2.5040370226e-01
 2.5101169944e-01
 2.5161802769e-01
 2.5222268701e-01
 2.5282567739e-01
 2.5342699885e-01
 2.5402671099e-01
 2.5462478399e-01
 2.5522124767e-01
 2.5581613183e-01
 2.5640940666e-01
 2.5700110197e-01
 2.5759121776e-01
 2.5817978382e-01
 2.5876682997e-01
 2.5935232639e-01
 2.5993630290e-01
 2.6051875949e-01
 2.6109972596e-01
 2.6167917252e-01
 2.6225715876e-01
 2.6283368468e-01
 2.6340875030e-01
 2.6398235559e-01
 2.6455453038e-01
 2.6512524486e-01
 2.6569455862e-01
 2.6626247168e-01
 2.6682898402e-01
 2.6739409566e-01
 2.6795780659e-01
 2.6852014661e-01
 2.6908114552e-01
 2.6964077353e-01
 2.7019906044e-01
 2.7075600624e-01
 2.7131161094e-01
 2.7186590433e-01
 2.7241888642e-01
 2.7297055721e-01
 2.7352094650e-01
 2.7407002449e-01
 2.7461785078e-01
 2.7516439557e-01
 2.7570965886e-01
 2.7625367045e-01
 2.7679646015e-01
 2.7733799815e-01
 2.7787828445e-01
 2.7841734886e-01
 2.7895522118e-01
 2.7949187160e-01
 2.8002730012e-01
 2.8056156635e-01
 2.8109461069e-01
 2.8162649274e-01
 2.8215721250e-01
 2.8268674016e-01
 2.8321513534e-01
 2.8374233842e-01
 2.8426843882e-01
 2.8479337692e-01
 2.8531718254e-01
 2.8583985567e-01
 2.8636142612e-01
 2.8688186407e-01
 2.8740119934e-01
 2.8791946173e-01
 2.8843659163e-01
 2.8895264864e-01
 2.8946763277e-01
 2.8998154402e-01
 2.9049435258e-01
 2.9100611806e-01
 2.9151684046e-01
 2.9202648997e-01
 2.9253512621e-01
 2.9304268956e-01
 2.9354923964e-01
 2.9405474663e-01
 2.9455921054e-01
 2.9506269097e-01
 2.9556515813e-01
 2.9606661201e-01
 2.9656705260e-01
 2.9706650972e-01
 2.9756498337e-01
 2.9806247354e-01
 2.9855895042e-01
 2.9905450344e-01
 2.9954904318e-01
 3.0004265904e-01
 3.0053529143e-01
 3.0102697015e-01
 3.0151769519e-01
 3.0200749636e-01
 3.0249634385e-01
 3.0298426747e-01
 3.0347123742e-01
 3.0395731330e-01
 3.0444243550e-01
 3.0492666364e-01
 3.0540999770e-01
 3.0589240789e-01
 3.0637392402e-01
 3.0685454607e-01
 3.0733424425e-01
 3.0781307817e-01
 3.0829104781e-01
 3.0876812339e-01
 3.0924430490e-01
 3.0971965194e-01
 3.1019410491e-01
 3.1066772342e-01
 3.1114044785e-01
 3.1161233783e-01
 3.1208339334e-01
 3.1255358458e-01
 3.1302294135e-01
 3.1349146366e-01
 3.1395915151e-01
 3.1442600489e-01
 3.1489205360e-01
 3.1535726786e-01
 3.1582164764e-01
 3.1628525257e-01
 3.1674802303e-01
 3.1720998883e-01
 3.1767114997e-01
 3.1813153625e-01
 3.1859111786e-01
 3.1904989481e-01
 3.1950789690e-01
 3.1996512413e-01
 3.2042157650e-01
 3.2087722421e-01
 3.2133212686e-01
 3.2178625464e-01
 3.2223960757e-01
 3.2269221544e-01
 3.2314404845e-01
 3.2359513640e-01
 3.2404544950e-01
 3.2449504733e-01
 3.2494387031e-01
 3.2539197803e-01
 3.2583934069e-01
 3.2628598809e-01
 3.2673186064e-01
 3.2717704773e-01
 3.2762148976e-01
 3.2806521654e-01
 3.2850819826e-01
 3.2895049453e-01
 3.2939207554e-01
 3.2983294129e-01
 3.3027309179e-01
 3.3071255684e-01
 3.3115133643e-01
 3.3158937097e-01
 3.3202674985e-01
 3.3246344328e-01
 3.3289942145e-01
 3.3333471417e-01
 3.3376935124e-01
 3.3420327306e-01
 3.3463653922e-01
 3.3506914973e-01
 3.3550107479e-01
 3.3593231440e-01
 3.3636292815e-01
 3.3679285645e-01
 3.3722209930e-01
 3.3765071630e-01
 3.3807867765e-01
 3.3850598335e-01
 3.3893263340e-01
 3.3935865760e-01
 3.3978402615e-01
 3.4020873904e-01
 3.4063282609e-01
 3.4105628729e-01
 3.4147912264e-01
 3.4190130234e-01
 3.4232285619e-01
 3.4274381399e-01
 3.4316411614e-01
 3.4358382225e-01
 3.4400290251e-01
 3.4442135692e-01
 3.4483921528e-01
 3.4525644779e-01
 3.4567308426e-01
 3.4608909488e-01
 3.4650450945e-01
 3.4691932797e-01
 3.4733355045e-01
 3.4774717689e-01
 3.4816020727e-01
 3.4857264161e-01
 3.4898450971e-01
 3.4939578176e-01
 3.4980645776e-01
 3.5021653771e-01
 3.5062605143e-01
 3.5103499889e-01
 3.5144338012e-01
 3.5185116529e-01
 3.5225838423e-01
 3.5266500711e-01
 3.5307109356e-01
 3.5347661376e-01
 3.5388156772e-01
 3.5428595543e-01
 3.5468980670e-01
 3.5509309173e-01
 3.5549581051e-01
 3.5589796305e-01
 3.5629957914e-01
 3.5670065880e-01
 3.5710120201e-01
 3.5750117898e-01
 3.5790061951e-01
 3.5829952359e-01
 3.5869786143e-01
 3.5909569263e-01
 3.5949298739e-01
 3.5988974571e-01
 3.6028596759e-01
 3.6068168283e-01
 3.6107683182e-01
 3.6147150397e-01
 3.6186560988e-01
 3.6225920916e-01
 3.6265230179e-01
 3.6304488778e-01
 3.6343693733e-01
 3.6382845044e-01
 3.6421948671e-01
 3.6461001635e-01
 3.6500000954e-01
 3.6538952589e-01
 3.6577850580e-01
 3.6616700888e-01
 3.6655500531e-01
 3.6694249511e-01
 3.6732950807e-01
 3.6771598458e-01
 3.6810201406e-01
 3.6848750710e-01
 3.6887255311e-01
 3.6925706267e-01
 3.6964112520e-01
 3.7002468109e-01
 3.7040776014e-01
 3.7079036236e-01
 3.7117248774e-01
 3.7155410647e-01
 3.7193527818e-01
 3.7231594324e-01
 3.7269616127e-01
 3.7307590246e-01
 3.7345516682e-01
 3.7383395433e-01
 3.7421229482e-01
 3.7459012866e-01
 3.7496754527e-01
 3.7534448504e-01
 3.7572094798e-01
 3.7609696388e-01
 3.7647250295e-01
 3.7684759498e-01
 3.7722223997e-01
 3.7759643793e-01
 3.7797015905e-01
 3.7834343314e-01
 3.7871629000e-01
 3.7908867002e-01
 3.7946060300e-01
 3.7983208895e-01
 3.8020315766e-01
 3.8057374954e-01
 3.8094392419e-01
 3.8131365180e-01
 3.8168293238e-01
 3.8205176592e-01
 3.8242018223e-01
 3.8278818130e-01
 3.8315573335e-01
 3.8352283835e-01
 3.8388952613e-01
 3.8425579667e-01
 3.8462162018e-01
 3.8498702645e-01
 3.8535201550e-01
 3.8571658731e-01
 3.8608071208e-01
 3.8644444942e-01
 3.8680773973e-01
 3.8717061281e-01
 3.8753306866e-01
 3.8789513707e-01
 3.8825675845e-01
 3.8861799240e-01
 3.8897880912e-01
 3.8933920860e-01
 3.8969919086e-01
 3.9005878568e-01
 3.9041796327e-01
 3.9077672362e-01
 3.9113509655e-01
 3.9149308205e-01
 3.9185065031e-01
 3.9220780134e-01
 3.9256456494e-01
 3.9292094111e-01
 3.9327692986e-01
 3.9363250136e-01
 3.9398768544e-01
 3.9434248209e-01
 3.9469686151e-01
 3.9505088329e-01
 3.9540448785e-01
 3.9575773478e-01
 3.9611056447e-01
 3.9646303654e-01
 3.9681509137e-01
 3.9716678858e-01
 3.9751809835e-01
 3.9786902070e-01
 3.9821955562e-01
 3.9856973290e-01
 3.9891952276e-01
 3.9926892519e-01
 3.9961796999e-01
 3.9996662736e-01
 4.0031492710e-01
 4.0066283941e-01
 4.0101036429e-01
 4.0135753155e-01
 4.0170434117e-01
 4.0205076337e-01
 4.0239685774e-01
 4.0274253488e-01
 4.0308788419e-01
 4.0343284607e-01
 4.0377745032e-01
 4.0412169695e-01
 4.0446558595e-01
 4.0480911732e-01
 4.0515229106e-01
 4.0549510717e-01
 4.0583753586e-01
 4.0617963672e-01
 4.0652137995e-01
 4.0686276555e-01
 4.0720379353e-01
 4.0754449368e-01
 4.0788483620e-01
 4.0822479129e-01
 4.0856444836e-01
 4.0890371799e-01
 4.0924265981e-01
 4.0958124399e-01
 4.0991950035e-01
 4.1025739908e-01
 4.1059496999e-01
 4.1093218327e-01
 4.1126903892e-01
 4.1160559654e-01
 4.1194176674e-01
 4.1227763891e-01
 4.1261315346e-01
 4.1294834018e-01
 4.1328319907e-01
 4.1361770034e-01
 4.1395187378e-01
 4.1428571939e-01
 4.1461923718e-01
 4.1495242715e-01
 4.1528525949e-01
 4.1561779380e-01
 4.1594997048e-01
 4.1628184915e-01
 4.1661337018e-01
 4.1694459319e-01
 4.1727548838e-01
 4.1760605574e-01
 4.1793629527e-01
 4.1826620698e-01
 4.1859579086e-01
 4.1892507672e-01
 4.1925403476e-01
 4.1958266497e-01
 4.1991096735e-01
 4.2023897171e-01
 4.2056667805e-01
 4.2089402676e-01
 4.2122107744e-01
 4.2154783010e-01
 4.2187425494e-01
 4.2220035195e-01
 4.2252615094e-01
 4.2285165191e-01
 4.2317682505e-01
 4.2350170016e-01
 4.2382627726e-01
 4.2415052652e-01
 4.2447447777e-01
 4.2479810119e-01
 4.2512145638e-01
 4.2544448376e-01
 4.2576721311e-01
 4.2608961463e-01
 4.2641174793e-01
 4.2673358321e-01
 4.2705509067e-01
 4.2737630010e-01
 4.2769724131e-01
 4.2801785469e-01
 4.2833817005e-01
 4.2865821719e-01
 4.2897793651e-01
 4.2929738760e-01
 4.2961651087e-01
 4.2993536592e-01
 4.3025392294e-01
 4.3057218194e-01
 4.3089014292e-01
 4.3120783567e-01
 4.3152523041e-01
 4.3184232712e-01
 4.3215912580e-01
 4.3247565627e-01
 4.3279188871e-01
 4.3310782313e-01
 4.3342348933e-01
 4.3373885751e-01
 4.3405395746e-01
 4.3436875939e-01
 4.3468329310e-01
 4.3499752879e-01
 4.3531149626e-01
 4.3562516570e-01
 4.3593856692e-01
 4.3625169992e-01
 4.3656453490e-01
 4.3687710166e-01
 4.3718937039e-01
 4.3750137091e-01
 4.3781310320e-01
 4.3812456727e-01
 4.3843573332e-01
 4.3874666095e-01
 4.3905729055e-01
 4.3936762214e-01
 4.3967771530e-01
 4.3998754025e-01
 4.4029706717e-01
 4.4060635567e-01
 4.4091534615e-01
 4.4122406840e-01
 4.4153255224e-01
 4.4184073806e-01
 4.4214865565e-01
 4.4245633483e-01
 4.4276371598e-01
 4.4307085872e-01
 4.4337770343e-01
 4.4368430972e-01
 4.4399064779e-01
 4.4429671764e-01
 4.4460251927e-01
 4.4490808249e-01
 4.4521337748e-01
 4.4551840425e-01
 4.4582316279e-01
 4.4612765312e-01
 4.4643190503e-01
 4.4673591852e-01
 4.4703963399e-01
 4.4734311104e-01
 4.4764631987e-01
 4.4794929028e-01
 4.4825199246e-01
 4.4855445623e-01
 4.4885665178e-01
 4.4915860891e-01
 4.4946029782e-01
 4.4976174831e-01
 4.5006293058e-01
 4.5036387444e-01
 4.5066455007e-01
 4.5096498728e-01
 4.5126515627e-01
 4.5156511664e-01
 4.5186480880e-01
 4.5216423273e-01
 4.5246344805e-01
 4.5276239514e-01
 4.5306107402e-01
 4.5335954428e-01
 4.5365774632e-01
 4.5395570993e-01
 4.5425343513e-01
 4.5455092192e-01
 4.5484814048e-01
 4.5514515042e-01
 4.5544189215e-01
 4.5573839545e-01
 4.5603469014e-01
 4.5633071661e-01
 4.5662650466e-01
 4.5692205429e-01
 4.5721736550e-01
 4.5751243830e-01
 4.5780727267e-01
 4.5810186863e-01
 4.5839622617e-01
 4.5869034529e-01
 4.5898422599e-01
 4.5927789807e-01
 4.5957130194e-01
 4.5986449718e-01
 4.6015745401e-01
 4.6045017242e-01
 4.6074265242e-01
 4.6103492379e-01
 4.6132692695e-01
 4.6161872149e-01
 4.6191030741e-01
 4.6220162511e-01
 4.6249273419e-01
 4.6278360486e-01
 4.6307423711e-01
 4.6336466074e-01
 4.6365484595e-01
 4.6394482255e-01
 4.6423456073e-01
 4.6452406049e-01
 4.6481335163e-01
 4.6510240436e-01
 4.6539124846e-01
 4.6567985415e-01
 4.6596822143e-01
 4.6625638008e-01
 4.6654433012e-01
 4.6683204174e-01
 4.6711954474e-01
 4.6740680933e-01
 4.6769386530e-01
 4.6798071265e-01
 4.6826732159e-01
 4.6855369210e-01
 4.6883988380e-01
 4.6912583709e-01
 4.6941158175e-01
 4.6969708800e-01
 4.6998238564e-01
 4.7026747465e-01
 4.7055232525e-01
 4.7083699703e-01
 4.7112143040e-01
 4.7140565515e-01
 4.7168964148e-01
 4.7197344899e-01
 4.7225701809e-01
 4.7254037857e-01
 4.7282353044e-01
 4.7310647368e-01
 4.7338920832e-01
 4.7367173433e-01
 4.7395402193e-01
 4.7423613071e-01
 4.7451800108e-01
 4.7479969263e-01
 4.7508114576e-01
 4.7536239028e-01
 4.7564345598e-01
 4.7592428327e-01
 4.7620490193e-01
 4.7648534179e-01
 4.7676554322e-01
 4.7704556584e-01
 4.7732535005e-01
 4.7760495543e-01
 4.7788435221e-01
 4.7816354036e-01
 4.7844251990e-01
 4.7872129083e-01
 4.7899988294e-01
 4.7927823663e-01
 4.7955641150e-01
 4.7983437777e-01
 4.8011213541e-01
 4.8038971424e-01
 4.8066708446e-01
 4.8094421625e-01
 4.8122119904e-01
 4.8149794340e-01
 4.8177450895e-01
 4.8205086589e-01
 4.8232704401e-01
 4.8260298371e-01
 4.8287874460e-01
 4.8315432668e-01
 4.8342970014e-01
 4.8370486498e-01
 4.8397985101e-01
 4.8425462842e-01
 4.8452919722e-01
 4.8480358720e-01
 4.8507779837e-01
 4.8535177112e-01
 4.8562559485e-01
 4.8589920998e-01
 4.8617261648e-01
 4.8644584417e-01
 4.8671886325e-01
 4.8699170351e-01
 4.8726433516e-01
 4.8753681779e-01
 4.8780906200e-01
 4.8808112741e-01
 4.8835301399e-01
 4.8862472177e-01
 4.8889622092e-01
 4.8916751146e-01
 4.8943865299e-01
 4.8970958591e-01
 4.8998031020e-01
 4.9025088549e-01
 4.9052125216e-01
 4.9079141021e-01
 4.9106141925e-01
 4.9133121967e-01
 4.9160084128e-01
 4.9187028408e-01
 4.9213951826e-01
 4.9240857363e-01
 4.9267745018e-01
 4.9294614792e-01
 4.9321466684e-01
 4.9348297715e-01
 4.9375113845e-01
 4.9401909113e-01
 4.9428686500e-01
 4.9455446005e-01
 4.9482187629e-01
 4.9508908391e-01
 4.9535614252e-01
 4.9562299252e-01
 4.9588969350e-01
 4.9615618587e-01
 4.9642252922e-01
 4.9668866396e-01
 4.9695461988e-01
 4.9722039700e-01
 4.9748602509e-01
 4.9775144458e-01
 4.9801668525e-01
 4.9828174710e-01
 4.9854665995e-01
 4.9881136417e-01
 4.9907591939e-01
 4.9934026599e-01
 4.9960446358e-01
 4.9986845255e-01
 5.0013232231e-01
 5.0039595366e-01
 5.0065946579e-01
 5.0092273951e-01
 5.0118589401e-01
 5.0144886971e-01
 5.0171160698e-01
 5.0197422504e-01
 5.0223666430e-01
 5.0249892473e-01
 5.0276106596e-01
 5.0302296877e-01
 5.0328469276e-01
 5.0354629755e-01
 5.0380766392e-01
 5.0406891108e-01
 5.0432997942e-01
 5.0459086895e-01
 5.0485157967e-01
 5.0511217117e-01
 5.0537252426e-01
 5.0563275814e-01
 5.0589281321e-01
 5.0615268946e-01
 5.0641238689e-01
 5.0667190552e-01
 5.0693130493e-01
 5.0719052553e-01
 5.0744956732e-01
 5.0770843029e-01
 5.0796711445e-01
 5.0822567940e-01
 5.0848406553e-01
 5.0874221325e-01
 5.0900030136e-01
 5.0925815105e-01
 5.0951588154e-01
 5.0977343321e-01
 5.1003080606e-01
 5.1028800011e-01
 5.1054507494e-01
 5.1080197096e-01
 5.1105868816e-01
 5.1131522655e-01
 5.1157164574e-01
 5.1182788610e-01
 5.1208394766e-01
 5.1233989000e-01
 5.1259565353e-01
 5.1285123825e-01
 5.1310664415e-01
 5.1336193085e-01
 5.1361703873e-01
 5.1387202740e-01
 5.1412677765e-01
 5.1438140869e-01
 5.1463592052e-01
 5.1489019394e-01
 5.1514434814e-01
 5.1539838314e-01
 5.1565217972e-01
 5.1590585709e-01
 5.1615941525e-01
 5.1641273499e-01
 5.1666599512e-01
 5.1691901684e-01
 5.1717191935e-01
 5.1742464304e-01
 5.1767724752e-01
 5.1792967319e-01
 5.1818192005e-01
 5.1843404770e-01
 5.1868599653e-01
 5.1893782616e-01
 5.1918947697e-01
 5.1944094896e-01
 5.1969230175e-01
 5.1994347572e-01
 5.2019453049e-01
 5.2044540644e-01
 5.2069610357e-01
 5.2094668150e-01
 5.2119714022e-01
 5.2144742012e-01
 5.2169752121e-01
 5.2194750309e-01
 5.2219730616e-01
 5.2244693041e-01
 5.2269649506e-01
 5.2294582129e-01
 5.2319502831e-01
 5.2344411612e-01
 5.2369302511e-01
 5.2394175529e-01
 5.2419036627e-01
 5.2443885803e-01
 5.2468717098e-01
 5.2493530512e-01
 5.2518332005e-01
 5.2543121576e-01
 5.2567893267e-01
 5.2592647076e-01
 5.2617394924e-01
 5.2642118931e-01
 5.2666831017e-01
 5.2691531181e-01
 5.2716213465e-01
 5.2740883827e-01
 5.2765536308e-01
 5.2790176868e-01
 5.2814805508e-01
 5.2839416265e-01
 5.2864009142e-01
 5.2888590097e-01
 5.2913159132e-01
 5.2937710285e-01
 5.2962249517e-01
 5.2986770868e-01
 5.3011280298e-01
 5.3035777807e-01
 5.3060257435e-01
 5.3084725142e-01
 5.3109174967e-01
 5.3133612871e-01
 5.3158038855e-01
 5.3182446957e-01
 5.3206843138e-01
 5.3231221437e-01
 5.3255587816e-01
 5.3279942274e-01
 5.3304278851e-01
 5.3328603506e-01
 5.3352916241e-01
 5.3377211094e-01
 5.3401494026e-01
 5.3425765038e-01
 5.3450018167e-01
 5.3474259377e-01
 5.3498482704e-01
 5.3522694111e-01
 5.3546893597e-01
 5.3571081161e-01
 5.3595250845e-01
 5.3619408607e-01
 5.3643548489e-01
 5.3667682409e-01
 5.3691792488e-01
 5.3715896606e-01
 5.3739982843e-01
 5.3764057159e-01
 5.3788119555e-01
 5.3812170029e-01
 5.3836202621e-01
 5.3860223293e-01
 5.3884226084e-01
 5.3908216953e-01
 5.3932201862e-01
 5.3956162930e-01
 5.3980118036e-01
 5.4004055262e-01
 5.4027980566e-01
 5.4051893950e-01
 5.4075789452e-01
 5.4099673033e-01
 5.4123544693e-01
 5.4147404432e-01
 5.4171246290e-01
 5.4195082188e-01
 5.4218900204e-01
 5.4242700338e-01
 5.4266494513e-01
 5.4290270805e-01
 5.4314035177e-01
 5.4337787628e-01
 5.4361528158e-01
 5.4385250807e-01
 5.4408967495e-01
 5.4432666302e-01
 5.4456353188e-01
 5.4480022192e-01
 5.4503685236e-01
 5.4527330399e-01
 5.4550963640e-01
 5.4574584961e-01
 5.4598194361e-01
 5.4621785879e-01
 5.4645371437e-01
 5.4668939114e-01
 5.4692494869e-01
 5.4716038704e-01
 5.4739564657e-01
 5.4763084650e-01
 5.4786586761e-01
 5.4810082912e-01
 5.4833561182e-01
 5.4857027531e-01
 5.4880475998e-01
 5.4903918505e-01
 5.4927349091e-01
 5.4950761795e-01
 5.4974162579e-01
 5.4997551441e-01
 5.5020928383e-01
 5.5044293404e-01
 5.5067646503e-01
 5.5090987682e-01
 5.5114310980e-01
 5.5137628317e-01
 5.5160927773e-01
 5.5184215307e-01
 5.5207496881e-01
 5.5230760574e-01
 5.5254012346e-01
 5.5277246237e-01
 5.5300474167e-01
 5.5323690176e-01
 5.5346894264e-01
 5.5370080471e-01
 5.5393260717e-01
 5.5416423082e-01
 5.5439573526e-01
 5.5462718010e-01
 5.5485844612e-01
 5.5508959293e-01
 5.5532062054e-01
 5.5555152893e-01
 5.5578231812e-01
 5.5601298809e-01
 5.5624353886e-01
 5.5647397041e-01
 5.5670428276e-01
 5.5693441629e-01
 5.5716449022e-01
 5.5739444494e-01
 5.5762428045e-01
 5.5785393715e-01
 5.5808353424e-01
 5.5831301212e-01
 5.5854231119e-01
 5.5877155066e-01
 5.5900061131e-01
 5.5922961235e-01
 5.5945849419e-01
 5.5968719721e-01
 5.5991584063e-01
 5.6014430523e-01
 5.6037271023e-01
 5.6060099602e-01
 5.6082910299e-01
 5.6105715036e-01
 5.6128501892e-01
 5.6151282787e-01
 5.6174051762e-01
 5.6196808815e-01
 5.6219547987e-01
 5.6242281199e-01
 5.6265002489e-01
 5.6287711859e-01
 5.6310409307e-01
 5.6333094835e-01
 5.6355768442e-01
 5.6378430128e-01
 5.6401079893e-01
 5.6423717737e-01
 5.6446343660e-01
 5.6468957663e-01
 5.6491565704e-01
 5.6514155865e-01
 5.6536740065e-01
 5.6559306383e-01
 5.6581866741e-01
 5.6604409218e-01
 5.6626945734e-01
 5.6649470329e-01
 5.6671983004e-01
 5.6694483757e-01
 5.6716972589e-01
 5.6739449501e-01
 5.6761920452e-01
 5.6784373522e-01
 5.6806814671e-01
 5.6829249859e-01
 5.6851673126e-01
 5.6874078512e-01
 5.6896477938e-01
 5.6918865442e-01
 5.6941241026e-01
 5.6963610649e-01
 5.6985962391e-01
 5.7008308172e-01
 5.7030636072e-01
 5.7052958012e-01
 5.7075268030e-01
 5.7097566128e-01
 5.7119852304e-01
 5.7142126560e-01
 5.7164394855e-01
 5.7186645269e-01
 5.7208889723e-01
 5.7231122255e-01
 5.7253342867e-01
 5.7275551558e-01
 5.7297748327e-01
 5.7319939137e-01
 5.7342112064e-01
 5.7364279032e-01
 5.7386434078e-01
 5.7408577204e-01
 5.7430714369e-01
 5.7452833652e-01
 5.7474946976e-01
 5.7497048378e-01
 5.7519137859e-01
 5.7541215420e-01
 5.7563281059e-01
 5.7585340738e-01
 5.7607382536e-01
 5.7629418373e-01
 5.7651442289e-01
 5.7673460245e-01
 5.7695460320e-01
 5.7717454433e-01
 5.7739436626e-01
 5.7761406898e-01
 5.7783365250e-01
 5.7805317640e-01
 5.7827258110e-01
 5.7849186659e-01
 5.7871103287e-01
 5.7893007994e-01
 5.7914906740e-01
 5.7936793566e-01
 5.7958668470e-01
 5.7980531454e-01
 5.8002388477e-01
 5.8024233580e-01
 5.8046066761e-01
 5.8067888021e-01
 5.8089703321e-01
 5.8111500740e-01
 5.8133292198e-01
 5.8155077696e-01
 5.8176845312e-01
 5.8198606968e-01
 5.8220356703e-01
 5.8242094517e-01
 5.8263826370e-01
 5.8285540342e-01
 5.8307248354e-01
 5.8328950405e-01
 5.8350634575e-01
 5.8372312784e-01
 5.8393979073e-01
 5.8415639400e-01
 5.8437281847e-01
 5.8458918333e-01
 5.8480548859e-01
 5.8502161503e-01
 5.8523768187e-01
 5.8545362949e-01
 5.8566945791e-01
 5.8588522673e-01
 5.8610087633e-01
 5.8631640673e-01
 5.8653187752e-01
 5.8674722910e-01
 5.8696246147e-01
 5.8717763424e-01
 5.8739262819e-01
 5.8760756254e-01
 5.8782243729e-01
 5.8803719282e-01
 5.8825182915e-01
 5.8846634626e-01
 5.8868080378e-01
 5.8889514208e-01
 5.8910936117e-01
 5.8932352066e-01
 5.8953756094e-01
 5.8975148201e-01
 5.8996534348e-01
 5.9017908573e-01
 5.9039270878e-01
