luts/linear_to_rec709.spi1d
Version 1
From 0 1
Length 4096
Components 1
{
 0.0000000000e+00
 1.0989011498e-03
 2.1978022996e-03
 3.2967033330e-03
 4.3956045993e-03
 5.4945056327e-03
 6.5934066661e-03
 7.6923076995e-03
 8.7912091985e-03
 9.8901102319e-03
 1.0989011265e-02
 1.2087912299e-02
 1.3186813332e-02
 1.4285714366e-02
 1.5384615399e-02
 1.6483517364e-02
 1.7582418397e-02
 1.8681319430e-02
 1.9780220464e-02
 2.0879121497e-02
 2.1978022531e-02
 2.3076923564e-02
 2.4175824597e-02
 2.5274725631e-02
 2.6373626664e-02
 2.7472527698e-02
 2.8571428731e-02
 2.9670329764e-02
 3.0769230798e-02
 3.1868133694e-02
 3.2967034727e-02
 3.4065935761e-02
 3.5164836794e-02
 3.6263737828e-02
 3.7362638861e-02
 3.8461539894e-02
 3.9560440928e-02
 4.0659341961e-02
 4.1758242995e-02
 4.2857144028e-02
 4.3956045061e-02
 4.5054946095e-02
 4.6153847128e-02
 4.7252748162e-02
 4.8351649195e-02
 4.9450550228e-02
 5.0549451262e-02
 5.1648352295e-02
 5.2747253329e-02
 5.3846154362e-02
 5.4945055395e-02
 5.6043956429e-02
 5.7142857462e-02
 5.8241758496e-02
 5.9340659529e-02
 6.0439560562e-02
 6.1538461596e-02
 6.2637366354e-02
 6.3736267388e-02
 6.4835168421e-02
 6.5934069455e-02
 6.7032970488e-02
 6.8131871521e-02
 6.9230772555e-02
 7.0329673588e-02
 7.1428574622e-02
 7.2527475655e-02
 7.3626376688e-02
 7.4725277722e-02
 7.5824178755e-02
 7.6923079789e-02
 7.8021980822e-02
 7.9120881855e-02
 8.0219782889e-02
 8.1566721201e-02
 8.2660704851e-02
 8.3746701479e-02
 8.4824867547e-02
 8.5895359516e-02
 8.6958326399e-02
 8.8013917208e-02
 8.9062280953e-02
 9.0103544295e-02
 9.1137848794e-02
 9.2165321112e-02
 9.3186087906e-02
 9.4200275838e-02
 9.5207989216e-02
 9.6209362149e-02
 9.7204491496e-02
 9.8193489015e-02
 9.9176459014e-02
 1.0015350580e-01
 1.0112473369e-01
 1.0209023207e-01
 1.0305009782e-01
 1.0400442034e-01
 1.0495328903e-01
 1.0589679331e-01
 1.0683502257e-01
 1.0776805133e-01
 1.0869596153e-01
 1.0961883515e-01
 1.1053673923e-01
 1.1144976318e-01
 1.1235796660e-01
 1.1326142401e-01
 1.1416020989e-01
 1.1505438387e-01
 1.1594401300e-01
 1.1682917178e-01
 1.1770991236e-01
 1.1858630180e-01
 1.1945839226e-01
 1.2032625079e-01
 1.2118993700e-01
 1.2204949558e-01
 1.2290499359e-01
 1.2375647575e-01
 1.2460400164e-01
 1.2544761598e-01
 1.2628737092e-01
 1.2712332606e-01
 1.2795551121e-01
 1.2878398597e-01
 1.2960879505e-01
 1.3042998314e-01
 1.3124759495e-01
 1.3206167519e-01
 1.3287226856e-01
 1.3367940485e-01
 1.3448312879e-01
 1.3528349996e-01
 1.3608053327e-01
 1.3687428832e-01
 1.3766478002e-01
 1.3845206797e-01
 1.3923616707e-01
 1.4001712203e-01
 1.4079497755e-01
 1.4156976342e-01
 1.4234150946e-01
 1.4311026037e-01
 1.4387603104e-01
 1.4463885128e-01
 1.4539878070e-01
 1.4615581930e-01
 1.4691002667e-01
 1.4766140282e-01
 1.4841000736e-01
 1.4915584028e-01
 1.4989894629e-01
 1.5063935518e-01
 1.5137708187e-01
 1.5211217105e-01
 1.5284463763e-01
 1.5357449651e-01
 1.5430180728e-01
 1.5502655506e-01
 1.5574879944e-01
 1.5646854043e-01
 1.5718580782e-01
 1.5790064633e-01
 1.5861304104e-01
 1.5932305157e-01
 1.6003067791e-01
 1.6073594987e-01
 1.6143889725e-01
 1.6213952005e-01
 1.6283786297e-01
 1.6353394091e-01
 1.6422775388e-01
 1.6491934657e-01
 1.6560873389e-01
 1.6629593074e-01
 1.6698096693e-01
 1.6766384244e-01
 1.6834458709e-01
 1.6902323067e-01
 1.6969977319e-01
 1.7037424445e-01
 1.7104664445e-01
 1.7171701789e-01
 1.7238536477e-01
 1.7305170000e-01
 1.7371605337e-01
 1.7437843978e-01
 1.7503885925e-01
 1.7569734156e-01
 1.7635391653e-01
 1.7700856924e-01
 1.7766132951e-01
 1.7831221223e-01
 1.7896123230e-01
 1.7960840464e-01
 1.8025374413e-01
 1.8089726567e-01
 1.8153899908e-01
 1.8217892945e-01
 1.8281708658e-01
 1.8345348537e-01
 1.8408812582e-01
 1.8472103775e-01
 1.8535223603e-01
 1.8598172069e-01
 1.8660952151e-01
 1.8723562360e-01
 1.8786005676e-01
 1.8848285079e-01
 1.8910399079e-01
 1.8972349167e-01
 1.9034136832e-01
 1.9095765054e-01
 1.9157232344e-01
 1.9218543172e-01
 1.9279694557e-01
 1.9340690970e-01
 1.9401530921e-01
 1.9462217391e-01
 1.9522751868e-01
 1.9583134353e-01
 1.9643364847e-01
 1.9703446329e-01
 1.9763378799e-01
 1.9823163748e-01
 1.9882802665e-01
 1.9942295551e-01
 2.0001643896e-01
 2.0060849190e-01
 2.0119911432e-01
 2.0178832114e-01
 2.0237611234e-01
 2.0296251774e-01
 2.0354752243e-01
 2.0413115621e-01
 2.0471341908e-01
 2.0529431105e-01
 2.0587386191e-01
 2.0645207167e-01
 2.0702894032e-01
 2.0760448277e-01
 2.0817869902e-01
 2.0875161886e-01
 2.0932324231e-01
 2.0989355445e-01
 2.1046259999e-01
 2.1103036404e-01
 2.1159686148e-01
 2.1216209233e-01
 2.1272608638e-01
 2.1328882873e-01
 2.1385031939e-01
 2.1441060305e-01
 2.1496964991e-01
 2.1552748978e-01
 2.1608412266e-01
 2.1663954854e-01
 2.1719379723e-01
 2.1774685383e-01
 2.1829873323e-01
 2.1884943545e-01
 2.1939897537e-01
 2.1994736791e-01
 2.2049459815e-01
 2.2104069591e-01
 2.2158564627e-01
 2.2212947905e-01
 2.2267217934e-01
 2.2321376204e-01
 2.2375424206e-01
 2.2429361939e-01
 2.2483189404e-01
 2.2536908090e-01
 2.2590517998e-01
 2.2644019127e-01
 2.2697414458e-01
 2.2750702500e-01
 2.2803883255e-01
 2.2856959701e-01
 2.2909931839e-01
 2.2962798178e-01
 2.3015561700e-01
 2.3068222404e-01
 2.3120780289e-01
 2.3173235357e-01
 2.3225590587e-01
 2.3277842999e-01
 2.3329995573e-01
 2.3382048309e-01
 2.3434002697e-01
 2.3485857248e-01
 2.3537613451e-01
 2.3589272797e-01
 2.3640833795e-01
 2.3692299426e-01
 2.3743668199e-01
 2.3794941604e-01
 2.3846119642e-01
 2.3897202313e-01
 2.3948191106e-01
 2.3999087512e-01
 2.4049888551e-01
 2.4100598693e-01
 2.4151214957e-01
 2.4201740324e-01
 2.4252174795e-01
 2.4302518368e-01
 2.4352771044e-01
 2.4402932823e-01
 2.4453006685e-01
 2.4502991140e-01
 2.4552886188e-01
 2.4602693319e-01
 2.4652414024e-01
 2.4702045321e-01
 2.4751591682e-01
 2.4801050127e-01
 2.4850423634e-01
 2.4899710715e-01
 2.4948912859e-01
 2.4998031557e-01
 2.5047063828e-01
 2.5096014142e-01
 2.5144878030e-01
 2.5193661451e-01
 2.5242361426e-01
 2.5290980935e-01
 2.5339514017e-01
 2.5387969613e-01
 2.5436341763e-01
 2.5484633446e-01
 2.5532844663e-01
 2.5580978394e-01
 2.5629028678e-01
 2.5677001476e-01
 2.5724896789e-01
 2.5772711635e-01
 2.5820446014e-01
 2.5868105888e-01
 2.5915688276e-01
 2.5963193178e-01
 2.6010620594e-01
 2.6057970524e-01
 2.6105245948e-01
 2.6152446866e-01
 2.6199570298e-01
 2.6246619225e-01
 2.6293593645e-01
 2.6340493560e-01
 2.6387318969e-01
 2.6434069872e-01
 2.6480749249e-01
 2.6527354121e-01
 2.6573887467e-01
 2.6620346308e-01
 2.6666736603e-01
 2.6713052392e-01
 2.6759296656e-01
 2.6805469394e-01
 2.6851573586e-01
 2.6897606254e-01
 2.6943567395e-01
 2.6989459991e-01
 2.7035281062e-01
 2.7081033587e-01
 2.7126717567e-01
 2.7172333002e-01
 2.7217879891e-01
 2.7263358235e-01
 2.7308768034e-01
 2.7354112267e-01
 2.7399387956e-01
 2.7444595098e-01
 2.7489736676e-01
 2.7534812689e-01
 2.7579820156e-01
 2.7624765038e-01
 2.7669641376e-01
 2.7714452147e-01
 2.7759200335e-01
 2.7803879976e-01
 2.7848497033e-01
 2.7893051505e-01
 2.7937540412e-01
 2.7981963754e-01
 2.8026324511e-01
 2.8070622683e-01
 2.8114858270e-01
 2.8159028292e-01
 2.8203138709e-01
 2.8247186542e-01
 2.8291171789e-01
 2.8335094452e-01
 2.8378954530e-01
 2.8422755003e-01
 2.8466495872e-01
 2.8510174155e-01
 2.8553789854e-01
 2.8597348928e-01
 2.8640845418e-01
 2.8684282303e-01
 2.8727659583e-01
 2.8770977259e-01
 2.8814238310e-01
 2.8857436776e-01
 2.8900578618e-01
 2.8943660855e-01
 2.8986683488e-01
 2.9029649496e-01
 2.9072558880e-01
 2.9115408659e-01
 2.9158201814e-01
 2.9200938344e-01
 2.9243618250e-01
 2.9286238551e-01
 2.9328805208e-01
 2.9371315241e-01
 2.9413765669e-01
 2.9456165433e-01
 2.9498505592e-01
 2.9540792108e-01
 2.9583021998e-01
 2.9625195265e-01
 2.9667317867e-01
 2.9709380865e-01
 2.9751393199e-01
 2.9793348908e-01
 2.9835253954e-01
 2.9877102375e-01
 2.9918897152e-01
 2.9960638285e-01
 3.0002325773e-01
 3.0043959618e-01
 3.0085542798e-01
 3.0127072334e-01
 3.0168548226e-01
 3.0209970474e-01
 3.0251342058e-01
 3.0292662978e-01
 3.0333930254e-01
 3.0375146866e-01
 3.0416312814e-01
 3.0457425117e-01
 3.0498486757e-01
 3.0539500713e-01
 3.0580461025e-01
 3.0621370673e-01
 3.0662229657e-01
 3.0703037977e-01
 3.0743798614e-01
 3.0784508586e-01
 3.0825167894e-01
 3.0865776539e-01
 3.0906337500e-01
 3.0946850777e-01
 3.0987313390e-01
 3.1027725339e-01
 3.1068089604e-01
 3.1108406186e-01
 3.1148675084e-01
 3.1188893318e-01
 3.1229066849e-01
 3.1269189715e-01
 3.1309264898e-01
 3.1349295378e-01
 3.1389275193e-01
 3.1429210305e-01
 3.1469094753e-01
 3.1508934498e-01
 3.1548729539e-01
 3.1588473916e-01
 3.1628173590e-01
 3.1667828560e-01
 3.1707435846e-01
 3.1746995449e-01
 3.1786513329e-01
 3.1825980544e-01
 3.1865406036e-01
 3.1904783845e-01
 3.1944116950e-01
 3.1983405352e-01
 3.2022649050e-01
 3.2061848044e-01
 3.2101002336e-01
 3.2140108943e-01
 3.2179173827e-01
 3.2218194008e-01
 3.2257172465e-01
 3.2296103239e-01
 3.2334992290e-01
 3.2373836637e-01
 3.2412639260e-01
 3.2451397181e-01
 3.2490110397e-01
 3.2528781891e-01
 3.2567408681e-01
 3.2605993748e-01
 3.2644537091e-01
 3.2683038712e-01
 3.2721495628e-01
 3.2759910822e-01
 3.2798284292e-01
 3.2836613059e-01
 3.2874903083e-01
 3.2913148403e-01
 3.2951354980e-01
 3.2989516854e-01
 3.3027639985e-01
 3.3065721393e-01
 3.3103761077e-01
 3.3141759038e-01
 3.3179718256e-01
 3.3217632771e-01
 3.3255508542e-01
 3.3293345571e-01
 3.3331140876e-01
 3.3368894458e-01
 3.3406609297e-01
 3.3444282413e-01
 3.3481916785e-01
 3.3519512415e-01
 3.3557066321e-01
 3.3594581485e-01
 3.3632057905e-01
 3.3669492602e-01
 3.3706891537e-01
 3.3744248748e-01
 3.3781567216e-01
 3.3818846941e-01
 3.3856087923e-01
 3.3893290162e-01
 3.3930453658e-01
 3.3967578411e-01
 3.4004667401e-01
 3.4041714668e-01
 3.4078726172e-01
 3.4115698934e-01
 3.4152632952e-01
 3.4189528227e-01
 3.4226387739e-01
 3.4263208508e-01
 3.4299993515e-01
 3.4336739779e-01
 3.4373450279e-01
 3.4410122037e-01
 3.4446755052e-01
 3.4483355284e-01
 3.4519916773e-01
 3.4556439519e-01
 3.4592929482e-01
 3.4629380703e-01
 3.4665793180e-01
 3.4702172875e-01
 3.4738516808e-01
 3.4774821997e-01
 3.4811091423e-01
 3.4847325087e-01
 3.4883525968e-01
 3.4919688106e-01
 3.4955814481e-01
 3.4991905093e-01
 3.5027962923e-01
 3.5063982010e-01
 3.5099968314e-01
 3.5135918856e-01
 3.5171833634e-01
 3.5207715631e-01
 3.5243561864e-01
 3.5279372334e-01
 3.5315147042e-01
 3.5350888968e-01
 3.5386595130e-01
 3.5422268510e-01
 3.5457909107e-01
 3.5493510962e-01
 3.5529083014e-01
 3.5564619303e-01
 3.5600119829e-01
 3.5635590553e-01
 3.5671025515e-01
 3.5706424713e-01
 3.5741794109e-01
 3.5777127743e-01
 3.5812428594e-01
 3.5847693682e-01
 3.5882928967e-01
 3.5918131471e-01
 3.5953298211e-01
 3.5988432169e-01
 3.6023536325e-01
 3.6058604717e-01
 3.6093643308e-01
 3.6128646135e-01
 3.6163619161e-01
 3.6198556423e-01
 3.6233463883e-01
 3.6268338561e-01
 3.6303180456e-01
 3.6337992549e-01
 3.6372771859e-01
 3.6407518387e-01
 3.6442232132e-01
 3.6476916075e-01
 3.6511567235e-01
 3.6546185613e-01
 3.6580774188e-01
 3.6615329981e-01
 3.6649855971e-01
 3.6684349179e-01
 3.6718812585e-01
 3.6753246188e-01
 3.6787647009e-01
 3.6822015047e-01
 3.6856356263e-01
 3.6890664697e-01
 3.6924940348e-01
 3.6959186196e-01
 3.6993405223e-01
 3.7027588487e-01
 3.7061744928e-01
 3.7095871568e-01
 3.7129965425e-01
 3.7164029479e-01
 3.7198063731e-01
 3.7232068181e-01
 3.7266042829e-01
 3.7299987674e-01
 3.7333902717e-01
 3.7367787957e-01
 3.7401643395e-01
 3.7435469031e-01
 3.7469264865e-01
 3.7503030896e-01
 3.7536770105e-01
 3.7570476532e-01
 3.7604156137e-01
 3.7637805939e-01
 3.7671425939e-01
 3.7705019116e-01
 3.7738582492e-01
 3.7772116065e-01
 3.7805619836e-01
 3.7839096785e-01
 3.7872543931e-01
 3.7905964255e-01
 3.7939354777e-01
 3.7972715497e-01
 3.8006049395e-01
 3.8039356470e-01
 3.8072630763e-01
 3.8105881214e-01
 3.8139101863e-01
 3.8172295690e-01
 3.8205459714e-01
 3.8238596916e-01
 3.8271704316e-01
 3.8304784894e-01
 3.8337838650e-01
 3.8370865583e-01
 3.8403862715e-01
 3.8436833024e-01
 3.8469776511e-01
 3.8502693176e-01
 3.8535583019e-01
 3.8568443060e-01
 3.8601276278e-01
 3.8634082675e-01
 3.8666865230e-01
 3.8699617982e-01
 3.8732340932e-01
 3.8765040040e-01
 3.8797712326e-01
 3.8830357790e-01
 3.8862976432e-01
 3.8895568252e-01
 3.8928133249e-01
 3.8960674405e-01
 3.8993185759e-01
 3.9025670290e-01
 3.9058130980e-01
 3.9090564847e-01
 3.9122971892e-01
 3.9155352116e-01
 3.9187708497e-01
 3.9220035076e-01
 3.9252337813e-01
 3.9284616709e-01
 3.9316865802e-01
 3.9349091053e-01
 3.9381292462e-01
 3.9413467050e-01
 3.9445614815e-01
 3.9477735758e-01
 3.9509832859e-01
 3.9541906118e-01
 3.9573952556e-01
 3.9605972171e-01
 3.9637967944e-01
 3.9669936895e-01
 3.9701882005e-01
 3.9733803272e-01
 3.9765697718e-01
 3.9797568321e-01
 3.9829412103e-01
 3.9861232042e-01
 3.9893028140e-01
 3.9924797416e-01
 3.9956542850e-01
 3.9988264441e-01
 4.0019962192e-01
 4.0051633120e-01
 4.0083280206e-01
 4.0114903450e-01
 4.0146502852e-01
 4.0178075433e-01
 4.0209624171e-01
 4.0241149068e-01
 4.0272653103e-01
 4.0304127336e-01
 4.0335580707e-01
 4.0367010236e-01
 4.0398415923e-01
 4.0429797769e-01
 4.0461152792e-01
 4.0492486954e-01
 4.0523797274e-01
 4.0555080771e-01
 4.0586343408e-01
 4.0617582202e-01
 4.0648797154e-01
 4.0679988265e-01
 4.0711155534e-01
 4.0742298961e-01
 4.0773421526e-01
 4.0804517269e-01
 4.0835592151e-01
 4.0866643190e-01
 4.0897670388e-01
 4.0928676724e-01
 4.0959656239e-01
 4.0990614891e-01
 4.1021552682e-01
 4.1052463651e-01
 4.1083353758e-01
 4.1114220023e-01
 4.1145065427e-01
 4.1175886989e-01
 4.1206684709e-01
 4.1237461567e-01
 4.1268214583e-01
 4.1298943758e-01
 4.1329652071e-01
 4.1360336542e-01
 4.1391000152e-01
 4.1421642900e-01
 4.1452258825e-01
 4.1482856870e-01
 4.1513431072e-01
 4.1543981433e-01
 4.1574510932e-01
 4.1605019569e-01
 4.1635504365e-01
 4.1665968299e-01
 4.1696408391e-01
 4.1726827621e-01
 4.1757225990e-01
 4.1787600517e-01
 4.1817954183e-01
 4.1848286986e-01
 4.1878598928e-01
 4.1908887029e-01
 4.1939154267e-01
 4.1969400644e-01
 4.1999623179e-01
 4.2029824853e-01
 4.2060005665e-01
 4.2090165615e-01
 4.2120304704e-01
 4.2150422931e-01
 4.2180517316e-01
 4.2210590839e-01
 4.2240646482e-01
 4.2270678282e-01
 4.2300689220e-01
 4.2330679297e-01
 4.2360645533e-01
 4.2390593886e-01
 4.2420521379e-01
 4.2450428009e-01
 4.2480313778e-01
 4.2510175705e-01
 4.2540019751e-01
 4.2569842935e-01
 4.2599645257e-01
 4.2629426718e-01
 4.2659187317e-01
 4.2688927054e-01
 4.2718645930e-01
 4.2748346925e-01
 4.2778024077e-01
 4.2807683349e-01
 4.2837321758e-01
 4.2866939306e-01
 4.2896535993e-01
 4.2926111817e-01
 4.2955669761e-01
 4.2985206842e-01
 4.3014723063e-01
 4.3044218421e-01
 4.3073695898e-01
 4.3103152514e-01
 4.3132588267e-01
 4.3162003160e-01
 4.3191400170e-01
 4.3220776320e-01
 4.3250134587e-01
 4.3279469013e-01
 4.3308788538e-01
 4.3338084221e-01
 4.3367362022e-01
 4.3396618962e-01
 4.3425858021e-01
 4.3455076218e-01
 4.3484276533e-01
 4.3513455987e-01
 4.3542617559e-01
 4.3571758270e-01
 4.3600878119e-01
 4.3629980087e-01
 4.3659064174e-01
 4.3688127398e-01
 4.3717169762e-01
 4.3746197224e-01
 4.3775200844e-01
 4.3804189563e-01
 4.3833154440e-01
 4.3862104416e-01
 4.3891033530e-01
 4.3919944763e-01
 4.3948835135e-01
 4.3977707624e-01
 4.4006562233e-01
 4.4035395980e-01
 4.4064211845e-01
 4.4093009830e-01
 4.4121786952e-01
 4.4150546193e-01
 4.4179287553e-01
 4.4208011031e-01
 4.4236713648e-01
 4.4265398383e-01
 4.4294065237e-01
 4.4322714210e-01
 4.4351342320e-01
 4.4379955530e-01
 4.4408547878e-01
 4.4437122345e-01
 4.4465678930e-01
 4.4494214654e-01
 4.4522735476e-01
 4.4551235437e-01
 4.4579717517e-01
 4.4608181715e-01
 4.4636628032e-01
 4.4665056467e-01
 4.4693467021e-01
 4.4721859694e-01
 4.4750234485e-01
 4.4778591394e-01
 4.4806927443e-01
 4.4835248590e-01
 4.4863551855e-01
 4.4891837239e-01
 4.4920101762e-01
 4.4948351383e-01
 4.4976583123e-01
 4.5004796982e-01
 4.5032992959e-01
 4.5061171055e-01
 4.5089331269e-01
 4.5117473602e-01
 4.5145598054e-01
 4.5173704624e-01
 4.5201796293e-01
 4.5229867101e-01
 4.5257923007e-01
 4.5285961032e-01
 4.5313981175e-01
 4.5341983438e-01
 4.5369970798e-01
 4.5397937298e-01
 4.5425888896e-01
 4.5453822613e-01
 4.5481738448e-01
 4.5509639382e-01
 4.5537519455e-01
 4.5565384626e-01
 4.5593234897e-01
 4.5621064305e-01
 4.5648878813e-01
 4.5676675439e-01
 4.5704454184e-01
 4.5732218027e-01
 4.5759963989e-01
 4.5787692070e-01
 4.5815405250e-01
 4.5843100548e-01
 4.5870777965e-01
 4.5898440480e-01
 4.5926085114e-01
 4.5953714848e-01
 4.5981326699e-01
 4.6008920670e-01
 4.6036499739e-01
 4.6064060926e-01
 4.6091607213e-01
 4.6119135618e-01
 4.6146646142e-01
 4.6174141765e-01
 4.6201622486e-01
 4.6229085326e-01
 4.6256530285e-01
 4.6283960342e-01
 4.6311372519e-01
 4.6338769794e-01
 4.6366152167e-01
 4.6393516660e-01
 4.6420866251e-01
 4.6448197961e-01
 4.6475511789e-01
 4.6502813697e-01
 4.6530097723e-01
 4.6557363868e-01
 4.6584615111e-01
 4.6611851454e-01
 4.6639069915e-01
 4.6666273475e-01
 4.6693459153e-01
 4.6720632911e-01
 4.6747788787e-01
 4.6774926782e-01
 4.6802049875e-01
 4.6829158068e-01
 4.6856251359e-01
 4.6883326769e-01
 4.6910387278e-01
 4.6937432885e-01
 4.6964460611e-01
 4.6991473436e-01
 4.7018471360e-01
 4.7045454383e-01
 4.7072419524e-01
 4.7099369764e-01
 4.7126305103e-01
 4.7153225541e-01
 4.7180131078e-01
 4.7207018733e-01
 4.7233891487e-01
 4.7260749340e-01
 4.7287592292e-01
 4.7314417362e-01
 4.7341230512e-01
 4.7368025780e-01
 4.7394806147e-01
 4.7421571612e-01
 4.7448322177e-01
 4.7475057840e-01
 4.7501778603e-01
 4.7528484464e-01
 4.7555172443e-01
 4.7581848502e-01
 4.7608506680e-01
 4.7635149956e-01
 4.7661778331e-01
 4.7688394785e-01
 4.7714993358e-01
 4.7741577029e-01
 4.7768145800e-01
 4.7794699669e-01
 4.7821238637e-01
 4.7847762704e-01
 4.7874271870e-01
 4.7900766134e-01
 4.7927248478e-01
 4.7953712940e-01
 4.7980162501e-01
 4.8006597161e-01
 4.8033016920e-01
 4.8059424758e-01
 4.8085814714e-01
 4.8112192750e-01
 4.8138552904e-01
 4.8164901137e-01
 4.8191234469e-01
 4.8217549920e-01
 4.8243853450e-01
 4.8270145059e-01
 4.8296418786e-01
 4.8322677612e-01
 4.8348924518e-01
 4.8375153542e-01
 4.8401370645e-01
 4.8427572846e-01
 4.8453760147e-01
 4.8479935527e-01
 4.8506093025e-01
 4.8532238603e-01
 4.8558369279e-01
 4.8584485054e-01
 4.8610588908e-01
 4.8636674881e-01
 4.8662748933e-01
 4.8688808084e-01
 4.8714852333e-01
 4.8740884662e-01
 4.8766902089e-01
 4.8792904615e-01
 4.8818892241e-01
 4.8844867945e-01
 4.8870828748e-01
 4.8896774650e-01
 4.8922708631e-01
 4.8948627710e-01
 4.8974531889e-01
 4.9000424147e-01
 4.9026301503e-01
 4.9052163959e-01
 4.9078011513e-01
 4.9103847146e-01
 4.9129670858e-01
 4.9155476689e-01
 4.9181270599e-01
 4.9207052588e-01
 4.9232819676e-01
 4.9258571863e-01
 4.9284309149e-01
 4.9310034513e-01
 4.9335747957e-01
 4.9361446500e-01
 4.9387130141e-01
 4.9412801862e-01
 4.9438458681e-01
 4.9464103580e-01
 4.9489733577e-01
 4.9515348673e-01
 4.9540951848e-01
 4.9566543102e-01
 4.9592119455e-01
 4.9617683887e-01
 4.9643233418e-01
 4.9668768048e-01
 4.9694290757e-01
 4.9719801545e-01
 4.9745297432e-01
 4.9770778418e-01
 4.9796247482e-01
 4.9821704626e-01
 4.9847146869e-01
 4.9872577190e-01
 4.9897995591e-01
 4.9923396111e-01
 4.9948787689e-01
 4.9974164367e-01
 4.9999529123e-01
 5.0024878979e-01
 5.0050216913e-01
 5.0075542927e-01
 5.0100851059e-01
 5.0126153231e-01
 5.0151437521e-01
 5.0176709890e-01
 5.0201970339e-01
 5.0227212906e-01
 5.0252449512e-01
 5.0277668238e-01
 5.0302875042e-01
 5.0328069925e-01
 5.0353252888e-01
 5.0378423929e-01
 5.0403577089e-01
 5.0428724289e-01
 5.0453853607e-01
 5.0478971004e-01
 5.0504076481e-01
 5.0529170036e-01
 5.0554245710e-01
 5.0579315424e-01
 5.0604367256e-01
 5.0629407167e-01
 5.0654441118e-01
 5.0679457188e-01
 5.0704455376e-01
 5.0729447603e-01
 5.0754427910e-01
 5.0779390335e-01
 5.0804346800e-01
 5.0829285383e-01
 5.0854218006e-01
 5.0879132748e-01
 5.0904035568e-01
 5.0928926468e-01
 5.0953805447e-01
 5.0978666544e-01
 5.1003521681e-01
 5.1028364897e-01
 5.1053190231e-01
 5.1078009605e-01
 5.1102811098e-01
 5.1127606630e-01
 5.1152384281e-01
 5.1177150011e-01
 5.1201903820e-01
 5.1226651669e-01
 5.1251381636e-01
 5.1276099682e-01
 5.1300805807e-01
 5.1325500011e-01
 5.1350176334e-01
 5.1374846697e-01
 5.1399505138e-01
 5.1424151659e-01
 5.1448786259e-01
 5.1473402977e-01
 5.1498013735e-01
 5.1522612572e-01
 5.1547193527e-01
 5.1571768522e-01
 5.1596331596e-01
 5.1620876789e-01
 5.1645416021e-01
 5.1669943333e-01
 5.1694452763e-01
 5.1718956232e-01
 5.1743441820e-01
 5.1767921448e-01
 5.1792389154e-01
 5.1816838980e-01
 5.1841282845e-01
 5.1865714788e-01
 5.1890128851e-01
 5.1914536953e-01
 5.1938933134e-01
 5.1963311434e-01
 5.1987683773e-01
 5.2012044191e-01
 5.2036392689e-01
 5.2060729265e-01
 5.2085053921e-01
 5.2109366655e-01
 5.2133667469e-01
 5.2157956362e-01
 5.2182233334e-01
 5.2206498384e-01
 5.2230751514e-01
 5.2254998684e-01
 5.2279227972e-01
 5.2303445339e-01
 5.2327656746e-01
 5.2351856232e-01
 5.2376037836e-01
 5.2400213480e-01
 5.2424377203e-01
 5.2448529005e-01
 5.2472662926e-01
 5.2496796846e-01
 5.2520912886e-01
 5.2545017004e-01
 5.2569109201e-01
 5.2593195438e-01
 5.2617263794e-01
 5.2641326189e-01
 5.2665370703e-01
 5.2689409256e-01
 5.2713435888e-01
 5.2737450600e-01
 5.2761453390e-01
 5.2785450220e-01
 5.2809429169e-01
 5.2833396196e-01
 5.2857357264e-01
 5.2881306410e-01
 5.2905243635e-01
 5.2929168940e-01
 5.2953082323e-01
 5.2976983786e-01
 5.3000873327e-01
 5.3024756908e-01
 5.3048628569e-01
 5.3072482347e-01
 5.3096330166e-01
 5.3120172024e-01
 5.3143996000e-01
 5.3167808056e-01
 5.3191614151e-01
 5.3215408325e-01
 5.3239190578e-01
 5.3262960911e-01
 5.3286719322e-01
 5.3310465813e-01
 5.3334206343e-01
 5.3357934952e-01
 5.3381651640e-01
 5.3405356407e-01
 5.3429049253e-01
 5.3452730179e-01
 5.3476405144e-01
 5.3500068188e-01
 5.3523719311e-01
 5.3547358513e-01
 5.3570991755e-01
 5.3594607115e-01
 5.3618216515e-01
 5.3641813993e-01
 5.3665399551e-01
 5.3688979149e-01
 5.3712540865e-01
 5.3736096621e-01
 5.3759640455e-01
 5.3783178329e-01
 5.3806698322e-01
 5.3830212355e-01
 5.3853714466e-01
 5.3877204657e-01
 5.3900682926e-01
 5.3924155235e-01
 5.3947615623e-01
 5.3971064091e-01
 5.3994500637e-01
 5.4017931223e-01
 5.4041349888e-01
 5.4064756632e-01
 5.4088151455e-01
 5.4111534357e-01
 5.4134911299e-01
 5.4158276320e-01
 5.4181629419e-01
 5.4204976559e-01
 5.4228311777e-01
 5.4251635075e-01
 5.4274946451e-01
 5.4298251867e-01
 5.4321545362e-01
 5.4344826937e-01
 5.4368096590e-01
 5.4391360283e-01
 5.4414612055e-01
 5.4437851906e-01
 5.4461079836e-01
 5.4484301805e-01
 5.4507511854e-01
 5.4530715942e-01
 5.4553902149e-01
 5.4577082396e-01
 5.4600250721e-01
 5.4623413086e-01
 5.4646563530e-01
 5.4669702053e-01
 5.4692828655e-01
 5.4715949297e-01
 5.4739058018e-01
