luts/S-Log2_to_linear.spi1d
Version 1
From 0 1
Length 4096
Components 1
{
 -2.6210634038e-02
 -2.6138106361e-02
 -2.6065578684e-02
 -2.5993051007e-02
 -2.5920523331e-02
 -2.5847995654e-02
 -2.5775467977e-02
 -2.5702942163e-02
 -2.5630414486e-02
 -2.5557886809e-02
 -2.5485359132e-02
 -2.5412831455e-02
 -2.5340303779e-02
 -2.5267776102e-02
 -2.5195248425e-02
 -2.5122720748e-02
 -2.5050194934e-02
 -2.4977667257e-02
 -2.4905139580e-02
 -2.4832611904e-02
 -2.4760084227e-02
 -2.4687556550e-02
 -2.4615028873e-02
 -2.4542501196e-02
 -2.4469973519e-02
 -2.4397445843e-02
 -2.4324920028e-02
 -2.4252392352e-02
 -2.4179864675e-02
 -2.4107336998e-02
 -2.4034809321e-02
 -2.3962281644e-02
 -2.3889753968e-02
 -2.3817226291e-02
 -2.3744698614e-02
 -2.3672172800e-02
 -2.3599645123e-02
 -2.3527117446e-02
 -2.3454589769e-02
 -2.3382062092e-02
 -2.3309534416e-02
 -2.3237006739e-02
 -2.3164479062e-02
 -2.3091951385e-02
 -2.3019425571e-02
 -2.2946897894e-02
 -2.2874370217e-02
 -2.2801842541e-02
 -2.2729314864e-02
 -2.2656787187e-02
 -2.2584259510e-02
 -2.2511731833e-02
 -2.2439204156e-02
 -2.2366678342e-02
 -2.2294150665e-02
 -2.2221622989e-02
 -2.2149095312e-02
 -2.2076567635e-02
 -2.2004039958e-02
 -2.1931512281e-02
 -2.1858984604e-02
 -2.1786456928e-02
 -2.1713931113e-02
 -2.1641403437e-02
 -2.1568875760e-02
 -2.1496348083e-02
 -2.1423820406e-02
 -2.1351292729e-02
 -2.1278765053e-02
 -2.1206237376e-02
 -2.1133709699e-02
 -2.1061183885e-02
 -2.0988656208e-02
 -2.0916128531e-02
 -2.0843600854e-02
 -2.0771073177e-02
 -2.0698545501e-02
 -2.0626017824e-02
 -2.0553490147e-02
 -2.0480962470e-02
 -2.0408436656e-02
 -2.0335908979e-02
 -2.0263381302e-02
 -2.0190853626e-02
 -2.0118325949e-02
 -2.0045798272e-02
 -1.9973270595e-02
 -1.9900742918e-02
 -1.9828215241e-02
 -1.9755689427e-02
 -1.9683161750e-02
 -1.9610634074e-02
 -1.9538106397e-02
 -1.9465578720e-02
 -1.9393051043e-02
 -1.9320523366e-02
 -1.9247995690e-02
 -1.9175468013e-02
 -1.9102942199e-02
 -1.9030414522e-02
 -1.8957886845e-02
 -1.8885359168e-02
 -1.8812831491e-02
 -1.8740303814e-02
 -1.8667776138e-02
 -1.8595248461e-02
 -1.8522720784e-02
 -1.8450193107e-02
 -1.8377667293e-02
 -1.8305139616e-02
 -1.8232611939e-02
 -1.8160084262e-02
 -1.8087556586e-02
 -1.8015028909e-02
 -1.7942501232e-02
 -1.7869973555e-02
 -1.7797445878e-02
 -1.7724920064e-02
 -1.7652392387e-02
 -1.7579864711e-02
 -1.7507337034e-02
 -1.7434809357e-02
 -1.7362281680e-02
 -1.7289754003e-02
 -1.7217226326e-02
 -1.7144698650e-02
 -1.7072172835e-02
 -1.6999645159e-02
 -1.6927117482e-02
 -1.6854589805e-02
 -1.6782062128e-02
 -1.6709534451e-02
 -1.6637006775e-02
 -1.6564479098e-02
 -1.6491951421e-02
 -1.6419425607e-02
 -1.6346897930e-02
 -1.6274370253e-02
 -1.6201842576e-02
 -1.6129314899e-02
 -1.6056787223e-02
 -1.5984259546e-02
 -1.5911731869e-02
 -1.5839204192e-02
 -1.5766678378e-02
 -1.5694150701e-02
 -1.5621623024e-02
 -1.5549095348e-02
 -1.5476567671e-02
 -1.5404039994e-02
 -1.5331512317e-02
 -1.5258985572e-02
 -1.5186457895e-02
 -1.5113930218e-02
 -1.5041402541e-02
 -1.4968875796e-02
 -1.4896348119e-02
 -1.4823820442e-02
 -1.4751292765e-02
 -1.4678765088e-02
 -1.4606238343e-02
 -1.4533710666e-02
 -1.4461182989e-02
 -1.4388655312e-02
 -1.4316127636e-02
 -1.4243600890e-02
 -1.4171073213e-02
 -1.4098545536e-02
 -1.4026017860e-02
 -1.3953491114e-02
 -1.3880963437e-02
 -1.3808435760e-02
 -1.3735908084e-02
 -1.3663380407e-02
 -1.3590853661e-02
 -1.3518325984e-02
 -1.3445798308e-02
 -1.3373270631e-02
 -1.3300743885e-02
 -1.3228216209e-02
 -1.3155688532e-02
 -1.3083160855e-02
 -1.3010633178e-02
 -1.2938106433e-02
 -1.2865578756e-02
 -1.2793051079e-02
 -1.2720523402e-02
 -1.2647996657e-02
 -1.2575468980e-02
 -1.2502941303e-02
 -1.2430413626e-02
 -1.2357885949e-02
 -1.2285359204e-02
 -1.2212831527e-02
 -1.2140303850e-02
 -1.2067776173e-02
 -1.1995249428e-02
 -1.1922721751e-02
 -1.1850194074e-02
 -1.1777666397e-02
 -1.1705138721e-02
 -1.1632611975e-02
 -1.1560084298e-02
 -1.1487556621e-02
 -1.1415028945e-02
 -1.1342501268e-02
 -1.1269974522e-02
 -1.1197446845e-02
 -1.1124919169e-02
 -1.1052391492e-02
 -1.0979864746e-02
 -1.0907337070e-02
 -1.0834809393e-02
 -1.0762281716e-02
 -1.0689754039e-02
 -1.0617227294e-02
 -1.0544699617e-02
 -1.0472171940e-02
 -1.0399644263e-02
 -1.0327117518e-02
 -1.0254589841e-02
 -1.0182062164e-02
 -1.0109534487e-02
 -1.0037006810e-02
 -9.9644800648e-03
 -9.8919523880e-03
 -9.8194247112e-03
 -9.7468970343e-03
 -9.6743702888e-03
 -9.6018426120e-03
 -9.5293149352e-03
 -9.4567872584e-03
 -9.3842595816e-03
 -9.3117328361e-03
 -9.2392051592e-03
 -9.1666774824e-03
 -9.0941498056e-03
 -9.0216221288e-03
 -8.9490953833e-03
 -8.8765677065e-03
 -8.8040400296e-03
 -8.7315123528e-03
 -8.6589856073e-03
 -8.5864579305e-03
 -8.5139302537e-03
 -8.4414025769e-03
 -8.3688749000e-03
 -8.2963481545e-03
 -8.2238204777e-03
 -8.1512928009e-03
 -8.0787651241e-03
 -8.0062383786e-03
 -7.9337107018e-03
 -7.8611830249e-03
 -7.7886553481e-03
 -7.7161281370e-03
 -7.6436004601e-03
 -7.5710732490e-03
 -7.4985455722e-03
 -7.4260183610e-03
 -7.3534906842e-03
 -7.2809634730e-03
 -7.2084357962e-03
 -7.1359081194e-03
 -7.0633809082e-03
 -6.9908532314e-03
 -6.9183260202e-03
 -6.8457983434e-03
 -6.7732711323e-03
 -6.7007434554e-03
 -6.6282157786e-03
 -6.5556885675e-03
 -6.4831608906e-03
 -6.4106336795e-03
 -6.3381060027e-03
 -6.2655787915e-03
 -6.1930511147e-03
 -6.1205239035e-03
 -6.0479962267e-03
 -5.9754685499e-03
 -5.9029413387e-03
 -5.8304136619e-03
 -5.7578864507e-03
 -5.6853587739e-03
 -5.6128315628e-03
 -5.5403038859e-03
 -5.4677762091e-03
 -5.3952489980e-03
 -5.3227213211e-03
 -5.2501941100e-03
 -5.1776664332e-03
 -5.1051392220e-03
 -5.0326115452e-03
 -4.9600843340e-03
 -4.8875566572e-03
 -4.8150289804e-03
 -4.7425017692e-03
 -4.6699740924e-03
 -4.5974468812e-03
 -4.5249192044e-03
 -4.4523919933e-03
 -4.3798643164e-03
 -4.3073371053e-03
 -4.2348094285e-03
 -4.1622817516e-03
 -4.0897545405e-03
 -4.0172268637e-03
 -3.9446996525e-03
 -3.8721719757e-03
 -3.7996445317e-03
 -3.7271170877e-03
 -3.6545896437e-03
 -3.5820621997e-03
 -3.5095347557e-03
 -3.4370073117e-03
 -3.3644796349e-03
 -3.2919521909e-03
 -3.2194247469e-03
 -3.1468973029e-03
 -3.0743698590e-03
 -3.0018424150e-03
 -2.9293149710e-03
 -2.8567875270e-03
 -2.7842598502e-03
 -2.7117324062e-03
 -2.6392049622e-03
 -2.5666775182e-03
 -2.4941500742e-03
 -2.4216226302e-03
 -2.3490951862e-03
 -2.2765677422e-03
 -2.2040400654e-03
 -2.1315126214e-03
 -2.0589851774e-03
 -1.9864577334e-03
 -1.9139302894e-03
 -1.8414028455e-03
 -1.7688752851e-03
 -1.6963478411e-03
 -1.6238203971e-03
 -1.5512929531e-03
 -1.4787653927e-03
 -1.4062379487e-03
 -1.3337105047e-03
 -1.2611830607e-03
 -1.1886555003e-03
 -1.1161280563e-03
 -1.0436006123e-03
 -9.7107316833e-04
 -8.9854566613e-04
 -8.2601822214e-04
 -7.5349071994e-04
 -6.8096327595e-04
 -6.0843577376e-04
 -5.3590832977e-04
 -4.6338082757e-04
 -3.9085335447e-04
 -3.1832588138e-04
 -2.4579840829e-04
 -1.7327093519e-04
 -1.0074346937e-04
 -2.8207850846e-05
 4.4332311518e-05
 1.1698264279e-04
 1.8974331033e-04
 2.6261448511e-04
 3.3559629810e-04
 4.0868899669e-04
 4.8189266818e-04
 5.5520754540e-04
 6.2863371568e-04
 7.0217147004e-04
 7.7582086669e-04
 8.4958208026e-04
 9.2345540179e-04
 9.9744088948e-04
 1.0715386597e-03
 1.1457490036e-03
 1.2200721540e-03
 1.2945081107e-03
 1.3690571068e-03
 1.4437192585e-03
 1.5184949152e-03
 1.5933840768e-03
 1.6683869762e-03
 1.7435037298e-03
 1.8187346868e-03
 1.8940797308e-03
 1.9695393275e-03
 2.0451135933e-03
 2.1208024118e-03
 2.1966064814e-03
 2.2725253366e-03
 2.3485596757e-03
 2.4247094989e-03
 2.5009750389e-03
 2.5773562957e-03
 2.6538535021e-03
 2.7304668911e-03
 2.8071966954e-03
 2.8840431478e-03
 2.9610062484e-03
 3.0380862299e-03
 3.1152830925e-03
 3.1925973017e-03
 3.2700290903e-03
 3.3475782257e-03
 3.4252454061e-03
 3.5030301660e-03
 3.5809334368e-03
 3.6589547526e-03
 3.7370948121e-03
 3.8153533824e-03
 3.8937306963e-03
 3.9722272195e-03
 4.0508429520e-03
 4.1295778938e-03
 4.2084325105e-03
 4.2874072678e-03
 4.3665017001e-03
 4.4457158074e-03
 4.5250505209e-03
 4.6045058407e-03
 4.6840817668e-03
 4.7637787648e-03
 4.8435963690e-03
 4.9235355109e-03
 5.0035961904e-03
 5.0837779418e-03
 5.1640821621e-03
 5.2445079200e-03
 5.3250556812e-03
 5.4057259113e-03
 5.4865186103e-03
 5.5674342439e-03
 5.6484723464e-03
 5.7296338491e-03
 5.8109187521e-03
 5.8923270553e-03
 5.9738587588e-03
 6.0555143282e-03
 6.1372937635e-03
 6.2191975303e-03
 6.3012256287e-03
 6.3833785243e-03
 6.4656562172e-03
 6.5480587073e-03
 6.6305864602e-03
 6.7132394761e-03
 6.7960177548e-03
 6.8789222278e-03
 6.9619524293e-03
 7.0451083593e-03
 7.1283909492e-03
 7.2118001990e-03
 7.2953356430e-03
 7.3789982125e-03
 7.4627879076e-03
 7.5467047282e-03
 7.6307491399e-03
 7.7149211429e-03
 7.7992207371e-03
 7.8836483881e-03
 7.9682050273e-03
 8.0528892577e-03
 8.1377020106e-03
 8.2226442173e-03
 8.3077149466e-03
 8.3929151297e-03
 8.4782447666e-03
 8.5637038574e-03
 8.6492924020e-03
 8.7350113317e-03
 8.8208606467e-03
 8.9068394154e-03
 8.9929495007e-03
 9.0791899711e-03
 9.1655617580e-03
 9.2520648614e-03
 9.3386992812e-03
 9.4254650176e-03
 9.5123630017e-03
 9.5993923023e-03
 9.6865538508e-03
 9.7738485783e-03
 9.8612746224e-03
 9.9488347769e-03
 1.0036527179e-02
 1.0124352761e-02
 1.0212311521e-02
 1.0300404392e-02
 1.0388630442e-02
 1.0476990603e-02
 1.0565485805e-02
 1.0654114187e-02
 1.0742878541e-02
 1.0831776075e-02
 1.0920809582e-02
 1.1009978130e-02
 1.1099282652e-02
 1.1188722216e-02
 1.1278297752e-02
 1.1368009262e-02
 1.1457856745e-02
 1.1547841132e-02
 1.1637962423e-02
 1.1728219688e-02
 1.1818614788e-02
 1.1909146793e-02
 1.1999816634e-02
 1.2090624310e-02
 1.2181568891e-02
 1.2272652239e-02
 1.2363874353e-02
 1.2455234304e-02
 1.2546733953e-02
 1.2638371438e-02
 1.2730148621e-02
 1.2822065502e-02
 1.2914121151e-02
 1.3006317429e-02
 1.3098653406e-02
 1.3191129081e-02
 1.3283745386e-02
 1.3376503251e-02
 1.3469400816e-02
 1.3562439941e-02
 1.3655620627e-02
 1.3748942874e-02
 1.3842406683e-02
 1.3936012052e-02
 1.4029759914e-02
 1.4123650268e-02
 1.4217683114e-02
 1.4311859384e-02
 1.4406177215e-02
 1.4500639401e-02
 1.4595245011e-02
 1.4689994045e-02
 1.4784887433e-02
 1.4879924245e-02
 1.4975105412e-02
 1.5070431866e-02
 1.5165901743e-02
 1.5261517838e-02
 1.5357279219e-02
 1.5453184955e-02
 1.5549236909e-02
 1.5645435080e-02
 1.5741778538e-02
 1.5838269144e-02
 1.5934906900e-02
 1.6031689942e-02
 1.6128620133e-02
 1.6225697473e-02
 1.6322923824e-02
 1.6420297325e-02
 1.6517817974e-02
 1.6615485772e-02
 1.6713302583e-02
 1.6811268404e-02
 1.6909383237e-02
 1.7007647082e-02
 1.7106059939e-02
 1.7204621807e-02
 1.7303334549e-02
 1.7402196303e-02
 1.7501208931e-02
 1.7600370571e-02
 1.7699683085e-02
 1.7799148336e-02
 1.7898762599e-02
 1.7998527735e-02
 1.8098445609e-02
 1.8198516220e-02
 1.8298737705e-02
 1.8399110064e-02
 1.8499637023e-02
 1.8600314856e-02
 1.8701147288e-02
 1.8802132457e-02
 1.8903270364e-02
 1.9004561007e-02
 1.9106008112e-02
 1.9207606092e-02
 1.9309360534e-02
 1.9411269575e-02
 1.9513333216e-02
 1.9615551457e-02
 1.9717924297e-02
 1.9820453599e-02
 1.9923137501e-02
 2.0025977865e-02
 2.0128974691e-02
 2.0232127979e-02
 2.0335437730e-02
 2.0438905805e-02
 2.0542528480e-02
 2.0646309480e-02
 2.0750248805e-02
 2.0854346454e-02
 2.0958600566e-02
 2.1063014865e-02
 2.1167585626e-02
 2.1272316575e-02
 2.1377205849e-02
 2.1482255310e-02
 2.1587463096e-02
 2.1692831069e-02
 2.1798359230e-02
 2.1904049441e-02
 2.2009897977e-02
 2.2115906700e-02
 2.2222077474e-02
 2.2328410298e-02
 2.2434903309e-02
 2.2541558370e-02
 2.2648377344e-02
 2.2755356506e-02
 2.2862497717e-02
 2.2969802842e-02
 2.3077270016e-02
 2.3184901103e-02
 2.3292696103e-02
 2.3400653154e-02
 2.3508775979e-02
 2.3617060855e-02
 2.3725511506e-02
 2.3834127933e-02
 2.3942908272e-02
 2.4051852524e-02
 2.4160964414e-02
 2.4270240217e-02
 2.4379683658e-02
 2.4489292875e-02
 2.4599067867e-02
 2.4709010497e-02
 2.4819118902e-02
 2.4929394946e-02
 2.5039838627e-02
 2.5150449947e-02
 2.5261228904e-02
 2.5372177362e-02
 2.5483293459e-02
 2.5594579056e-02
 2.5706032291e-02
 2.5817655027e-02
 2.5929449126e-02
 2.6041410863e-02
 2.6153543964e-02
 2.6265846565e-02
 2.6378320530e-02
 2.6490963995e-02
 2.6603778824e-02
 2.6716765016e-02
 2.6829924434e-02
 2.6943253353e-02
 2.7056755498e-02
 2.7170430869e-02
 2.7284277603e-02
 2.7398297563e-02
 2.7512490749e-02
 2.7626859024e-02
 2.7741398662e-02
 2.7856113389e-02
 2.7971001342e-02
 2.8086064383e-02
 2.8201302513e-02
 2.8316715732e-02
 2.8432304040e-02
 2.8548067436e-02
 2.8664005920e-02
 2.8780121356e-02
 2.8896413743e-02
 2.9012883082e-02
 2.9129527509e-02
 2.9246350750e-02
 2.9363350943e-02
 2.9480528086e-02
 2.9597884044e-02
 2.9715416953e-02
 2.9833128676e-02
 2.9951021075e-02
 3.0069090426e-02
 3.0187340453e-02
 3.0305769295e-02
 3.0424378812e-02
 3.0543167144e-02
 3.0662136152e-02
 3.0781285837e-02
 3.0900618061e-02
 3.1020130962e-02
 3.1139824539e-02
 3.1259700656e-02
 3.1379755586e-02
 3.1499996781e-02
 3.1620420516e-02
 3.1741026789e-02
 3.1861815602e-02
 3.1982786953e-02
 3.2103940845e-02
 3.2225281000e-02
 3.2346807420e-02
 3.2468512654e-02
 3.2590407878e-02
 3.2712485641e-02
 3.2834749669e-02
 3.2957199961e-02
 3.3079836518e-02
 3.3202659339e-02
 3.3325664699e-02
 3.3448860049e-02
 3.3572245389e-02
 3.3695813268e-02
 3.3819571137e-02
 3.3943515271e-02
 3.4067649394e-02
 3.4191973507e-02
 3.4316483885e-02
 3.4441184253e-02
 3.4566070884e-02
 3.4691151232e-02
 3.4816421568e-02
 3.4941881895e-02
 3.5067528486e-02
 3.5193368793e-02
 3.5319402814e-02
 3.5445626825e-02
 3.5572040826e-02
 3.5698648542e-02
 3.5825446248e-02
 3.5952437669e-02
 3.6079622805e-02
 3.6207001656e-02
 3.6334570497e-02
 3.6462336779e-02
 3.6590296775e-02
 3.6718450487e-02
 3.6846797913e-02
 3.6975339055e-02
 3.7104077637e-02
 3.7233009934e-02
 3.7362139672e-02
 3.7491466850e-02
 3.7620987743e-02
 3.7750706077e-02
 3.7880621850e-02
 3.8010735065e-02
 3.8141045719e-02
 3.8271553814e-02
 3.8402263075e-02
 3.8533166051e-02
 3.8664270192e-02
 3.8795575500e-02
 3.8927074522e-02
 3.9058778435e-02
 3.9190679789e-02
 3.9322782308e-02
 3.9455085993e-02
 3.9587590843e-02
 3.9720296860e-02
 3.9853204042e-02
 3.9986312389e-02
 4.0119621903e-02
 4.0253136307e-02
 4.0386851877e-02
 4.0520772338e-02
 4.0654893965e-02
 4.0789220482e-02
 4.0923751891e-02
 4.1058484465e-02
 4.1193425655e-02
 4.1328568012e-02
 4.1463918984e-02
 4.1599474847e-02
 4.1735235602e-02
 4.1871201247e-02
 4.2007375509e-02
 4.2143754661e-02
 4.2280342430e-02
 4.2417138815e-02
 4.2554140091e-02
 4.2691349983e-02
 4.2828768492e-02
 4.2966395617e-02
 4.3104235083e-02
 4.3242279440e-02
 4.3380536139e-02
 4.3519001454e-02
 4.3657679111e-02
 4.3796565384e-02
 4.3935663998e-02
 4.4074971229e-02
 4.4214490801e-02
 4.4354222715e-02
 4.4494166970e-02
 4.4634327292e-02
 4.4774696231e-02
 4.4915277511e-02
 4.5056074858e-02
 4.5197084546e-02
 4.5338310301e-02
 4.5479748398e-02
 4.5621402562e-02
 4.5763272792e-02
 4.5905355364e-02
 4.6047657728e-02
 4.6190172434e-02
 4.6332906932e-02
 4.6475857496e-02
 4.6619024128e-02
 4.6762406826e-02
 4.6906009316e-02
 4.7049827874e-02
 4.7193866223e-02
 4.7338124365e-02
 4.7482598573e-02
 4.7627296299e-02
 4.7772210091e-02
 4.7917347401e-02
 4.8062704504e-02
 4.8208277673e-02
 4.8354078084e-02
 4.8500098288e-02
 4.8646338284e-02
 4.8792801797e-02
 4.8939485103e-02
 4.9086395651e-02
 4.9233525991e-02
 4.9380879849e-02
 4.9528457224e-02
 4.9676261842e-02
 4.9824289978e-02
 4.9972541630e-02
 5.0121016800e-02
 5.0269719213e-02
 5.0418648869e-02
 5.0567805767e-02
 5.0717186183e-02
 5.0866793841e-02
 5.1016628742e-02
 5.1166690886e-02
 5.1316983998e-02
 5.1467500627e-02
 5.1618248224e-02
 5.1769226789e-02
 5.1920432597e-02
 5.2071865648e-02
 5.2223533392e-02
 5.2375428379e-02
 5.2527554333e-02
 5.2679911256e-02
 5.2832499146e-02
 5.2985321730e-02
 5.3138375282e-02
 5.3291659802e-02
 5.3445179015e-02
 5.3598929197e-02
 5.3752914071e-02
 5.3907129914e-02
 5.4061584175e-02
 5.4216273129e-02
 5.4371193051e-02
 5.4526351392e-02
 5.4681744426e-02
 5.4837372154e-02
 5.4993238300e-02
 5.5149342865e-02
 5.5305682123e-02
 5.5462256074e-02
 5.5619072169e-02
 5.5776122957e-02
 5.5933415890e-02
 5.6090947241e-02
 5.6248713285e-02
 5.6406725198e-02
 5.6564971805e-02
 5.6723460555e-02
 5.6882191449e-02
 5.7041164488e-02
 5.7200375944e-02
 5.7359829545e-02
 5.7519525290e-02
 5.7679463178e-02
 5.7839646935e-02
 5.8000072837e-02
 5.8160740882e-02
 5.8321651071e-02
 5.8482810855e-02
 5.8644212782e-02
 5.8805860579e-02
 5.8967750520e-02
 5.9129890054e-02
 5.9292275459e-02
 5.9454906732e-02
 5.9617783874e-02
 5.9780910611e-02
 5.9944283217e-02
 6.0107905418e-02
 6.0271773487e-02
 6.0435891151e-02
 6.0600262135e-02
 6.0764878988e-02
 6.0929745436e-02
 6.1094865203e-02
 6.1260234565e-02
 6.1425853521e-02
 6.1591725796e-02
 6.1757847667e-02
 6.1924222857e-02
 6.2090851367e-02
 6.2257733196e-02
 6.2424868345e-02
 6.2592260540e-02
 6.2759898603e-02
 6.2927797437e-02
 6.3095949590e-02
 6.3264355063e-02
 6.3433021307e-02
 6.3601940870e-02
 6.3771121204e-02
 6.3940554857e-02
 6.4110241830e-02
 6.4280189574e-02
 6.4450398088e-02
 6.4620859921e-02
 6.4791582525e-02
 6.4962565899e-02
 6.5133810043e-02
 6.5305314958e-02
 6.5477080643e-02
 6.5649099648e-02
 6.5821386874e-02
 6.5993934870e-02
 6.6166743636e-02
 6.6339813173e-02
 6.6513150930e-02
 6.6686749458e-02
 6.6860608757e-02
 6.7034736276e-02
 6.7209124565e-02
 6.7383781075e-02
 6.7558698356e-02
 6.7733883858e-02
 6.7909337580e-02
 6.8085052073e-02
 6.8261042237e-02
 6.8437293172e-02
 6.8613812327e-02
 6.8790599704e-02
 6.8967655301e-02
 6.9144979119e-02
 6.9322578609e-02
 6.9500438869e-02
 6.9678574800e-02
 6.9856978953e-02
 7.0035658777e-02
 7.0214599371e-02
 7.0393823087e-02
 7.0573315024e-02
 7.0753075182e-02
 7.0933111012e-02
 7.1113422513e-02
 7.1294009686e-02
 7.1474865079e-02
 7.1656003594e-02
 7.1837410331e-02
 7.2019092739e-02
 7.2201050818e-02
 7.2383284569e-02
 7.2565801442e-02
 7.2748593986e-02
 7.2931654751e-02
 7.3115006089e-02
 7.3298625648e-02
 7.3482528329e-02
 7.3666714132e-02
 7.3851175606e-02
 7.4035920203e-02
 7.4220940471e-02
 7.4406243861e-02
 7.4591830373e-02
 7.4777692556e-02
 7.4963845313e-02
 7.5150273740e-02
 7.5336992741e-02
 7.5523987412e-02
 7.5711272657e-02
 7.5898841023e-02
 7.6086692512e-02
 7.6274827123e-02
 7.6463252306e-02
 7.6651960611e-02
 7.6840959489e-02
 7.7030241489e-02
 7.7219806612e-02
 7.7409669757e-02
 7.7599816024e-02
 7.7790245414e-02
 7.7980972826e-02
 7.8171990812e-02
 7.8363291919e-02
 7.8554883599e-02
 7.8746773303e-02
 7.8938946128e-02
 7.9131416976e-02
 7.9324178398e-02
 7.9517230392e-02
 7.9710580409e-02
 7.9904220998e-02
 8.0098159611e-02
 8.0292388797e-02
 8.0486908555e-02
 8.0681733787e-02
 8.0876849592e-02
 8.1072255969e-02
 8.1267967820e-02
 8.1463970244e-02
 8.1660278141e-02
 8.1856876612e-02
 8.2053780556e-02
 8.2250975072e-02
 8.2448475063e-02
 8.2646273077e-02
 8.2844376564e-02
 8.3042778075e-02
 8.3241477609e-02
 8.3440482616e-02
 8.3639785647e-02
 8.3839394152e-02
 8.4039308131e-02
 8.4239520133e-02
 8.4440037608e-02
 8.4640860558e-02
 8.4841988981e-02
 8.5043422878e-02
 8.5245169699e-02
 8.5447214544e-02
 8.5649564862e-02
 8.5852228105e-02
 8.6055196822e-02
 8.6258471012e-02
 8.6462058127e-02
 8.6665950716e-02
 8.6870156229e-02
 8.7074667215e-02
 8.7279491127e-02
 8.7484627962e-02
 8.7690077722e-02
 8.7895832956e-02
 8.8101908565e-02
 8.8308297098e-02
 8.8514991105e-02
 8.8722005486e-02
 8.8929332793e-02
 8.9136973023e-02
 8.9344926178e-02
 8.9553199708e-02
 8.9761793613e-02
 8.9970692992e-02
 9.0179920197e-02
 9.0389460325e-02
 9.0599320829e-02
 9.0809494257e-02
 9.1019995511e-02
 9.1230809689e-02
 9.1441944242e-02
 9.1653406620e-02
 9.1865181923e-02
 9.2077285051e-02
 9.2289708555e-02
 9.2502452433e-02
 9.2715516686e-02
 9.2928908765e-02
 9.3142628670e-02
 9.3356668949e-02
 9.3571029603e-02
 9.3785725534e-02
 9.4000741839e-02
 9.4216085970e-02
 9.4431757927e-02
 9.4647750258e-02
 9.4864077866e-02
 9.5080733299e-02
 9.5297716558e-02
 9.5515027642e-02
 9.5732674003e-02
 9.5950648189e-02
 9.6168950200e-02
 9.6387587488e-02
 9.6606560051e-02
 9.6825860441e-02
 9.7045496106e-02
 9.7265459597e-02
 9.7485765815e-02
 9.7706399858e-02
 9.7927369177e-02
 9.8148681223e-02
 9.8370321095e-02
 9.8592303693e-02
 9.8814614117e-02
 9.9037274718e-02
 9.9260263145e-02
 9.9483594298e-02
 9.9707268178e-02
 9.9931277335e-02
 1.0015562922e-01
 1.0038031638e-01
 1.0060535371e-01
 1.0083072633e-01
 1.0105644166e-01
 1.0128249973e-01
 1.0150890052e-01
 1.0173565149e-01
 1.0196273774e-01
 1.0219017416e-01
 1.0241795331e-01
 1.0264608264e-01
 1.0287455469e-01
 1.0310337692e-01
 1.0333254188e-01
 1.0356206447e-01
 1.0379192233e-01
 1.0402213782e-01
 1.0425270349e-01
 1.0448361933e-01
 1.0471487790e-01
 1.0494649410e-01
 1.0517846048e-01
 1.0541078448e-01
 1.0564345121e-01
 1.0587647557e-01
 1.0610985756e-01
 1.0634358972e-01
 1.0657767951e-01
 1.0681212693e-01
 1.0704692453e-01
 1.0728207976e-01
 1.0751760006e-01
 1.0775347054e-01
 1.0798969865e-01
 1.0822629184e-01
 1.0846323520e-01
 1.0870054364e-01
 1.0893820971e-01
 1.0917624086e-01
 1.0941462964e-01
 1.0965338349e-01
 1.0989250243e-01
 1.1013197899e-01
 1.1037182063e-01
 1.1061202735e-01
 1.1085259914e-01
 1.1109353602e-01
 1.1133483797e-01
 1.1157651246e-01
 1.1181854457e-01
 1.1206094921e-01
 1.1230371892e-01
 1.1254686117e-01
 1.1279036850e-01
 1.1303424835e-01
 1.1327850074e-01
 1.1352312565e-01
 1.1376811564e-01
 1.1401347816e-01
 1.1425922066e-01
 1.1450532824e-01
 1.1475180835e-01
 1.1499866843e-01
 1.1524590105e-01
 1.1549351364e-01
 1.1574149877e-01
 1.1598985642e-01
 1.1623860151e-01
 1.1648771167e-01
 1.1673720926e-01
 1.1698708683e-01
 1.1723733693e-01
 1.1748796701e-01
 1.1773898453e-01
 1.1799038202e-01
 1.1824215949e-01
 1.1849431694e-01
 1.1874686182e-01
 1.1899978667e-01
 1.1925309151e-01
 1.1950679123e-01
 1.1976087093e-01
 1.2001533806e-01
 1.2027018517e-01
 1.2052542716e-01
 1.2078105658e-01
 1.2103706598e-01
 1.2129347026e-01
 1.2155026942e-01
 1.2180744857e-01
 1.2206502259e-01
 1.2232299149e-01
 1.2258134782e-01
 1.2284009904e-01
 1.2309923768e-01
 1.2335877866e-01
 1.2361870706e-01
 1.2387903035e-01
 1.2413974851e-01
 1.2440086901e-01
 1.2466237694e-01
 1.2492428720e-01
 1.2518659234e-01
 1.2544929981e-01
 1.2571240962e-01
 1.2597590685e-01
 1.2623982131e-01
 1.2650412321e-01
 1.2676882744e-01
 1.2703393400e-01
 1.2729945779e-01
 1.2756536901e-01
 1.2783168256e-01
 1.2809841335e-01
 1.2836553156e-01
 1.2863306701e-01
 1.2890100479e-01
 1.2916935980e-01
 1.2943811715e-01
 1.2970727682e-01
 1.2997685373e-01
 1.3024683297e-01
 1.3051721454e-01
 1.3078802824e-01
 1.3105922937e-01
 1.3133086264e-01
 1.3160289824e-01
 1.3187535107e-01
 1.3214820623e-01
 1.3242149353e-01
 1.3269518316e-01
 1.3296929002e-01
 1.3324381411e-01
 1.3351875544e-01
