luts/S-Log1_to_linear.spi1d
Version 1
From 0 1
Length 4096
Components 1
{
 -1.8550904468e-02
 -1.8499573693e-02
 -1.8448241055e-02
 -1.8396908417e-02
 -1.8345575780e-02
 -1.8294243142e-02
 -1.8242912367e-02
 -1.8191579729e-02
 -1.8140247092e-02
 -1.8088914454e-02
 -1.8037583679e-02
 -1.7986251041e-02
 -1.7934918404e-02
 -1.7883585766e-02
 -1.7832253128e-02
 -1.7780922353e-02
 -1.7729589716e-02
 -1.7678257078e-02
 -1.7626924440e-02
 -1.7575591803e-02
 -1.7524261028e-02
 -1.7472928390e-02
 -1.7421595752e-02
 -1.7370263115e-02
 -1.7318932340e-02
 -1.7267599702e-02
 -1.7216267064e-02
 -1.7164934427e-02
 -1.7113601789e-02
 -1.7062271014e-02
 -1.7010938376e-02
 -1.6959605739e-02
 -1.6908273101e-02
 -1.6856942326e-02
 -1.6805609688e-02
 -1.6754277050e-02
 -1.6702944413e-02
 -1.6651611775e-02
 -1.6600281000e-02
 -1.6548948362e-02
 -1.6497615725e-02
 -1.6446283087e-02
 -1.6394952312e-02
 -1.6343619674e-02
 -1.6292287037e-02
 -1.6240954399e-02
 -1.6189621761e-02
 -1.6138290986e-02
 -1.6086958349e-02
 -1.6035625711e-02
 -1.5984293073e-02
 -1.5932960436e-02
 -1.5881629661e-02
 -1.5830297023e-02
 -1.5778964385e-02
 -1.5727631748e-02
 -1.5676300973e-02
 -1.5624968335e-02
 -1.5573635697e-02
 -1.5522303060e-02
 -1.5470971353e-02
 -1.5419638716e-02
 -1.5368307009e-02
 -1.5316974372e-02
 -1.5265642665e-02
 -1.5214310028e-02
 -1.5162978321e-02
 -1.5111645684e-02
 -1.5060313046e-02
 -1.5008981340e-02
 -1.4957648702e-02
 -1.4906316996e-02
 -1.4854984358e-02
 -1.4803652652e-02
 -1.4752320014e-02
 -1.4700987376e-02
 -1.4649655670e-02
 -1.4598323032e-02
 -1.4546991326e-02
 -1.4495658688e-02
 -1.4444326982e-02
 -1.4392994344e-02
 -1.4341662638e-02
 -1.4290330000e-02
 -1.4238997363e-02
 -1.4187665656e-02
 -1.4136333019e-02
 -1.4085001312e-02
 -1.4033668675e-02
 -1.3982336968e-02
 -1.3931004331e-02
 -1.3879672624e-02
 -1.3828339987e-02
 -1.3777007349e-02
 -1.3725675642e-02
 -1.3674343005e-02
 -1.3623011298e-02
 -1.3571678661e-02
 -1.3520346954e-02
 -1.3469014317e-02
 -1.3417681679e-02
 -1.3366349973e-02
 -1.3315017335e-02
 -1.3263685629e-02
 -1.3212352991e-02
 -1.3161021285e-02
 -1.3109688647e-02
 -1.3058356941e-02
 -1.3007024303e-02
 -1.2955691665e-02
 -1.2904359959e-02
 -1.2853027321e-02
 -1.2801695615e-02
 -1.2750362977e-02
 -1.2699031271e-02
 -1.2647698633e-02
 -1.2596365996e-02
 -1.2545034289e-02
 -1.2493701652e-02
 -1.2442369945e-02
 -1.2391037308e-02
 -1.2339705601e-02
 -1.2288372964e-02
 -1.2237041257e-02
 -1.2185708620e-02
 -1.2134375982e-02
 -1.2083044276e-02
 -1.2031711638e-02
 -1.1980379932e-02
 -1.1929047294e-02
 -1.1877715588e-02
 -1.1826382950e-02
 -1.1775050312e-02
 -1.1723718606e-02
 -1.1672385968e-02
 -1.1621054262e-02
 -1.1569721624e-02
 -1.1518389918e-02
 -1.1467057280e-02
 -1.1415725574e-02
 -1.1364392936e-02
 -1.1313060299e-02
 -1.1261728592e-02
 -1.1210395955e-02
 -1.1159064248e-02
 -1.1107731611e-02
 -1.1056399904e-02
 -1.1005067267e-02
 -1.0953734629e-02
 -1.0902402923e-02
 -1.0851070285e-02
 -1.0799738578e-02
 -1.0748405941e-02
 -1.0697074234e-02
 -1.0645741597e-02
 -1.0594409890e-02
 -1.0543077253e-02
 -1.0491744615e-02
 -1.0440412909e-02
 -1.0389080271e-02
 -1.0337748565e-02
 -1.0286415927e-02
 -1.0235084221e-02
 -1.0183751583e-02
 -1.0132419877e-02
 -1.0081087239e-02
 -1.0029754601e-02
 -9.9784228951e-03
 -9.9270902574e-03
 -9.8757585511e-03
 -9.8244259134e-03
 -9.7730942070e-03
 -9.7217615694e-03
 -9.6704289317e-03
 -9.6190972254e-03
 -9.5677645877e-03
 -9.5164328814e-03
 -9.4651002437e-03
 -9.4137685373e-03
 -9.3624358997e-03
 -9.3111041933e-03
 -9.2597715557e-03
 -9.2084389180e-03
 -9.1571072116e-03
 -9.1057745740e-03
 -9.0544428676e-03
 -9.0031102300e-03
 -8.9517785236e-03
 -8.9004458860e-03
 -8.8491132483e-03
 -8.7977815419e-03
 -8.7464489043e-03
 -8.6951171979e-03
 -8.6437845603e-03
 -8.5924528539e-03
 -8.5411202163e-03
 -8.4897885099e-03
 -8.4384558722e-03
 -8.3871232346e-03
 -8.3357915282e-03
 -8.2844588906e-03
 -8.2331271842e-03
 -8.1817945465e-03
 -8.1304628402e-03
 -8.0791302025e-03
 -8.0277975649e-03
 -7.9764658585e-03
 -7.9251332209e-03
 -7.8738015145e-03
 -7.8224688768e-03
 -7.7711367048e-03
 -7.7198045328e-03
 -7.6684723608e-03
 -7.6171401888e-03
 -7.5658080168e-03
 -7.5144758448e-03
 -7.4631436728e-03
 -7.4118110351e-03
 -7.3604788631e-03
 -7.3091466911e-03
 -7.2578145191e-03
 -7.2064823471e-03
 -7.1551501751e-03
 -7.1038180031e-03
 -7.0524858311e-03
 -7.0011536591e-03
 -6.9498210214e-03
 -6.8984888494e-03
 -6.8471566774e-03
 -6.7958245054e-03
 -6.7444923334e-03
 -6.6931601614e-03
 -6.6418279894e-03
 -6.5904958174e-03
 -6.5391631797e-03
 -6.4878310077e-03
 -6.4364988357e-03
 -6.3851666637e-03
 -6.3338344917e-03
 -6.2825023197e-03
 -6.2311701477e-03
 -6.1798379757e-03
 -6.1285053380e-03
 -6.0771731660e-03
 -6.0258409940e-03
 -5.9745088220e-03
 -5.9231766500e-03
 -5.8718444780e-03
 -5.8205123059e-03
 -5.7691801339e-03
 -5.7178474963e-03
 -5.6665153243e-03
 -5.6151831523e-03
 -5.5638509803e-03
 -5.5125188082e-03
 -5.4611866362e-03
 -5.4098544642e-03
 -5.3585222922e-03
 -5.3071896546e-03
 -5.2558574826e-03
 -5.2045253105e-03
 -5.1531931385e-03
 -5.1018609665e-03
 -5.0505287945e-03
 -4.9991966225e-03
 -4.9478644505e-03
 -4.8965318128e-03
 -4.8451996408e-03
 -4.7938674688e-03
 -4.7425352968e-03
 -4.6912031248e-03
 -4.6398709528e-03
 -4.5885387808e-03
 -4.5372066088e-03
 -4.4858739711e-03
 -4.4345417991e-03
 -4.3832096271e-03
 -4.3318774551e-03
 -4.2805452831e-03
 -4.2292131111e-03
 -4.1778809391e-03
 -4.1265487671e-03
 -4.0752161294e-03
 -4.0238839574e-03
 -3.9725517854e-03
 -3.9212196134e-03
 -3.8698874414e-03
 -3.8185552694e-03
 -3.7672228646e-03
 -3.7158906925e-03
 -3.6645585205e-03
 -3.6132263485e-03
 -3.5618939437e-03
 -3.5105617717e-03
 -3.4592295997e-03
 -3.4078974277e-03
 -3.3565650228e-03
 -3.3052328508e-03
 -3.2539006788e-03
 -3.2025685068e-03
 -3.1512363348e-03
 -3.0999039300e-03
 -3.0485717580e-03
 -2.9972395860e-03
 -2.9459074140e-03
 -2.8945750091e-03
 -2.8432428371e-03
 -2.7919106651e-03
 -2.7405784931e-03
 -2.6892460883e-03
 -2.6379139163e-03
 -2.5865817443e-03
 -2.5352495722e-03
 -2.4839171674e-03
 -2.4325849954e-03
 -2.3812528234e-03
 -2.3299206514e-03
 -2.2785882466e-03
 -2.2272560745e-03
 -2.1759239025e-03
 -2.1245917305e-03
 -2.0732593257e-03
 -2.0219271537e-03
 -1.9705949817e-03
 -1.9192626933e-03
 -1.8679305213e-03
 -1.8165982328e-03
 -1.7652660608e-03
 -1.7139337724e-03
 -1.6626016004e-03
 -1.6112693120e-03
 -1.5599371400e-03
 -1.5086048516e-03
 -1.4572726795e-03
 -1.4059403911e-03
 -1.3546082191e-03
 -1.3032759307e-03
 -1.2519437587e-03
 -1.2006114703e-03
 -1.1492792983e-03
 -1.0979470098e-03
 -1.0466148378e-03
 -9.9528254941e-04
 -9.4395037740e-04
 -8.9261814719e-04
 -8.4128591698e-04
 -7.8995368676e-04
 -7.3862145655e-04
 -6.8728922633e-04
 -6.3595699612e-04
 -5.8462476591e-04
 -5.3329253569e-04
 -4.8196030548e-04
 -4.3062807526e-04
 -3.7929584505e-04
 -3.2796361484e-04
 -2.7663138462e-04
 -2.2529913986e-04
 -1.7396690964e-04
 -1.2263467943e-04
 -7.1302456490e-05
 -1.9964461899e-05
 3.1376748666e-05
 8.2795930211e-05
 1.3429320825e-04
 1.8586868828e-04
 2.3752250127e-04
 2.8925476363e-04
 3.4106557723e-04
 3.9295508759e-04
 4.4492341112e-04
 4.9697066424e-04
 5.4909696337e-04
 6.0130242491e-04
 6.5358716529e-04
 7.0595130092e-04
 7.5839494821e-04
 8.1091828179e-04
 8.6352135986e-04
 9.1620435705e-04
 9.6896733157e-04
 1.0218104580e-03
 1.0747337947e-03
 1.1277375743e-03
 1.1808217969e-03
 1.2339866953e-03
 1.2872322695e-03
 1.3405587524e-03
 1.3939662604e-03
 1.4474547934e-03
 1.5010245843e-03
 1.5546757495e-03
 1.6084084054e-03
 1.6622226685e-03
 1.7161186552e-03
 1.7700964818e-03
 1.8241562648e-03
 1.8782981206e-03
 1.9325222820e-03
 1.9868288655e-03
 2.0412176382e-03
 2.0956892986e-03
 2.1502436139e-03
 2.2048808169e-03
 2.2596009076e-03
 2.3144041188e-03
 2.3692904506e-03
 2.4242603686e-03
 2.4793136399e-03
 2.5344504975e-03
 2.5896711741e-03
 2.6449756697e-03
 2.7003642172e-03
 2.7558368165e-03
 2.8113937005e-03
 2.8670348693e-03
 2.9227607884e-03
 2.9785709921e-03
 3.0344661791e-03
 3.0904463492e-03
 3.1465112697e-03
 3.2026614062e-03
 3.2588969916e-03
 3.3152177930e-03
 3.3716242760e-03
 3.4281162079e-03
 3.4846942872e-03
 3.5413580481e-03
 3.5981077235e-03
 3.6549437791e-03
 3.7118662149e-03
 3.7688750308e-03
 3.8259704597e-03
 3.8831525017e-03
 3.9404216222e-03
 3.9977775887e-03
 4.0552206337e-03
 4.1127507575e-03
 4.1703684255e-03
 4.2280736379e-03
 4.2858663946e-03
 4.3437466957e-03
 4.4017150067e-03
 4.4597717933e-03
 4.5179165900e-03
 4.5761493966e-03
 4.6344706789e-03
 4.6928809024e-03
 4.7513796017e-03
 4.8099667765e-03
 4.8686433583e-03
 4.9274088815e-03
 4.9862638116e-03
 5.0452081487e-03
 5.1042418927e-03
 5.1633655094e-03
 5.2225785330e-03
 5.2818818949e-03
 5.3412751295e-03
 5.4007582366e-03
 5.4603321478e-03
 5.5199963972e-03
 5.5797514506e-03
 5.6395968422e-03
 5.6995335035e-03
 5.7595609687e-03
 5.8196797036e-03
 5.8798897080e-03
 5.9401909821e-03
 6.0005839914e-03
 6.0610687360e-03
 6.1216452159e-03
 6.1823138967e-03
 6.2430747785e-03
 6.3039273955e-03
 6.3648731448e-03
 6.4259110950e-03
 6.4870417118e-03
 6.5482649952e-03
 6.6095814109e-03
 6.6709914245e-03
 6.7324941047e-03
 6.7940903828e-03
 6.8557802588e-03
 6.9175637327e-03
 6.9794412702e-03
 7.0414124057e-03
 7.1034780703e-03
 7.1656377986e-03
 7.2278915904e-03
 7.2902403772e-03
 7.3526836932e-03
 7.4152220041e-03
 7.4778548442e-03
 7.5405831449e-03
 7.6034069061e-03
 7.6663256623e-03
 7.7293403447e-03
 7.7924504876e-03
 7.8556565568e-03
 7.9189585522e-03
 7.9823564738e-03
 8.0458512530e-03
 8.1094419584e-03
 8.1731295213e-03
 8.2369139418e-03
 8.3007952198e-03
 8.3647733554e-03
 8.4288483486e-03
 8.4930211306e-03
 8.5572907701e-03
 8.6216581985e-03
 8.6861243472e-03
 8.7506873533e-03
 8.8153490797e-03
 8.8801085949e-03
 8.9449658990e-03
 9.0099228546e-03
 9.0749775991e-03
 9.1401310638e-03
 9.2053841799e-03
 9.2707360163e-03
 9.3361875042e-03
 9.4017377123e-03
 9.4673875719e-03
 9.5331380144e-03
 9.5989871770e-03
 9.6649369225e-03
 9.7309872508e-03
 9.7971372306e-03
 9.8633877933e-03
 9.9297389388e-03
 9.9961906672e-03
 1.0062743910e-02
 1.0129397735e-02
 1.0196153075e-02
 1.0263009928e-02
 1.0329968296e-02
 1.0397028178e-02
 1.0464189574e-02
 1.0531453416e-02
 1.0598818772e-02
 1.0666287504e-02
 1.0733857751e-02
 1.0801530443e-02
 1.0869306512e-02
 1.0937185958e-02
 1.1005167849e-02
 1.1073253118e-02
 1.1141441762e-02
 1.1209733784e-02
 1.1278130114e-02
 1.1346629821e-02
 1.1415233836e-02
 1.1483942159e-02
 1.1552753858e-02
 1.1621670797e-02
 1.1690692976e-02
 1.1759818532e-02
 1.1829050258e-02
 1.1898387223e-02
 1.1967828497e-02
 1.2037375942e-02
 1.2107028626e-02
 1.2176787481e-02
 1.2246652506e-02
 1.2316622771e-02
 1.2386700138e-02
 1.2456883676e-02
 1.2527173385e-02
 1.2597570196e-02
 1.2668074109e-02
 1.2738684192e-02
 1.2809402309e-02
 1.2880227529e-02
 1.2951160781e-02
 1.3022201136e-02
 1.3093350455e-02
 1.3164606877e-02
 1.3235971332e-02
 1.3307444751e-02
 1.3379026204e-02
 1.3450717553e-02
 1.3522516936e-02
 1.3594425283e-02
 1.3666442595e-02
 1.3738569804e-02
 1.3810805976e-02
 1.3883152045e-02
 1.3955608010e-02
 1.4028174803e-02
 1.4100850560e-02
 1.4173638076e-02
 1.4246534556e-02
 1.4319542795e-02
 1.4392661862e-02
 1.4465891756e-02
 1.4539232478e-02
 1.4612685889e-02
 1.4686249197e-02
 1.4759925194e-02
 1.4833712950e-02
 1.4907612465e-02
 1.4981624670e-02
 1.5055749565e-02
 1.5129986219e-02
 1.5204335563e-02
 1.5278798528e-02
 1.5353374183e-02
 1.5428063460e-02
 1.5502865426e-02
 1.5577781014e-02
 1.5652811155e-02
 1.5727955848e-02
 1.5803212300e-02
 1.5878584236e-02
 1.5954071656e-02
 1.6029672697e-02
 1.6105389223e-02
 1.6181219369e-02
 1.6257166862e-02
 1.6333227977e-02
 1.6409404576e-02
 1.6485698521e-02
 1.6562106088e-02
 1.6638631001e-02
 1.6715271398e-02
 1.6792029142e-02
 1.6868902370e-02
 1.6945892945e-02
 1.7023000866e-02
 1.7100226134e-02
 1.7177568749e-02
 1.7255026847e-02
 1.7332604155e-02
 1.7410298809e-02
 1.7488112673e-02
 1.7566043884e-02
 1.7644092441e-02
 1.7722260207e-02
 1.7800547183e-02
 1.7878953367e-02
 1.7957476899e-02
 1.8036121503e-02
 1.8114883453e-02
 1.8193766475e-02
 1.8272770569e-02
 1.8351892009e-02
 1.8431136385e-02
 1.8510498106e-02
 1.8589982763e-02
 1.8669586629e-02
 1.8749311566e-02
 1.8829159439e-02
 1.8909126520e-02
 1.8989216536e-02
 1.9069425762e-02
 1.9149759784e-02
 1.9230213016e-02
 1.9310791045e-02
 1.9391490147e-02
 1.9472312182e-02
 1.9553255290e-02
 1.9634323195e-02
 1.9715514034e-02
 1.9796827808e-02
 1.9878264517e-02
 1.9959826022e-02
 2.0041510463e-02
 2.0123319700e-02
 2.0205253735e-02
 2.0287310705e-02
 2.0369492471e-02
 2.0451799035e-02
 2.0534232259e-02
 2.0616788417e-02
 2.0699471235e-02
 2.0782278851e-02
 2.0865213126e-02
 2.0948274061e-02
 2.1031459793e-02
 2.1114772186e-02
 2.1198211238e-02
 2.1281776950e-02
 2.1365469322e-02
 2.1449288353e-02
 2.1533235908e-02
 2.1617310122e-02
 2.1701512858e-02
 2.1785842255e-02
 2.1870300174e-02
 2.1954886615e-02
 2.2039601579e-02
 2.2124445066e-02
 2.2209417075e-02
 2.2294517606e-02
 2.2379748523e-02
 2.2465109825e-02
 2.2550599650e-02
 2.2636217996e-02
 2.2721968591e-02
 2.2807847708e-02
 2.2893857211e-02
 2.2979998961e-02
 2.3066271096e-02
 2.3152673617e-02
 2.3239206523e-02
 2.3325871676e-02
 2.3412669078e-02
 2.3499598727e-02
 2.3586658761e-02
 2.3673851043e-02
 2.3761177436e-02
 2.3848636076e-02
 2.3936226964e-02
 2.4023950100e-02
 2.4111807346e-02
 2.4199796841e-02
 2.4287922308e-02
 2.4376180023e-02
 2.4464571849e-02
 2.4553097785e-02
 2.4641759694e-02
 2.4730553851e-02
 2.4819483981e-02
 2.4908550084e-02
 2.4997750297e-02
 2.5087086484e-02
 2.5176558644e-02
 2.5266166776e-02
 2.5355909020e-02
 2.5445789099e-02
 2.5535807014e-02
 2.5625959039e-02
 2.5716248900e-02
 2.5806676596e-02
 2.5897242129e-02
 2.5987943634e-02
 2.6078782976e-02
 2.6169762015e-02
 2.6260877028e-02
 2.6352131739e-02
 2.6443524286e-02
 2.6535056531e-02
 2.6626726612e-02
 2.6718536392e-02
 2.6810485870e-02
 2.6902575046e-02
 2.6994803920e-02
 2.7087174356e-02
 2.7179682627e-02
 2.7272332460e-02
 2.7365123853e-02
 2.7458054945e-02
 2.7551127598e-02
 2.7644341812e-02
 2.7737695724e-02
 2.7831193060e-02
 2.7924833819e-02
 2.8018614277e-02
 2.8112538159e-02
 2.8206605464e-02
 2.8300814331e-02
 2.8395166621e-02
 2.8489662334e-02
 2.8584301472e-02
 2.8679084033e-02
 2.8774011880e-02
 2.8869083151e-02
 2.8964297846e-02
 2.9059657827e-02
 2.9155163094e-02
 2.9250813648e-02
 2.9346609488e-02
 2.9442548752e-02
 2.9538635164e-02
 2.9634868726e-02
 2.9731247574e-02
 2.9827771708e-02
 2.9924442992e-02
 3.0021261424e-02
 3.0118227005e-02
 3.0215339735e-02
 3.0312599614e-02
 3.0410006642e-02
 3.0507562682e-02
 3.0605267733e-02
 3.0703119934e-02
 3.0801119283e-02
 3.0899269506e-02
 3.0997568741e-02
 3.1096016988e-02
 3.1194614246e-02
 3.1293362379e-02
 3.1392257661e-02
 3.1491305679e-02
 3.1590502709e-02
 3.1689852476e-02
 3.1789351255e-02
 3.1889002770e-02
 3.1988803297e-02
 3.2088760287e-02
 3.2188862562e-02
 3.2289121300e-02
 3.2389529049e-02
 3.2490093261e-02
 3.2590806484e-02
 3.2691676170e-02
 3.2792694867e-02
 3.2893870026e-02
 3.2995197922e-02
 3.3096682280e-02
 3.3198315650e-02
 3.3300105482e-02
 3.3402051777e-02
 3.3504150808e-02
 3.3606406301e-02
 3.3708818257e-02
 3.3811382949e-02
 3.3914104104e-02
 3.4016981721e-02
 3.4120015800e-02
 3.4223206341e-02
 3.4326553345e-02
 3.4430056810e-02
 3.4533716738e-02
 3.4637536854e-02
 3.4741513431e-02
 3.4845646471e-02
 3.4949939698e-02
 3.5054389387e-02
 3.5158999264e-02
 3.5263765603e-02
 3.5368692130e-02
 3.5473778844e-02
 3.5579025745e-02
 3.5684432834e-02
 3.5789996386e-02
 3.5895723850e-02
 3.6001611501e-02
 3.6107659340e-02
 3.6213867366e-02
 3.6320239305e-02
 3.6426771432e-02
 3.6533463746e-02
 3.6640319973e-02
 3.6747336388e-02
 3.6854516715e-02
 3.6961860955e-02
 3.7069365382e-02
 3.7177037448e-02
 3.7284869701e-02
 3.7392865866e-02
 3.7501025945e-02
 3.7609349936e-02
 3.7717841566e-02
 3.7826497108e-02
 3.7935312837e-02
 3.8044299930e-02
 3.8153450936e-02
 3.8262765855e-02
 3.8372248411e-02
 3.8481894881e-02
 3.8591708988e-02
 3.8701690733e-02
 3.8811840117e-02
 3.8922157139e-02
 3.9032638073e-02
 3.9143290371e-02
 3.9254110307e-02
 3.9365097880e-02
 3.9476253092e-02
 3.9587575942e-02
 3.9699070156e-02
 3.9810735732e-02
 3.9922565222e-02
 4.0034569800e-02
 4.0146742016e-02
 4.0259085596e-02
 4.0371600538e-02
 4.0484283119e-02
 4.0597140789e-02
 4.0710166097e-02
 4.0823366493e-02
 4.0936734527e-02
 4.1050277650e-02
 4.1163995862e-02
 4.1277881712e-02
 4.1391942650e-02
 4.1506178677e-02
 4.1620586067e-02
 4.1735164821e-02
 4.1849922389e-02
 4.1964851320e-02
 4.2079955339e-02
 4.2195234448e-02
 4.2310688645e-02
 4.2426317930e-02
 4.2542122304e-02
 4.2658105493e-02
 4.2774263769e-02
 4.2890597135e-02
 4.3007105589e-02
 4.3123792857e-02
 4.3240658939e-02
 4.3357700109e-02
 4.3474920094e-02
 4.3592315167e-02
 4.3709892780e-02
 4.3827645481e-02
 4.3945580721e-02
 4.4063691050e-02
 4.4181983918e-02
 4.4300455600e-02
 4.4419106096e-02
 4.4537939131e-02
 4.4656950980e-02
 4.4776145369e-02
 4.4895518571e-02
 4.5015074313e-02
 4.5134808868e-02
 4.5254729688e-02
 4.5374829322e-02
 4.5495111495e-02
 4.5615576208e-02
 4.5736227185e-02
 4.5857056975e-02
 4.5978073031e-02
 4.6099271625e-02
 4.6220656484e-02
 4.6342223883e-02
 4.6463977545e-02
 4.6585913748e-02
 4.6708036214e-02
 4.6830344945e-02
 4.6952836215e-02
 4.7075517476e-02
 4.7198381275e-02
 4.7321435064e-02
 4.7444675118e-02
 4.7568101436e-02
 4.7691714019e-02
 4.7815516591e-02
 4.7939505428e-02
 4.8063684255e-02
 4.8188053071e-02
 4.8312608153e-02
 4.8437353224e-02
 4.8562284559e-02
 4.8687409610e-02
 4.8812724650e-02
 4.8938229680e-02
 4.9063924700e-02
 4.9189809710e-02
 4.9315884709e-02
 4.9442153424e-02
 4.9568615854e-02
 4.9695268273e-02
 4.9822110683e-02
 4.9949150532e-02
 5.0076380372e-02
 5.0203803927e-02
 5.0331417471e-02
 5.0459228456e-02
 5.0587233156e-02
 5.0715435296e-02
 5.0843827426e-02
 5.0972416997e-02
 5.1101200283e-02
 5.1230181009e-02
 5.1359355450e-02
 5.1488727331e-02
 5.1618296653e-02
 5.1748063415e-02
 5.1878023893e-02
 5.2008185536e-02
 5.2138540894e-02
 5.2269097418e-02
 5.2399851382e-02
 5.2530802786e-02
 5.2661951631e-02
 5.2793301642e-02
 5.2924852818e-02
 5.3056601435e-02
 5.3188551217e-02
 5.3320702165e-02
 5.3453050554e-02
 5.3585603833e-02
 5.3718358278e-02
 5.3851310164e-02
 5.3984466940e-02
 5.4117824882e-02
 5.4251387715e-02
 5.4385151714e-02
 5.4519120604e-02
 5.4653290659e-02
 5.4787665606e-02
 5.4922241718e-02
 5.5057026446e-02
 5.5192012340e-02
 5.5327206850e-02
 5.5462602526e-02
 5.5598206818e-02
 5.5734016001e-02
 5.5870033801e-02
 5.6006256491e-02
 5.6142684072e-02
 5.6279320270e-02
 5.6416165084e-02
 5.6553214788e-02
 5.6690476835e-02
 5.6827943772e-02
 5.6965623051e-02
 5.7103507221e-02
 5.7241603732e-02
 5.7379908860e-02
 5.7518422604e-02
 5.7657148689e-02
 5.7796087116e-02
 5.7935234159e-02
 5.8074593544e-02
 5.8214161545e-02
 5.8353945613e-02
 5.8493938297e-02
 5.8634147048e-02
 5.8774568141e-02
 5.8915201575e-02
 5.9056047350e-02
 5.9197109193e-02
 5.9338383377e-02
 5.9479873627e-02
 5.9621579945e-02
 5.9763498604e-02
 5.9905633330e-02
 6.0047984123e-02
 6.0190550983e-02
 6.0333337635e-02
 6.0476336628e-02
 6.0619555414e-02
 6.0762990266e-02
 6.0906644911e-02
 6.1050515622e-02
 6.1194606125e-02
 6.1338916421e-02
 6.1483442783e-02
 6.1628188938e-02
 6.1773158610e-02
 6.1918344349e-02
 6.2063753605e-02
 6.2209382653e-02
 6.2355231494e-02
 6.2501303852e-02
 6.2647596002e-02
 6.2794111669e-02
 6.2940850854e-02
 6.3087813556e-02
 6.3234992325e-02
 6.3382402062e-02
 6.3530035317e-02
 6.3677892089e-02
 6.3825972378e-02
 6.3974276185e-02
 6.4122803509e-02
 6.4271561801e-02
 6.4420543611e-02
 6.4569748938e-02
 6.4719185233e-02
 6.4868845046e-02
 6.5018735826e-02
 6.5168857574e-02
 6.5319195390e-02
 6.5469771624e-02
 6.5620571375e-02
 6.5771602094e-02
 6.5922863781e-02
 6.6074356437e-02
 6.6226072609e-02
 6.6378027201e-02
 6.6530205309e-02
 6.6682614386e-02
 6.6835261881e-02
 6.6988132894e-02
 6.7141242325e-02
 6.7294582725e-02
 6.7448154092e-02
 6.7601963878e-02
 6.7756004632e-02
 6.7910276353e-02
 6.8064786494e-02
 6.8219527602e-02
 6.8374507129e-02
 6.8529717624e-02
 6.8685166538e-02
 6.8840853870e-02
 6.8996772170e-02
 6.9152928889e-02
 6.9309324026e-02
 6.9465957582e-02
 6.9622829556e-02
 6.9779939950e-02
 6.9937288761e-02
 7.0094875991e-02
 7.0252701640e-02
 7.0410765707e-02
 7.0569068193e-02
 7.0727616549e-02
 7.0886403322e-02
 7.1045428514e-02
 7.1204699576e-02
 7.1364209056e-02
 7.1523964405e-02
 7.1683958173e-02
 7.1844197810e-02
 7.2004683316e-02
 7.2165407240e-02
 7.2326377034e-02
 7.2487592697e-02
 7.2649054229e-02
 7.2810761631e-02
 7.2972707450e-02
 7.3134906590e-02
 7.3297351599e-02
 7.3460035026e-02
 7.3622971773e-02
 7.3786161840e-02
 7.3949590325e-02
 7.4113272130e-02
 7.4277199805e-02
 7.4441380799e-02
 7.4605807662e-02
 7.4770480394e-02
 7.4935406446e-02
 7.5100585818e-02
 7.5266011059e-02
 7.5431689620e-02
 7.5597621500e-02
 7.5763806701e-02
 7.5930245221e-02
 7.6096929610e-02
 7.6263867319e-02
 7.6431065798e-02
 7.6598517597e-02
 7.6766215265e-02
 7.6934173703e-02
 7.7102385461e-02
 7.7270857990e-02
 7.7439583838e-02
 7.7608563006e-02
 7.7777795494e-02
 7.7947288752e-02
 7.8117042780e-02
 7.8287050128e-02
 7.8457318246e-02
 7.8627847135e-02
 7.8798629344e-02
 7.8969672322e-02
 7.9140976071e-02
 7.9312540591e-02
 7.9484365880e-02
 7.9656451941e-02
 7.9828798771e-02
 8.0001413822e-02
 8.0174282193e-02
 8.0347418785e-02
 8.0520808697e-02
 8.0694474280e-02
 8.0868393183e-02
 8.1042580307e-02
 8.1217035651e-02
 8.1391751766e-02
 8.1566736102e-02
 8.1741981208e-02
 8.1917501986e-02
 8.2093276083e-02
 8.2269325852e-02
 8.2445643842e-02
 8.2622222602e-02
 8.2799077034e-02
 8.2976199687e-02
 8.3153583109e-02
 8.3331242204e-02
 8.3509169519e-02
 8.3687372506e-02
 8.3865843713e-02
 8.4044583142e-02
 8.4223590791e-02
 8.4402874112e-02
 8.4582433105e-02
 8.4762260318e-02
 8.4942363203e-02
 8.5122734308e-02
 8.5303381085e-02
 8.5484310985e-02
 8.5665509105e-02
 8.5846975446e-02
 8.6028724909e-02
 8.6210750043e-02
 8.6393050849e-02
 8.6575634778e-02
 8.6758486927e-02
 8.6941622198e-02
 8.7125033140e-02
 8.7308719754e-02
 8.7492689490e-02
 8.7676942348e-02
 8.7861463428e-02
 8.8046275079e-02
 8.8231362402e-02
 8.8416732848e-02
 8.8602386415e-02
 8.8788323104e-02
 8.8974535465e-02
 8.9161030948e-02
 8.9347817004e-02
 8.9534878731e-02
 8.9722231030e-02
 8.9909866452e-02
 9.0097784996e-02
 9.0285986662e-02
 9.0474478900e-02
 9.0663254261e-02
 9.0852320194e-02
 9.1041669250e-02
 9.1231308877e-02
 9.1421231627e-02
 9.1611452401e-02
 9.1801956296e-02
 9.1992743313e-02
 9.2183828354e-02
 9.2375203967e-02
 9.2566862702e-02
 9.2758819461e-02
 9.2951066792e-02
 9.3143604696e-02
 9.3336433172e-02
 9.3529559672e-02
 9.3722969294e-02
 9.3916684389e-02
 9.4110690057e-02
 9.4304986298e-02
 9.4499580562e-02
