luts/SKA_Rec709.cube
LUT_3D_SIZE 33
0 0 0
0.015351 0.011468 0.010366
0.02062 0.015511 0.014034
0.024985 0.018933 0.016574
0.030662 0.0224 0.019135
0.039387 0.026286 0.022337
0.051411 0.030521 0.025305
0.067262 0.03515 0.026797
0.086216 0.040414 0.026401
0.110583 0.045489 0.022706
0.139079 0.050806 0.012676
0.17406 0.054946 0
0.21254 0.057387 0
0.254972 0.05415 0
0.299002 0.039692 0
0.339921 0 0
0.375408 0 0
0.410397 0 0
0.44681 0 0
0.482746 0 0
0.516387 0 0
0.541341 0 0
0.558914 0 0
0.568376 0 0
0.574384 0 0
0.578068 0 0
0.581098 0 0
0.583928 0 0
0.586577 0 0
0.587494 0 0
0.587908 0 0
0.58822 0 0
0.586115 0 0
0.015925 0.012913 0.011579
0.019382 0.013985 0.013916
0.022192 0.017099 0.015458
0.025601 0.020198 0.017274
0.030405 0.023355 0.019694
0.038197 0.026643 0.02277
0.049471 0.030436 0.025649
0.065168 0.034851 0.026999
0.084168 0.040037 0.026538
0.107889 0.045133 0.023159
0.13565 0.05027 0.014644
0.169531 0.054532 0
0.207427 0.057376 0
0.249612 0.054962 0
0.293455 0.042882 0
0.335326 0 0
0.371259 0 0
0.406159 0 0
0.442282 0 0
0.478414 0 0
0.512303 0 0
0.538679 0 0
0.557348 0 0
0.567372 0 0
0.573849 0 0
0.577798 0 0
0.580966 0 0
0.583836 0 0
0.586119 0 0
0.586803 0 0
0.586995 0 0
0.587225 0 0
0.586766 0 0
0.020506 0.017869 0.016074
0.022209 0.018015 0.016884
0.024431 0.019737 0.017481
0.027475 0.022659 0.019079
0.03195 0.025549 0.021546
0.039354 0.028418 0.024671
0.050081 0.031612 0.027235
0.065376 0.035726 0.027978
0.08454 0.040912 0.026843
0.108431 0.046217 0.022896
0.135898 0.051657 0.014
0.168046 0.056278 0
0.203543 0.059385 0
0.244646 0.057417 0
0.288542 0.047109 0
0.331385 0.00973 0
0.366965 0 0
0.401964 0 0
0.437782 0 0
0.474095 0 0
0.508232 0 0
0.535641 0 0
0.555655 0 0
0.566353 0 0
0.573297 0 0
0.577524 0 0
0.580847 0 0
0.583793 0 0
0.58594 0 0
0.586697 0 0
0.587049 0 0
0.588487 0 0
0.589528 0 0
0.024051 0.022863 0.020722
0.025481 0.02253 0.020504
0.027309 0.023991 0.021076
0.030014 0.026499 0.022515
0.03452 0.028893 0.024604
0.042464 0.031363 0.026935
0.053332 0.034238 0.028751
0.068151 0.038157 0.029168
0.086083 0.042991 0.028094
0.109215 0.048279 0.024486
0.136398 0.053632 0.016746
0.16857 0.058113 0
0.204236 0.060957 0
0.245126 0.059249 0
0.289357 0.050026 0
0.334569 0.013358 0
0.373628 0 0
0.409214 0 0
0.443064 0 0
0.475667 0 0
0.505745 0 0
0.531688 0 0
0.551886 0 0
0.564593 0 0
0.572673 0 0
0.57732 0 0
0.580812 0 0
0.584028 0 0
0.586238 0 0
0.587321 0 0
0.588826 0 0
0.593907 0 0
0.599671 0 0
0.027466 0.029716 0.02658
0.028866 0.02879 0.025692
0.030459 0.029731 0.026113
0.032494 0.031945 0.027373
0.036716 0.033817 0.02863
0.045211 0.035932 0.029693
0.05609 0.038488 0.030518
0.070328 0.042142 0.030653
0.087324 0.046804 0.029785
0.109348 0.051856 0.026805
0.136094 0.057173 0.020252
0.169114 0.061489 0.002145
0.20669 0.063889 0
0.249443 0.061444 0
0.294922 0.051446 0
0.340027 0.013685 0
0.378094 0 0
0.412997 0 0
0.447139 0 0
0.480334 0 0
0.509971 0 0
0.534615 0 0
0.554142 0 0
0.566913 0 0
0.575235 0 0
0.580041 0 0
0.583761 0 0
0.585948 0 0
0.587201 0 0
0.589849 0 0
0.593844 0 0
0.603356 0 0
0.615988 0 0
0.029129 0.039384 0.032945
0.030634 0.037781 0.031746
0.032256 0.037967 0.031732
0.033682 0.039955 0.032746
0.037923 0.041578 0.033147
0.046573 0.043112 0.033101
0.057721 0.045158 0.033041
0.071792 0.048484 0.03279
0.088439 0.052761 0.031888
0.109956 0.057675 0.029155
0.136335 0.062867 0.023203
0.170094 0.067287 0.006208
0.209565 0.069889 0
0.25467 0.067631 0
0.302229 0.057646 0
0.348653 0.019112 0
0.386677 0 0
0.420688 0 0
0.453928 0 0
0.487907 0 0
0.520191 0 0
0.546171 0 0
0.56508 0 0
0.575796 0 0
0.582493 0 0
0.586234 0 0
0.588241 0 0
0.590273 0 0
0.594335 0 0
0.600972 0 0
0.608132 0 0
0.620043 0 0
0.634127 0 0
0.025765 0.051624 0.038625
0.028506 0.049447 0.037516
0.030796 0.04883 0.037177
0.032231 0.050249 0.037798
0.037152 0.051262 0.037596
0.046637 0.052213 0.036854
0.058477 0.053691 0.036128
0.072964 0.056535 0.035452
0.089867 0.060446 0.034346
0.111469 0.065292 0.031512
0.138031 0.070467 0.025524
0.172155 0.075153 0.007813
0.212626 0.078099 0
0.259612 0.076408 0
0.309111 0.067728 0
0.358294 0.026479 0
0.398337 0 0
0.432831 0 0
0.465887 0 0
0.500309 0 0
0.533166 0 0
0.559211 0 0
0.576278 0 0
0.585399 0 0
0.591471 0 0
0.594666 0 0
0.597089 0 0
0.601853 0 0
0.609568 0 0
0.618074 0 0
0.626089 0 0
0.637222 0 0
0.651502 0 0
0.006506 0.066635 0.042643
0.00993 0.064543 0.042118
0.012526 0.063447 0.041874
0.018176 0.063836 0.041929
0.031031 0.06386 0.04142
0.043889 0.064169 0.040572
0.057852 0.065255 0.039691
0.073696 0.067808 0.038681
0.091626 0.07143 0.037165
0.113928 0.076085 0.033848
0.141133 0.081035 0.027341
0.175677 0.085429 0.0086
0.216328 0.088518 0
0.264325 0.087725 0
0.315375 0.081023 0
0.36669 0.058276 0
0.41235 0 0
0.448639 0 0
0.483412 0 0
0.517487 0 0
0.54983 0 0
0.574596 0 0
0.590488 0 0
0.599153 0 0
0.605721 0 0
0.610504 0 0
0.615182 0 0
0.621696 0 0
0.629381 0 0
0.636498 0 0
0.643784 0 0
0.654502 0 0
0.670276 0 0
0 0.083202 0.045138
0 0.081176 0.045039
0 0.079999 0.045151
0 0.079154 0.04476
0 0.07883 0.044549
0.03606 0.078682 0.044012
0.054929 0.07959 0.043388
0.07342 0.082011 0.042259
0.093273 0.085355 0.040324
0.116587 0.089497 0.036247
0.144726 0.093952 0.028732
0.179749 0.098058 0.00887
0.220748 0.100941 0
0.269238 0.10081 0
0.321564 0.095966 0
0.374949 0.080135 0
0.42548 0.046209 0
0.466303 0 0
0.502919 0 0
0.53734 0 0
0.567988 0 0
0.591288 0 0
0.606642 0 0
0.615426 0 0
0.622598 0 0
0.629038 0 0
0.635252 0 0
0.641901 0 0
0.648728 0 0
0.655019 0 0
0.662257 0 0
0.673789 0 0
0.690982 0 0
0 0.103888 0.046999
0 0.101463 0.047024
0 0.100208 0.047638
0 0.097932 0.046509
0 0.096216 0.045957
0.008086 0.096854 0.046647
0.043366 0.098484 0.047
0.069122 0.100975 0.045877
0.092888 0.104255 0.043296
0.118398 0.108072 0.038101
0.147868 0.112054 0.028885
0.18379 0.115608 0.007007
0.225634 0.118219 0
0.274918 0.118174 0
0.328468 0.11454 0
0.383961 0.103037 0
0.436838 0.082425 0
0.484698 0.036191 0
0.524521 0 0
0.55892 0 0
0.589527 0 0
0.611112 0 0
0.625771 0 0
0.634894 0 0
0.642401 0 0
0.649466 0 0
0.656308 0 0
0.663038 0 0
0.669728 0 0
0.675953 0 0
0.683652 0 0
0.696369 0 0
0.715828 0 0
0 0.12674 0.048305
0 0.123953 0.048375
0 0.12255 0.049967
0 0.119653 0.048074
0 0.117139 0.047111
0 0.117366 0.048207
0 0.120761 0.049543
0.056476 0.124137 0.048463
0.088272 0.127683 0.045063
0.117819 0.131184 0.038303
0.149789 0.134759 0.026246
0.187033 0.13814 0
0.230562 0.140852 0
0.281405 0.141478 0
0.336823 0.138924 0
0.394532 0.130785 0
0.449697 0.117033 0
0.500223 0.094096 0
0.546763 0.055289 0
0.583238 0 0
0.613224 0 0
0.634822 0 0
0.649277 0 0
0.658267 0 0
0.66582 0 0
0.672823 0 0
0.679586 0 0
0.686264 0 0
0.693152 0 0
0.699675 0 0
0.708342 0 0
0.723103 0 0
0.742984 0.066042 0
0 0.152869 0.0482
0 0.149497 0.048274
0 0.146928 0.051534
0 0.144351 0.048957
0 0.142626 0.04724
0 0.143067 0.048161
0 0.146244 0.049333
0.013116 0.151888 0.04838
0.070735 0.156787 0.043851
0.110465 0.160674 0.033402
0.147933 0.164341 0.009497
0.188462 0.167879 0
0.234626 0.171173 0
0.288345 0.172842 0
0.346851 0.171834 0
0.407271 0.166014 0
0.464913 0.156526 0
0.516906 0.142158 0
0.563728 0.123098 0
0.604745 0.092171 0
0.639165 0.044921 0
0.663288 0.014453 0
0.678494 0 0
0.68703 0 0
0.694007 0 0
0.700323 0 0
0.706753 0 0
0.713729 0 0
0.721414 0 0
0.728502 0.014826 0
0.736898 0.04407 0
0.749088 0.08679 0
0.763335 0.152678 0
0 0.181208 0.047083
0 0.177451 0.047453
0 0.173304 0.05102
0 0.17124 0.04844
0 0.170818 0.045424
0 0.1723 0.045652
0 0.175627 0.046431
0 0.181357 0.044593
0 0.189181 0.038088
0.092734 0.194374 0.013831
0.140725 0.199052 0
0.18704 0.203477 0
0.23764 0.208009 0
0.295259 0.211419 0
0.35801 0.212515 0
0.421977 0.209428 0
0.482316 0.202946 0
0.535689 0.193288 0
0.583147 0.180808 0
0.623866 0.164304 0
0.659254 0.14371 0
0.687087 0.118148 0
0.707779 0.0902 0
0.719068 0.068718 0
0.726685 0.053593 0
0.732162 0.052867 0
0.737102 0.064447 0
0.742049 0.084151 0
0.747284 0.104849 0
0.752787 0.122721 0
0.760251 0.145492 0
0.771593 0.176646 0
0.787556 0.217705 0
0 0.212525 0.040755
0 0.208531 0.042
0 0.203978 0.045154
0 0.202127 0.042718
0 0.20273 0.037458
0 0.204661 0.035923
0 0.208322 0.035383
0 0.214298 0.029246
0 0.222198 0.013191
0.042562 0.231539 0
0.122776 0.238546 0
0.180065 0.245138 0
0.23812 0.251706 0
0.301582 0.257351 0
0.369383 0.260953 0
0.437487 0.260646 0
0.501114 0.25728 0
0.555977 0.250495 0
0.604718 0.24143 0
0.646114 0.228943 0
0.681481 0.213452 0
0.709601 0.195172 0
0.730501 0.176823 0
0.743125 0.164419 0
0.751102 0.156829 0
0.756255 0.155519 0
0.760683 0.159191 0
0.765496 0.168829 0
0.771038 0.181582 0
0.777375 0.194946 0
0.786146 0.213635 0
0.798711 0.241408 0
0.815561 0.280403 0
0 0.245065 0.019617
0 0.240987 0.024921
0 0.236998 0.028979
0 0.23586 0.023316
0 0.236908 0
0 0.238723 0
0 0.242133 0
0 0.248906 0
0 0.257198 0
0 0.268879 0
0.088022 0.280423 0
0.167214 0.289511 0
0.235823 0.29869 0
0.306432 0.306832 0
0.379923 0.313089 0
0.452199 0.315874 0
0.519277 0.315811 0
0.576059 0.312142 0
0.626688 0.305863 0
0.669369 0.296426 0
0.705884 0.284322 0
0.735188 0.269168 0
0.757249 0.253028 0
0.771208 0.240587 0
0.779666 0.232491 0
0.78473 0.230093 0
0.788888 0.232237 0
0.793704 0.239899 0
0.799508 0.250759 0
0.806177 0.262577 0
0.81541 0.279532 0
0.828215 0.305835 0
0.845415 0.344138 0
0 0.276655 0
0 0.272836 0
0 0.269517 0
0 0.270589 0
0 0.271839 0
0 0.273566 0
0 0.277002 0
0 0.284685 0
0 0.29485 0
0 0.307622 0
0 0.3231 0
0.142687 0.335634 0
0.229763 0.347152 0
0.308762 0.35787 0
0.387846 0.366869 0
0.463844 0.372668 0
0.534373 0.375733 0
0.593403 0.375008 0
0.646507 0.371894 0
0.691382 0.365437 0
0.730837 0.355987 0
0.763357 0.342804 0
0.787926 0.327846 0
0.803395 0.315466 0
0.812324 0.306672 0
0.817386 0.303357 0
0.821372 0.304532 0
0.825948 0.31106 0
0.831597 0.320763 0
0.837931 0.331043 0
0.846806 0.34638 0
0.859048 0.371233 0
0.874915 0.407374 0
0 0.305284 0
0 0.302255 0
0 0.298832 0
0 0.303098 0
0 0.305004 0
0 0.307396 0
0 0.311817 0
0 0.320613 0
0 0.333222 0
0 0.347689 0
0 0.364614 0
0.076319 0.381865 0
0.219814 0.395221 0
0.308137 0.408215 0
0.392742 0.419834 0
0.472154 0.42848 0
0.545445 0.434343 0
0.607373 0.436395 0
0.663302 0.43614 0
0.711592 0.43239 0
0.755596 0.42537 0
0.792128 0.413929 0
0.820104 0.400696 0
0.836952 0.389197 0
0.846227 0.380607 0
0.851155 0.376813 0
0.854901 0.37718 0
0.859188 0.382614 0
0.864365 0.390934 0
0.869981 0.399662 0
0.877821 0.413071 0
0.888501 0.435857 0
0.901841 0.469103 0
0 0.327281 0
0 0.324923 0
0 0.322476 0
0 0.328713 0
0 0.33193 0
0 0.336991 0
0 0.344603 0
0 0.356246 0
0 0.371002 0
0 0.38764 0
0 0.405767 0
0.05091 0.426235 0
0.201408 0.442477 0
0.301977 0.45713 0
0.392524 0.470965 0
0.475428 0.482191 0
0.551713 0.490454 0
0.616852 0.494626 0
0.676304 0.496191 0
0.729376 0.493676 0
0.778367 0.488371 0
0.818673 0.479334 0
0.849895 0.468136 0
0.868349 0.457804 0
0.877692 0.449897 0
0.882238 0.446202 0
0.885713 0.446227 0
0.889519 0.450847 0
0.893994 0.458113 0
0.898849 0.46586 0
0.905617 0.477836 0
0.914724 0.498279 0
0.925986 0.527623 0
0 0.345261 0
0 0.343375 0
0 0.341494 0
0 0.348204 0
0 0.353551 0
0 0.362454 0
0 0.374123 0
0 0.388773 0
0 0.405909 0
0 0.424681 0
0 0.443922 0
0 0.467087 0
0.169784 0.487475 0
0.289253 0.50445 0
0.387548 0.52096 0
0.474898 0.534961 0
0.554504 0.545741 0
0.623377 0.552052 0
0.686831 0.554929 0
0.745177 0.553543 0
0.799581 0.549183 0
0.843828 0.541167 0
0.877945 0.531309 0
0.896627 0.521802 0
0.905885 0.514416 0
0.90988 0.510927 0
0.913067 0.510772 0
0.916464 0.514772 0
0.920395 0.52124 0
0.92479 0.528399 0
0.930879 0.539326 0
0.9385 0.557049 0
0.947477 0.581466 0
0 0.358039 0
0 0.356669 0
0 0.355303 0
0 0.360261 0
0 0.368605 0
0 0.381255 0
0 0.396139 0
0 0.411924 0
0 0.429399 0
0 0.449423 0
0 0.470643 0
0 0.496088 0
0.100532 0.522886 0
0.266101 0.54378 0
0.375326 0.563642 0
0.468159 0.581239 0
0.551479 0.59593 0
0.625056 0.605489 0
0.693671 0.610315 0
0.757794 0.609696 0
0.817713 0.605449 0
0.866375 0.597044 0
0.902668 0.587022 0
0.921414 0.578108 0
0.930096 0.571425 0
0.933963 0.568406 0
0.936902 0.568329 0
0.939679 0.571833 0
0.94304 0.577544 0
0.947099 0.584283 0
0.952599 0.594601 0
0.959155 0.610086 0
0.966369 0.630172 0
0 0.367933 0
0 0.366852 0
0 0.365774 0
0 0.369139 0
0 0.379986 0
0 0.395383 0
0 0.411204 0
0 0.425946 0
0 0.442262 0
0 0.46213 0
0 0.484631 0
0 0.512097 0
0 0.543554 0
0.237976 0.569611 0
0.358505 0.594243 0
0.455812 0.616359 0
0.543105 0.635414 0
0.622085 0.648842 0
0.696078 0.656982 0
0.766485 0.659185 0
0.831977 0.656456 0
0.885973 0.648916 0
0.924795 0.639112 0
0.943784 0.630357 0
0.952055 0.624144 0
0.955591 0.621414 0
0.958102 0.621459 0
0.96031 0.624399 0
0.963063 0.629133 0
0.966649 0.635073 0
0.971561 0.644246 0
0.977224 0.657406 0
0.983137 0.673379 0
0 0.376297 0
0 0.375322 0
0 0.374331 0
0 0.376553 0
0 0.389121 0
0 0.405365 0
0 0.419923 0
0 0.434943 0
0 0.452046 0
0 0.471331 0
0 0.492694 0
0 0.519426 0
0 0.55138 0
0.212977 0.580614 0
0.341805 0.607657 0
0.441205 0.633713 0
0.530879 0.656479 0
0.613765 0.673986 0
0.692089 0.686648 0
0.768265 0.694317 0
0.839765 0.696799 0
0.898501 0.69235 0
0.94151 0.684305 0
0.961781 0.676118 0
0.970418 0.670557 0
0.974469 0.668974 0
0.976923 0.669708 0
0.978765 0.672108 0
0.981044 0.675562 0
0.984076 0.679937 0
0.988118 0.686892 0
0.992558 0.697363 0
0.996206 0.710404 0
0 0.384466 0
0 0.38349 0
0 0.382519 0
0 0.384388 0
0 0.398099 0
0 0.414114 0
0 0.42841 0
0 0.445872 0
0 0.465257 0
0 0.484626 0
0 0.504778 0
0 0.529728 0
0 0.559897 0
0.199616 0.589121 0
0.332262 0.61654 0
0.432097 0.643447 0
0.521883 0.667827 0
0.606158 0.687487 0
0.686128 0.703168 0
0.764789 0.715073 0
0.840363 0.723455 0
0.904144 0.725248 0
0.951551 0.721859 0
0.97534 0.715893 0
0.985812 0.711591 0
0.990484 0.710595 0
0.993213 0.711297 0
0.995003 0.713069 0
0.996948 0.715257 0
0.997869 0.718346 0
0.999102 0.723692 0
1 0.731851 0
1 0.741441 0
0 0.392285 0
0 0.391773 0
0 0.391213 0
0 0.393678 0
0 0.408454 0
0 0.423508 0
0 0.440094 0
0 0.460201 0
0 0.479927 0
0 0.49841 0
0 0.517709 0
0 0.542558 0
0 0.571694 0
0.214745 0.598728 0
0.338683 0.625381 0
0.436706 0.651928 0
0.525809 0.67635 0
0.609368 0.696391 0
0.687808 0.712783 0
0.763479 0.725917 0
0.837054 0.736506 0
0.901968 0.74298 0
0.95284 0.745197 0
0.981118 0.743133 0
0.995076 0.740863 0
0.998512 0.741512 0
0.999418 0.743151 0
0.999828 0.745049 0
1 0.746694 0
1 0.747818 0
1 0.749896 0
1 0.754093 0
1 0.760412 0
0 0.399343 0
0 0.399741 0
0 0.400073 0
0 0.403565 0
0 0.418366 0
0 0.434286 0
0 0.454303 0
0 0.474539 0
0 0.492442 0
0 0.509378 0
0 0.528424 0
0 0.553183 0
0 0.581655 0
0.23817 0.606228 0
0.350753 0.631939 0
0.445752 0.65773 0
0.533657 0.681892 0
0.617293 0.70228 0
0.694742 0.719605 0
0.766647 0.733498 0
0.83554 0.74514 0
0.897623 0.753376 0
0.949007 0.758591 0
0.9813 0.760081 0
0.997863 0.760514 0
1 0.762242 0
1 0.763292 0
1 0.764832 0
1 0.766175 0
1 0.766766 0
1 0.767455 0
1 0.769623 0
1 0.774275 0
0 0.405431 0
0 0.407361 0
0 0.409243 0
0 0.413338 0
0 0.427865 0
0 0.447854 0
0 0.46905 0
0 0.487166 0
0 0.503446 0
0 0.519721 0
0 0.539085 0
0 0.5631 0
0.108039 0.589128 0
0.261171 0.612045 0
0.36499 0.636566 0
0.456966 0.661408 0
0.543871 0.68507 0
0.626967 0.705163 0
0.702816 0.722603 0
0.771238 0.737021 0
0.835119 0.749397 0
0.892968 0.758864 0
0.94224 0.765524 0
0.977127 0.768926 0
0.997826 0.771186 0
1 0.773658 0
1 0.77492 0
1 0.77671 0
1 0.778264 0
1 0.778776 0
1 0.778713 0
1 0.77951 0
1 0.783062 0
0 0.410706 0
0 0.414565 0
0 0.418326 0
0 0.42292 0
0 0.439295 0
0 0.462374 0
0 0.482057 0
0 0.49864 0
0 0.514227 0
0 0.530869 0
0 0.550747 0
0 0.574024 0
0.167672 0.596734 0
0.286141 0.618552 0
0.382304 0.641871 0
0.471552 0.665733 0
0.55793 0.688526 0
0.639438 0.707931 0
0.712135 0.724675 0
0.776339 0.738865 0
0.834678 0.751128 0
0.887674 0.761212 0
0.934755 0.769131 0
0.971546 0.774192 0
0.99718 0.777462 0
1 0.78122 0
1 0.782666 0
1 0.78463 0
1 0.78628 0
1 0.786686 0
1 0.786097 0
1 0.785928 0
1 0.788471 0
0 0.414934 0
0 0.421621 0
0 0.428199 0
0 0.434628 0
0 0.453512 0
0 0.475645 0
0 0.493325 0
0 0.50929 0
0 0.524915 0
