luts/SKA_Rec709.cube
LUT_3D_SIZE 9
0 0 0
0.030662 0.0224 0.019135
0.086216 0.040414 0.026401
0.21254 0.057387 0
0.375408 0 0
0.516387 0 0
0.574384 0 0
0.586577 0 0
0.586115 0 0
0.027466 0.029716 0.02658
0.036716 0.033817 0.02863
0.087324 0.046804 0.029785
0.20669 0.063889 0
0.378094 0 0
0.509971 0 0
0.575235 0 0
0.587201 0 0
0.615988 0 0
0 0.083202 0.045138
0 0.07883 0.044549
0.093273 0.085355 0.040324
0.220748 0.100941 0
0.42548 0.046209 0
0.567988 0 0
0.622598 0 0
0.648728 0 0
0.690982 0 0
0 0.181208 0.047083
0 0.170818 0.045424
0 0.189181 0.038088
0.23764 0.208009 0
0.482316 0.202946 0
0.659254 0.14371 0
0.726685 0.053593 0
0.747284 0.104849 0
0.787556 0.217705 0
0 0.305284 0
0 0.305004 0
0 0.333222 0
0.219814 0.395221 0
0.545445 0.434343 0
0.755596 0.42537 0
0.846227 0.380607 0
0.864365 0.390934 0
0.901841 0.469103 0
0 0.367933 0
0 0.379986 0
0 0.442262 0
0 0.543554 0
0.543105 0.635414 0
0.831977 0.656456 0
0.952055 0.624144 0
0.963063 0.629133 0
0.983137 0.673379 0
0 0.399343 0
0 0.418366 0
0 0.492442 0
0 0.581655 0
0.533657 0.681892 0
0.83554 0.74514 0
0.997863 0.760514 0
1 0.766175 0
1 0.774275 0
0 0.418481 0
0 0.467927 0
0 0.535724 0
0.250595 0.61416 0
0.597876 0.699345 0
0.837277 0.753541 0
0.995522 0.782722 0
1 0.789331 0
1 0.789549 0
0 0.421108 0
0 0.510632 0
0 0.579731 0
0.399889 0.652984 0
0.690999 0.724366 0
0.869376 0.76492 0
1 0.789733 0
1 0.790832 0
1 0.792661 0
0.01338 0.009655 0.012218
0.027393 0.020909 0.02344
0.076299 0.037227 0.034572
0.19473 0.056028 0
0.359542 0 0
0.501669 0 0
0.569824 0 0
0.584941 0 0
0.586963 0 0
0.026013 0.027349 0.031878
0.036331 0.034392 0.036925
0.089868 0.045759 0.036217
0.202601 0.061149 0
0.368555 0 0
0.496947 0 0
0.566485 0 0
0.585024 0 0
0.613833 0 0
0 0.075546 0.053735
0 0.081868 0.053533
0.096473 0.089445 0.047481
0.217096 0.097576 0
0.410256 0.041251 0
0.549356 0 0
0.612393 0 0
0.642123 0 0
0.693264 0 0
0 0.169599 0.05974
0 0.170563 0.054749
0 0.184765 0.048319
0.234901 0.205765 0
0.464368 0.190559 0
0.641499 0.121278 0
0.710963 0 0
0.741755 0.06265 0
0.792581 0.218102 0
0 0.295198 0
0 0.300699 0
0 0.320634 0
0.195379 0.384236 0
0.528107 0.420837 0
0.73546 0.404359 0
0.831779 0.355107 0
0.857381 0.371304 0
0.907545 0.473335 0
0 0.36499 0
0 0.370587 0
0 0.430403 0
0 0.527458 0
0.517028 0.620031 0
0.810054 0.643945 0
0.943983 0.608949 0
0.961499 0.61957 0
0.990421 0.681778 0
0 0.395016 0
0 0.402968 0
0 0.47866 0
0 0.566377 0
0.49862 0.672894 0
0.810698 0.739837 0
0.995623 0.756389 0
1 0.76467 0
1 0.77617 0
0 0.415599 0
0 0.449041 0
0 0.523308 0
0.18559 0.606868 0
0.564752 0.693166 0
0.82093 0.750883 0
0.988648 0.782144 0
1 0.790454 0
1 0.79086 0
0 0.42564 0.083329
0 0.509268 0
0 0.578927 0
0.357145 0.662661 0
0.673964 0.735818 0
0.846421 0.771407 0
0.999041 0.795757 0
1 0.797814 0
1 0.800331 0
0.025912 0.015736 0.047454
0.02948 0.020348 0.048446
0.065713 0.032063 0.061475
0.172437 0.052626 0.059583
0.341855 0 0
0.488893 0 0
0.569917 0 0
0.585641 0 0
0.591212 0 0
0.029763 0.026233 0.058276
0.034068 0.029014 0.062929
0.073501 0.037074 0.068304
0.17537 0.056695 0.056681
0.343868 0 0
0.483934 0 0
0.567541 0 0
0.586278 0 0
0.61022 0 0
0 0.070991 0.083124
0 0.075806 0.086468
0.084533 0.088717 0.09128
0.255611 0.103319 0.06852
0.433839 0 0
0.5603 0 0
0.60665 0 0
0.634952 0 0
0.695454 0 0
0 0.160033 0.097036
0 0.159248 0.091048
0 0.219137 0.091664
0.283321 0.252199 0.030824
0.504766 0.199358 0
0.658101 0.10488 0
0.70927 0 0
0.742889 0 0
0.796272 0.206367 0
0 0.284923 0.104176
0 0.285405 0.085003
0 0.346652 0
0.1949 0.42161 0
0.572688 0.464613 0
0.757356 0.415002 0
0.832931 0.349446 0
0.855643 0.357899 0
0.914706 0.479154 0
0 0.356441 0.113359
0 0.363895 0.078437
0 0.432351 0
0 0.53366 0
0.529278 0.637517 0
0.837393 0.663933 0
0.948595 0.615119 0
0.966565 0.626283 0
0.99352 0.67872 0
0 0.387634 0.106814
0 0.389801 0.083888
0 0.466741 0
0 0.559479 0
0.489159 0.674246 0
0.812304 0.742042 0
0.997277 0.759949 0
1 0.764285 0
1 0.776458 0
0 0.412727 0.117433
0 0.44585 0
0 0.516454 0
0 0.602737 0
0.53293 0.700338 0
0.798579 0.755075 0
0.984794 0.785104 0
1 0.789357 0
1 0.806772 0
0 0.436591 0.202746
0 0.521087 0.202109
0 0.587256 0.176587
0.306864 0.685622 0.12855
0.644301 0.755431 0
0.849815 0.794448 0
0.960406 0.813705 0
1 0.820722 0
1 0.822887 0
0.02675 0 0.145187
0.033516 0 0.133731
0.063143 0 0.135197
0.159923 0.035012 0.145364
0.328859 0 0.133649
0.472625 0 0.103307
0.577769 0 0
0.59538 0 0.046455
0.599075 0 0.127366
0.026106 0.004956 0.148332
0.030492 0 0.143513
0.063465 0 0.137864
0.159576 0.040397 0.144691
0.325237 0 0.124555
0.463817 0 0.088408
0.57344 0 0
0.594757 0 0
0.615372 0 0.128493
0 0.072158 0.172348
0 0.065555 0.168446
0.026898 0.078692 0.215696
0.2224 0.089723 0.212358
0.406561 0 0.14798
0.527006 0 0.077809
0.598187 0 0
0.626462 0 0
0.702927 0 0.155719
0 0.159859 0.193674
0 0.1585 0.188994
0 0.203719 0.237394
0.226717 0.231643 0.228362
0.540124 0.210546 0.185542
0.678961 0.118787 0.09277
0.715561 0 0
0.741542 0 0
0.805217 0.213615 0.176447
0 0.285729 0.204996
0 0.279354 0.19435
0 0.33485 0.204841
0.097878 0.469377 0.207729
0.606111 0.515654 0.089702
0.786948 0.452334 0
0.838757 0.357567 0
0.857916 0.355823 0
0.914375 0.496342 0.122652
0 0.376752 0.200799
0 0.368195 0.187447
0 0.427612 0.176044
0 0.56544 0.117904
0.568751 0.681995 0
0.854089 0.703093 0
0.95702 0.652904 0
0.969693 0.634541 0
0.986291 0.704067 0
0 0.414827 0.220763
0 0.406848 0.200532
0 0.464775 0.191215
0 0.567579 0.130304
0.471771 0.697209 0
0.808803 0.757368 0
0.995263 0.775456 0
1 0.765513 0
1 0.808562 0
0 0.450575 0.303396
0 0.471548 0.296815
0 0.533716 0.292236
0 0.62322 0.245989
0.483049 0.729213 0.141563
0.79415 0.781677 0
0.960745 0.803477 0
1 0.806778 0
1 0.84346 0.12549
0 0.477074 0.358277
0 0.556419 0.391347
0 0.625196 0.409953
0.205508 0.727664 0.417779
0.625807 0.796115 0.402411
0.837205 0.834914 0.375264
0.946354 0.851924 0.3477
1 0.858082 0.318237
1 0.86032 0.313149
0 0.000142 0.249815
0 0 0.2366
0.003584 0 0.233004
0.128603 0 0.272687
0.30835 0 0.264974
0.458264 0 0.236593
0.574249 0 0.215484
0.596255 0 0.216264
0.598796 0 0.258033
0 0.003553 0.25776
0 0.000746 0.24574
0.001284 0 0.232725
0.120642 0 0.26766
0.300131 0 0.26065
0.449345 0 0.226981
0.571521 0 0.203356
0.595946 0 0.207089
0.624926 0 0.281097
0 0.091295 0.291183
0 0.075017 0.285401
0 0.03838 0.318571
0.146487 0.012899 0.340518
0.367719 0 0.310611
0.504146 0 0.247256
0.591869 0 0.209606
0.627168 0 0.228625
0.710291 0 0.336067
0 0.157066 0.32845
0 0.152924 0.320312
0 0.166763 0.357519
0.16646 0.21468 0.436783
0.492581 0.186113 0.41742
0.665959 0.052802 0.361056
0.701222 0 0.291706
0.74055 0 0.294138
0.817186 0.229843 0.394648
0 0.298787 0.366796
0 0.289803 0.357757
0 0.336305 0.386165
0 0.461459 0.465935
0.524316 0.512847 0.457083
0.790475 0.476766 0.410534
0.862287 0.413106 0.361128
0.870755 0.392297 0.340956
0.91543 0.524226 0.429841
0 0.417344 0.375787
0 0.409971 0.362952
0 0.455513 0.357606
0 0.587829 0.431069
0.491478 0.738094 0.448087
0.841347 0.750882 0.394422
0.951064 0.728795 0.331392
0.965016 0.68651 0.31949
0.975336 0.74343 0.438376
0 0.458652 0.373108
0 0.450705 0.361176
0 0.484085 0.335687
0 0.594226 0.411851
0.439795 0.770912 0.462481
0.83163 0.831122 0.392036
0.973154 0.840479 0.285594
1 0.82568 0.265481
1 0.84955 0.446751
0 0.477646 0.389181
0 0.496268 0.385235
0 0.547199 0.408337
0 0.648522 0.475607
0.448659 0.779837 0.494174
0.79335 0.836806 0.451569
0.938381 0.85535 0.392445
1 0.85808 0.330162
1 0.87867 0.48621
0 0.502468 0.456355
0 0.573914 0.520446
0 0.650087 0.539035
0 0.752466 0.578564
0.61168 0.823343 0.577638
0.821474 0.861053 0.572005
0.939097 0.877189 0.553743
0.993602 0.884847 0.545461
1 0.886781 0.542053
0 0.030861 0.335299
0 0.019053 0.330894
0 0 0.315714
0.063483 0 0.339318
0.274571 0 0.380225
0.437362 0 0.395863
0.549443 0 0.390392
0.590177 0 0.38477
0.597353 0 0.40742
0 0.044747 0.340764
0 0.0182 0.335394
0 0.000365 0.31684
0.039404 0 0.330083
0.262167 0 0.371891
0.428701 0 0.387273
0.547064 0 0.375619
0.590642 0 0.372389
0.633707 0 0.420514
0 0.081257 0.371158
0 0.072126 0.368244
0 0.049968 0.385809
0.017073 0 0.392635
0.300268 0 0.419625
0.472233 0 0.41981
0.567823 0 0.389128
0.626228 0 0.384758
0.711794 0 0.487437
0 0.136748 0.417387
0 0.128456 0.408459
0 0.130906 0.432359
0 0.149387 0.53473
0.428411 0.09019 0.573082
0.624493 0 0.542653
0.681588 0 0.465499
0.728518 0 0.458221
0.826541 0.2199 0.576832
0 0.290786 0.478288
0 0.276105 0.466686
0 0.297522 0.499499
0 0.387417 0.591584
0.456603 0.478776 0.667414
0.755683 0.439114 0.654097
0.840483 0.3742 0.612841
0.865774 0.371803 0.559356
0.914664 0.535851 0.627047
0 0.429873 0.512375
0 0.422439 0.499564
0 0.466181 0.548506
0 0.579638 0.624806
0.37443 0.735609 0.687525
0.793089 0.759561 0.675376
0.916556 0.738587 0.632234
0.953493 0.718566 0.604961
0.966063 0.761568 0.654396
0 0.483237 0.5277
0 0.477955 0.505062
0 0.516775 0.559239
0 0.602033 0.61017
0.269677 0.789284 0.6865
0.776499 0.859984 0.665771
0.940467 0.871362 0.615827
0.99341 0.8622 0.585488
0.997274 0.872259 0.657756
0 0.50986 0.583902
0 0.52499 0.592532
0 0.559174 0.623662
0 0.653741 0.613718
0.318894 0.799142 0.696381
0.771943 0.871301 0.70621
0.931146 0.891425 0.674426
0.996305 0.895469 0.629733
1 0.903889 0.703465
0 0.519217 0.614097
0 0.585714 0.647359
0 0.665075 0.664753
0 0.766316 0.714199
0.58395 0.844766 0.738342
0.805986 0.883426 0.745444
0.926228 0.901215 0.745836
0.983402 0.909757 0.745578
1 0.912316 0.74458
0 0.054305 0.371871
0 0.035567 0.368816
0 0.008764 0.376541
0.002267 0 0.370306
0.263763 0 0.421185
0.425041 0 0.428733
0.553243 0 0.443491
0.592928 0 0.440655
0.609005 0 0.451706
0 0.056524 0.378888
0 0.027619 0.374352
0 0.015349 0.377858
0 0 0.362727
0.246374 0 0.419953
0.412309 0 0.427374
0.544912 0 0.442272
0.590216 0 0.442636
0.647442 0 0.485131
0 0.069271 0.406243
0 0.062458 0.401
0 0.061457 0.414601
0 0 0.420397
0.276322 0 0.459679
0.446921 0 0.459567
0.564476 0 0.455544
0.631296 0 0.472195
0.720334 0 0.55972
0 0.132597 0.457876
0 0.120958 0.450749
0 0.116662 0.469226
0 0.119393 0.52594
0.36849 0.066462 0.585131
0.565988 0 0.569286
0.673495 0 0.549166
0.721736 0 0.562173
0.835562 0.207267 0.658936
0 0.275776 0.535465
0 0.261987 0.527974
0 0.264783 0.537493
0 0.317394 0.577859
0.426981 0.448998 0.687137
0.713692 0.410841 0.693017
0.843738 0.315284 0.682631
0.865197 0.327396 0.682779
0.918779 0.532625 0.720676
0 0.423038 0.590561
0 0.415879 0.587524
0 0.438615 0.596128
0 0.518416 0.632149
0.300994 0.703177 0.732062
0.748341 0.736813 0.747926
0.899677 0.708266 0.747463
0.949574 0.699886 0.744955
0.965823 0.765366 0.753602
0 0.485389 0.608938
0 0.48383 0.607995
0 0.505413 0.614984
0 0.585083 0.651714
0 0.777069 0.739212
0.722565 0.861567 0.763666
0.919672 0.876973 0.766791
0.981853 0.868631 0.765473
0.992682 0.879049 0.768247
0 0.507024 0.615572
0 0.521614 0.620248
0 0.551808 0.63487
0 0.63793 0.674372
0.11942 0.793962 0.74524
0.735955 0.874853 0.766727
0.907812 0.901993 0.772097
0.984717 0.910749 0.772924
1 0.912809 0.775092
0 0.526194 0.621898
0 0.586772 0.652612
0 0.666215 0.688058
0 0.765597 0.7326
0.570782 0.84733 0.760236
0.799518 0.886841 0.769513
0.91942 0.905239 0.774662
0.979341 0.914014 0.777679
1 0.917867 0.779057
0 0.070708 0.404523
0 0.064781 0.40897
0 0.046302 0.439676
0.014175 0 0.441223
0.311145 0 0.47771
0.471959 0 0.484626
0.586797 0 0.485098
0.635066 0 0.48188
0.652095 0 0.492877
0 0.076297 0.411554
0 0.069407 0.415856
0 0.051779 0.440104
0.004444 0.00128 0.454366
0.307783 0 0.489714
0.470784 0 0.495039
0.591956 0 0.493822
0.642148 0 0.488489
0.679424 0 0.521667
0 0.100636 0.44987
0 0.095695 0.450599
0 0.080567 0.47458
0 0.05469 0.513165
0.336464 0 0.538439
0.503016 0 0.530301
0.625911 0 0.520692
0.664121 0 0.509041
0.751406 0 0.590318
0 0.165088 0.49449
0 0.154845 0.492186
0 0.1645 0.504674
0 0.182196 0.552304
0.386245 0.187327 0.614278
0.589938 0.130419 0.622252
0.719527 0 0.599001
0.744277 0 0.585608
0.847474 0.251697 0.671997
0 0.295036 0.55089
0 0.288791 0.549305
0 0.29773 0.551991
0 0.345187 0.594354
0.405426 0.453715 0.687239
0.667924 0.43648 0.696022
0.83857 0.368492 0.692062
0.866929 0.327934 0.687659
0.920866 0.539046 0.726046
0 0.425384 0.592597
0 0.423295 0.592412
0 0.465516 0.603953
0 0.530327 0.642421
0.296877 0.670373 0.726505
0.731871 0.732028 0.746874
0.881306 0.710372 0.748113
0.942357 0.673505 0.745384
0.963148 0.760491 0.757108
0 0.493062 0.611679
0 0.494134 0.612358
0 0.533181 0.624744
0 0.602814 0.660057
0 0.774853 0.740014
0.714914 0.857102 0.763064
0.906587 0.871388 0.768898
0.973842 0.8621 0.769678
0.991731 0.881484 0.772613
0 0.514712 0.61763
0 0.532113 0.624383
0 0.556546 0.637797
0 0.623538 0.66943
0 0.781864 0.740722
0.702863 0.869901 0.765553
0.89564 0.901397 0.773729
0.980195 0.912086 0.776951
0.999559 0.916001 0.778196
0 0.537982 0.627407
0 0.586474 0.652779
0 0.668763 0.689373
0 0.766067 0.732928
0.565834 0.847029 0.760075
0.796394 0.886865 0.769628
0.916594 0.905978 0.775083
0.979399 0.915707 0.778359
1 0.919428 0.77972
0 0.077528 0.41071
0 0.078418 0.430739
0 0.02638 0.463003
0.192802 0 0.516169
0.399031 0 0.530691
0.560192 0 0.53735
0.652923 0 0.539202
0.697694 0 0.544285
0.712788 0 0.554768
0 0.099174 0.446468
0 0.096043 0.472052
0 0.090998 0.492302
0.215052 0.092675 0.570783
0.440449 0 0.586336
0.60004 0 0.584005
0.703744 0 0.575722
0.733904 0 0.575251
0.74534 0 0.58459
0 0.13961 0.483092
0 0.143218 0.495867
0 0.158903 0.51324
0.220344 0.20501 0.604983
0.467478 0.209648 0.627724
0.655626 0.188751 0.639733
0.777636 0.098669 0.640928
0.813068 0.075525 0.64485
0.8228 0.141638 0.652204
0 0.224392 0.523631
0 0.243948 0.533126
0 0.267282 0.55113
0.194552 0.340606 0.647805
0.49251 0.365926 0.671203
0.698215 0.363171 0.682215
0.833231 0.32813 0.684183
0.865594 0.32431 0.686897
0.873577 0.348806 0.692108
0 0.34483 0.567541
0 0.370022 0.575877
0 0.405091 0.597479
0 0.520311 0.687703
0.498793 0.572738 0.714959
0.751508 0.58801 0.726446
0.869558 0.577279 0.728983
0.921712 0.566497 0.729778
0.929253 0.580927 0.732467
0 0.450996 0.599954
0 0.503041 0.614318
0 0.553744 0.641414
0 0.657233 0.707093
0.49262 0.747194 0.743044
0.781884 0.769482 0.753105
0.887485 0.776214 0.756653
0.946801 0.767071 0.757277
0.962925 0.770221 0.758292
0 0.499143 0.613289
0 0.541417 0.629363
0 0.593745 0.655948
0 0.721187 0.712404
0.484924 0.823659 0.754403
0.788952 0.865957 0.765496
0.914661 0.881222 0.770333
0.976111 0.883522 0.772372
0.992121 0.884406 0.773103
0 0.518376 0.618666
0 0.558955 0.639031
0 0.621812 0.668717
0 0.740523 0.720144
0.501904 0.835438 0.757285
0.792405 0.88454 0.769034
0.911019 0.903486 0.774374
0.976295 0.912094 0.777217
0.998083 0.91612 0.778497
0 0.542067 0.629652
0 0.589975 0.654282
0 0.673618 0.69154
0 0.767689 0.733749
0.563645 0.846639 0.759995
0.792647 0.886275 0.769524
0.914099 0.905787 0.775079
0.977208 0.915561 0.778424
1 0.919573 0.779916
