luts/SKA_Rec709.cube
LUT_3D_SIZE 5
0 0 0
0.086216 0.040414 0.026401
0.375408 0 0
0.574384 0 0
0.586115 0 0
0 0.083202 0.045138
0.093273 0.085355 0.040324
0.42548 0.046209 0
0.622598 0 0
0.690982 0 0
0 0.305284 0
0 0.333222 0
0.545445 0.434343 0
0.846227 0.380607 0
0.901841 0.469103 0
0 0.399343 0
0 0.492442 0
0.533657 0.681892 0
0.997863 0.760514 0
1 0.774275 0
0 0.421108 0
0 0.579731 0
0.690999 0.724366 0
1 0.789733 0
1 0.792661 0
0.025912 0.015736 0.047454
0.065713 0.032063 0.061475
0.341855 0 0
0.569917 0 0
0.591212 0 0
0 0.070991 0.083124
0.084533 0.088717 0.09128
0.433839 0 0
0.60665 0 0
0.695454 0 0
0 0.284923 0.104176
0 0.346652 0
0.572688 0.464613 0
0.832931 0.349446 0
0.914706 0.479154 0
0 0.387634 0.106814
0 0.466741 0
0.489159 0.674246 0
0.997277 0.759949 0
1 0.776458 0
0 0.436591 0.202746
0 0.587256 0.176587
0.644301 0.755431 0
0.960406 0.813705 0
1 0.822887 0
0 0.000142 0.249815
0.003584 0 0.233004
0.30835 0 0.264974
0.574249 0 0.215484
0.598796 0 0.258033
0 0.091295 0.291183
0 0.03838 0.318571
0.367719 0 0.310611
0.591869 0 0.209606
0.710291 0 0.336067
0 0.298787 0.366796
0 0.336305 0.386165
0.524316 0.512847 0.457083
0.862287 0.413106 0.361128
0.91543 0.524226 0.429841
0 0.458652 0.373108
0 0.484085 0.335687
0.439795 0.770912 0.462481
0.973154 0.840479 0.285594
1 0.84955 0.446751
0 0.502468 0.456355
0 0.650087 0.539035
0.61168 0.823343 0.577638
0.939097 0.877189 0.553743
1 0.886781 0.542053
0 0.054305 0.371871
0 0.008764 0.376541
0.263763 0 0.421185
0.553243 0 0.443491
0.609005 0 0.451706
0 0.069271 0.406243
0 0.061457 0.414601
0.276322 0 0.459679
0.564476 0 0.455544
0.720334 0 0.55972
0 0.275776 0.535465
0 0.264783 0.537493
0.426981 0.448998 0.687137
0.843738 0.315284 0.682631
0.918779 0.532625 0.720676
0 0.485389 0.608938
0 0.505413 0.614984
0 0.777069 0.739212
0.919672 0.876973 0.766791
0.992682 0.879049 0.768247
0 0.526194 0.621898
0 0.666215 0.688058
0.570782 0.84733 0.760236
0.91942 0.905239 0.774662
1 0.917867 0.779057
0 0.077528 0.41071
0 0.02638 0.463003
0.399031 0 0.530691
0.652923 0 0.539202
0.712788 0 0.554768
0 0.13961 0.483092
0 0.158903 0.51324
0.467478 0.209648 0.627724
0.777636 0.098669 0.640928
0.8228 0.141638 0.652204
0 0.34483 0.567541
0 0.405091 0.597479
0.498793 0.572738 0.714959
0.869558 0.577279 0.728983
0.929253 0.580927 0.732467
0 0.499143 0.613289
0 0.593745 0.655948
0.484924 0.823659 0.754403
0.914661 0.881222 0.770333
0.992121 0.884406 0.773103
0 0.542067 0.629652
0 0.673618 0.69154
0.563645 0.846639 0.759995
0.914099 0.905787 0.775079
1 0.919573 0.779916
