luts/V-Log_to_linear.spi1d
Version 1
From 0.0 1.0
Length 4096
Components 1
{
 -2.2321429104e-02
 -2.2277820855e-02
 -2.2234214470e-02
 -2.2190606222e-02
 -2.2146999836e-02
 -2.2103393450e-02
 -2.2059785202e-02
 -2.2016178817e-02
 -2.1972570568e-02
 -2.1928964183e-02
 -2.1885355935e-02
 -2.1841749549e-02
 -2.1798143163e-02
 -2.1754534915e-02
 -2.1710928530e-02
 -2.1667320281e-02
 -2.1623713896e-02
 -2.1580105647e-02
 -2.1536499262e-02
 -2.1492892876e-02
 -2.1449284628e-02
 -2.1405678242e-02
 -2.1362069994e-02
 -2.1318463609e-02
 -2.1274855360e-02
 -2.1231248975e-02
 -2.1187642589e-02
 -2.1144034341e-02
 -2.1100427955e-02
 -2.1056819707e-02
 -2.1013213322e-02
 -2.0969605073e-02
 -2.0925998688e-02
 -2.0882392302e-02
 -2.0838784054e-02
 -2.0795177668e-02
 -2.0751569420e-02
 -2.0707963035e-02
 -2.0664354786e-02
 -2.0620748401e-02
 -2.0577142015e-02
 -2.0533533767e-02
 -2.0489927381e-02
 -2.0446319133e-02
 -2.0402712747e-02
 -2.0359104499e-02
 -2.0315498114e-02
 -2.0271891728e-02
 -2.0228283480e-02
 -2.0184677094e-02
 -2.0141068846e-02
 -2.0097462460e-02
 -2.0053854212e-02
 -2.0010247827e-02
 -1.9966639578e-02
 -1.9923033193e-02
 -1.9879426807e-02
 -1.9835818559e-02
 -1.9792212173e-02
 -1.9748603925e-02
 -1.9704997540e-02
 -1.9661389291e-02
 -1.9617782906e-02
 -1.9574176520e-02
 -1.9530568272e-02
 -1.9486961886e-02
 -1.9443353638e-02
 -1.9399747252e-02
 -1.9356139004e-02
 -1.9312532619e-02
 -1.9268926233e-02
 -1.9225317985e-02
 -1.9181711599e-02
 -1.9138103351e-02
 -1.9094496965e-02
 -1.9050888717e-02
 -1.9007282332e-02
 -1.8963675946e-02
 -1.8920067698e-02
 -1.8876461312e-02
 -1.8832853064e-02
 -1.8789246678e-02
 -1.8745638430e-02
 -1.8702032045e-02
 -1.8658425659e-02
 -1.8614817411e-02
 -1.8571211025e-02
 -1.8527602777e-02
 -1.8483996391e-02
 -1.8440388143e-02
 -1.8396781757e-02
 -1.8353175372e-02
 -1.8309567124e-02
 -1.8265960738e-02
 -1.8222352490e-02
 -1.8178746104e-02
 -1.8135137856e-02
 -1.8091531470e-02
 -1.8047925085e-02
 -1.8004316837e-02
 -1.7960710451e-02
 -1.7917102203e-02
 -1.7873495817e-02
 -1.7829887569e-02
 -1.7786281183e-02
 -1.7742674798e-02
 -1.7699066550e-02
 -1.7655460164e-02
 -1.7611851916e-02
 -1.7568245530e-02
 -1.7524637282e-02
 -1.7481030896e-02
 -1.7437424511e-02
 -1.7393816262e-02
 -1.7350209877e-02
 -1.7306601629e-02
 -1.7262995243e-02
 -1.7219386995e-02
 -1.7175780609e-02
 -1.7132174224e-02
 -1.7088565975e-02
 -1.7044959590e-02
 -1.7001351342e-02
 -1.6957744956e-02
 -1.6914136708e-02
 -1.6870530322e-02
 -1.6826923937e-02
 -1.6783315688e-02
 -1.6739709303e-02
 -1.6696101055e-02
 -1.6652494669e-02
 -1.6608886421e-02
 -1.6565280035e-02
 -1.6521673650e-02
 -1.6478065401e-02
 -1.6434459016e-02
 -1.6390850767e-02
 -1.6347244382e-02
 -1.6303636134e-02
 -1.6260029748e-02
 -1.6216423362e-02
 -1.6172815114e-02
 -1.6129208729e-02
 -1.6085600480e-02
 -1.6041994095e-02
 -1.5998385847e-02
 -1.5954779461e-02
 -1.5911173075e-02
 -1.5867564827e-02
 -1.5823958442e-02
 -1.5780350193e-02
 -1.5736743808e-02
 -1.5693135560e-02
 -1.5649529174e-02
 -1.5605921857e-02
 -1.5562314540e-02
 -1.5518707223e-02
 -1.5475099906e-02
 -1.5431493521e-02
 -1.5387886204e-02
 -1.5344278887e-02
 -1.5300671570e-02
 -1.5257064253e-02
 -1.5213456936e-02
 -1.5169849619e-02
 -1.5126243234e-02
 -1.5082635917e-02
 -1.5039028600e-02
 -1.4995421283e-02
 -1.4951813966e-02
 -1.4908206649e-02
 -1.4864599332e-02
 -1.4820992947e-02
 -1.4777385630e-02
 -1.4733778313e-02
 -1.4690170996e-02
 -1.4646563679e-02
 -1.4602956362e-02
 -1.4559349045e-02
 -1.4515742660e-02
 -1.4472135343e-02
 -1.4428528026e-02
 -1.4384920709e-02
 -1.4341313392e-02
 -1.4297706075e-02
 -1.4254098758e-02
 -1.4210491441e-02
 -1.4166885056e-02
 -1.4123277739e-02
 -1.4079670422e-02
 -1.4036063105e-02
 -1.3992455788e-02
 -1.3948848471e-02
 -1.3905241154e-02
 -1.3861634769e-02
 -1.3818027452e-02
 -1.3774420135e-02
 -1.3730812818e-02
 -1.3687205501e-02
 -1.3643598184e-02
 -1.3599990867e-02
 -1.3556384481e-02
 -1.3512777165e-02
 -1.3469169848e-02
 -1.3425562531e-02
 -1.3381955214e-02
 -1.3338347897e-02
 -1.3294740580e-02
 -1.3251134194e-02
 -1.3207526878e-02
 -1.3163919561e-02
 -1.3120312244e-02
 -1.3076704927e-02
 -1.3033097610e-02
 -1.2989490293e-02
 -1.2945883907e-02
 -1.2902276590e-02
 -1.2858669274e-02
 -1.2815061957e-02
 -1.2771454640e-02
 -1.2727847323e-02
 -1.2684240006e-02
 -1.2640633620e-02
 -1.2597026303e-02
 -1.2553418986e-02
 -1.2509811670e-02
 -1.2466204353e-02
 -1.2422597036e-02
 -1.2378989719e-02
 -1.2335383333e-02
 -1.2291776016e-02
 -1.2248168699e-02
 -1.2204561383e-02
 -1.2160954066e-02
 -1.2117346749e-02
 -1.2073739432e-02
 -1.2030132115e-02
 -1.1986525729e-02
 -1.1942918412e-02
 -1.1899311095e-02
 -1.1855703779e-02
 -1.1812096462e-02
 -1.1768489145e-02
 -1.1724881828e-02
 -1.1681275442e-02
 -1.1637668125e-02
 -1.1594060808e-02
 -1.1550453492e-02
 -1.1506846175e-02
 -1.1463238858e-02
 -1.1419631541e-02
 -1.1376025155e-02
 -1.1332417838e-02
 -1.1288810521e-02
 -1.1245203204e-02
 -1.1201595888e-02
 -1.1157988571e-02
 -1.1114381254e-02
 -1.1070774868e-02
 -1.1027167551e-02
 -1.0983560234e-02
 -1.0939952917e-02
 -1.0896345600e-02
 -1.0852738284e-02
 -1.0809130967e-02
 -1.0765524581e-02
 -1.0721917264e-02
 -1.0678309947e-02
 -1.0634702630e-02
 -1.0591095313e-02
 -1.0547487997e-02
 -1.0503880680e-02
 -1.0460274294e-02
 -1.0416666977e-02
 -1.0373059660e-02
 -1.0329452343e-02
 -1.0285845026e-02
 -1.0242237709e-02
 -1.0198630393e-02
 -1.0155024007e-02
 -1.0111416690e-02
 -1.0067809373e-02
 -1.0024202056e-02
 -9.9805947393e-03
 -9.9369874224e-03
 -9.8933801055e-03
 -9.8497727886e-03
 -9.8061664030e-03
 -9.7625590861e-03
 -9.7189517692e-03
 -9.6753444523e-03
 -9.6317371354e-03
 -9.5881298184e-03
 -9.5445225015e-03
 -9.5009161159e-03
 -9.4573087990e-03
 -9.4137014821e-03
 -9.3700941652e-03
 -9.3264868483e-03
 -9.2828795314e-03
 -9.2392722145e-03
 -9.1956658289e-03
 -9.1520585120e-03
 -9.1084511951e-03
 -9.0648438781e-03
 -9.0212365612e-03
 -8.9776292443e-03
 -8.9340219274e-03
 -8.8904155418e-03
 -8.8468082249e-03
 -8.8032009080e-03
 -8.7595935911e-03
 -8.7159862742e-03
 -8.6723789573e-03
 -8.6287716404e-03
 -8.5851652548e-03
 -8.5415579379e-03
 -8.4979506209e-03
 -8.4543433040e-03
 -8.4107359871e-03
 -8.3671286702e-03
 -8.3235213533e-03
 -8.2799149677e-03
 -8.2363076508e-03
 -8.1927003339e-03
 -8.1490930170e-03
 -8.1054857001e-03
 -8.0618783832e-03
 -8.0182710662e-03
 -7.9746646807e-03
 -7.9310573637e-03
 -7.8874500468e-03
 -7.8438427299e-03
 -7.8002354130e-03
 -7.7566280961e-03
 -7.7130212449e-03
 -7.6694139279e-03
 -7.6258066110e-03
 -7.5821997598e-03
 -7.5385924429e-03
 -7.4949851260e-03
 -7.4513778090e-03
 -7.4077709578e-03
 -7.3641636409e-03
 -7.3205563240e-03
 -7.2769494727e-03
 -7.2333421558e-03
 -7.1897348389e-03
 -7.1461275220e-03
 -7.1025206707e-03
 -7.0589133538e-03
 -7.0153060369e-03
 -6.9716987200e-03
 -6.9280918688e-03
 -6.8844845518e-03
 -6.8408772349e-03
 -6.7972703837e-03
 -6.7536630668e-03
 -6.7100557499e-03
 -6.6664484330e-03
 -6.6228415817e-03
 -6.5792342648e-03
 -6.5356269479e-03
 -6.4920200966e-03
 -6.4484127797e-03
 -6.4048054628e-03
 -6.3611981459e-03
 -6.3175912946e-03
 -6.2739839777e-03
 -6.2303766608e-03
 -6.1867698096e-03
 -6.1431624927e-03
 -6.0995551758e-03
 -6.0559478588e-03
 -6.0123410076e-03
 -5.9687336907e-03
 -5.9251263738e-03
 -5.8815190569e-03
 -5.8379122056e-03
 -5.7943048887e-03
 -5.7506975718e-03
 -5.7070907205e-03
 -5.6634834036e-03
 -5.6198760867e-03
 -5.5762687698e-03
 -5.5326619186e-03
 -5.4890546016e-03
 -5.4454472847e-03
 -5.4018404335e-03
 -5.3582331166e-03
 -5.3146257997e-03
 -5.2710184827e-03
 -5.2274116315e-03
 -5.1838043146e-03
 -5.1401969977e-03
 -5.0965901464e-03
 -5.0529828295e-03
 -5.0093755126e-03
 -4.9657681957e-03
 -4.9221613444e-03
 -4.8785540275e-03
 -4.8349467106e-03
 -4.7913393937e-03
 -4.7477325425e-03
 -4.7041252255e-03
 -4.6605179086e-03
 -4.6169110574e-03
 -4.5733037405e-03
 -4.5296964236e-03
 -4.4860891066e-03
 -4.4424822554e-03
 -4.3988749385e-03
 -4.3552676216e-03
 -4.3116607703e-03
 -4.2680534534e-03
 -4.2244461365e-03
 -4.1808388196e-03
 -4.1372319683e-03
 -4.0936246514e-03
 -4.0500173345e-03
 -4.0064104833e-03
 -3.9628031664e-03
 -3.9191958494e-03
 -3.8755887654e-03
 -3.8319814485e-03
 -3.7883743644e-03
 -3.7447670475e-03
 -3.7011599634e-03
 -3.6575528793e-03
 -3.6139455624e-03
 -3.5703384783e-03
 -3.5267311614e-03
 -3.4831240773e-03
 -3.4395167604e-03
 -3.3959096763e-03
 -3.3523023594e-03
 -3.3086952753e-03
 -3.2650881913e-03
 -3.2214808743e-03
 -3.1778737903e-03
 -3.1342664734e-03
 -3.0906593893e-03
 -3.0470520724e-03
 -3.0034449883e-03
 -2.9598376714e-03
 -2.9162305873e-03
 -2.8726235032e-03
 -2.8290161863e-03
 -2.7854091022e-03
 -2.7418017853e-03
 -2.6981947012e-03
 -2.6545873843e-03
 -2.6109803002e-03
 -2.5673732162e-03
 -2.5237658992e-03
 -2.4801588152e-03
 -2.4365514982e-03
 -2.3929444142e-03
 -2.3493370973e-03
 -2.3057300132e-03
 -2.2621226963e-03
 -2.2185156122e-03
 -2.1749085281e-03
 -2.1313012112e-03
 -2.0876941271e-03
 -2.0440868102e-03
 -2.0004797261e-03
 -1.9568724092e-03
 -1.9132653251e-03
 -1.8696581246e-03
 -1.8260509241e-03
 -1.7824437236e-03
 -1.7388365231e-03
 -1.6952293226e-03
 -1.6516222386e-03
 -1.6080150381e-03
 -1.5644078376e-03
 -1.5208006371e-03
 -1.4771934366e-03
 -1.4335862361e-03
 -1.3899790356e-03
 -1.3463718351e-03
 -1.3027647510e-03
 -1.2591575505e-03
 -1.2155503500e-03
 -1.1719431495e-03
 -1.1283359490e-03
 -1.0847287485e-03
 -1.0411215480e-03
 -9.9751434755e-04
 -9.5390720526e-04
 -9.1030000476e-04
 -8.6669280427e-04
 -8.2308566198e-04
 -7.7947846148e-04
 -7.3587126099e-04
 -6.9226406049e-04
 -6.4865691820e-04
 -6.0504971771e-04
 -5.6144251721e-04
 -5.1783531671e-04
 -4.7422814532e-04
 -4.3062097393e-04
 -3.8701377343e-04
 -3.4340660204e-04
 -2.9979940155e-04
 -2.5619223015e-04
 -2.1258502966e-04
 -1.6897784371e-04
 -1.2537065777e-04
 -8.1763471826e-05
 -3.8156289520e-05
 5.4508982430e-06
 4.9058086006e-05
 9.2665271950e-05
 1.3627245789e-04
 1.7987964384e-04
 2.2348682978e-04
 2.6709403028e-04
 3.1070120167e-04
 3.5430840217e-04
 3.9791557356e-04
 4.4152277405e-04
 4.8512994545e-04
 5.2873714594e-04
 5.7234434644e-04
 6.1595148873e-04
 6.5955868922e-04
 7.0316588972e-04
 7.4677309021e-04
 7.9038023250e-04
 8.3398743300e-04
 8.7759463349e-04
 9.2120183399e-04
 9.6480897628e-04
 1.0084161768e-03
 1.0520233773e-03
 1.0956305778e-03
 1.1392377783e-03
 1.1828449788e-03
 1.2264520628e-03
 1.2700592633e-03
 1.3136664638e-03
 1.3572736643e-03
 1.4008808648e-03
 1.4444880653e-03
 1.4880952658e-03
 1.5317024663e-03
 1.5753096668e-03
 1.6189167509e-03
 1.6625239514e-03
 1.7061311519e-03
 1.7497383524e-03
 1.7933455529e-03
 1.8369527534e-03
 1.8805599539e-03
 1.9241671544e-03
 1.9677742384e-03
 2.0113815553e-03
 2.0549886394e-03
 2.0985959563e-03
 2.1422030404e-03
 2.1858101245e-03
 2.2294174414e-03
 2.2730245255e-03
 2.3166318424e-03
 2.3602389265e-03
 2.4038462434e-03
 2.4474533275e-03
 2.4910604116e-03
 2.5346677285e-03
 2.5782748125e-03
 2.6218821295e-03
 2.6654892135e-03
 2.7090965305e-03
 2.7527036145e-03
 2.7963109314e-03
 2.8399180155e-03
 2.8835250996e-03
 2.9271324165e-03
 2.9707395006e-03
 3.0143468175e-03
 3.0579539016e-03
 3.1015612185e-03
 3.1451683026e-03
 3.1887756195e-03
 3.2323827036e-03
 3.2759897877e-03
 3.3195971046e-03
 3.3632041886e-03
 3.4068115056e-03
 3.4504185896e-03
 3.4940259065e-03
 3.5376329906e-03
 3.5812400747e-03
 3.6248473916e-03
 3.6684544757e-03
 3.7120617926e-03
 3.7556688767e-03
 3.7992761936e-03
 3.8428832777e-03
 3.8864905946e-03
 3.9300979115e-03
 3.9737047628e-03
 4.0173120797e-03
 4.0609193966e-03
 4.1045262478e-03
 4.1481335647e-03
 4.1917408817e-03
 4.2353481986e-03
 4.2789550498e-03
 4.3225623667e-03
 4.3661696836e-03
 4.4097765349e-03
 4.4533838518e-03
 4.4969911687e-03
 4.5405984856e-03
 4.5842053369e-03
 4.6278126538e-03
 4.6714199707e-03
 4.7150268219e-03
 4.7586341389e-03
 4.8022414558e-03
 4.8458487727e-03
 4.8894556239e-03
 4.9330629408e-03
 4.9766702577e-03
 5.0202771090e-03
 5.0638844259e-03
 5.1074917428e-03
 5.1510990597e-03
 5.1947059110e-03
 5.2383132279e-03
 5.2819205448e-03
 5.3255278617e-03
 5.3691347130e-03
 5.4127420299e-03
 5.4563493468e-03
 5.4999561980e-03
 5.5435635149e-03
 5.5871708319e-03
 5.6307781488e-03
 5.6743850000e-03
 5.7179923169e-03
 5.7615996338e-03
 5.8052064851e-03
 5.8488138020e-03
 5.8924211189e-03
 5.9360284358e-03
 5.9796352871e-03
 6.0232426040e-03
 6.0668499209e-03
 6.1104567721e-03
 6.1540640891e-03
 6.1976714060e-03
 6.2412787229e-03
 6.2848855741e-03
 6.3284928910e-03
 6.3721002080e-03
 6.4157075249e-03
 6.4593143761e-03
 6.5029216930e-03
 6.5465290099e-03
 6.5901358612e-03
 6.6337431781e-03
 6.6773504950e-03
 6.7209578119e-03
 6.7645646632e-03
 6.8081719801e-03
 6.8517792970e-03
 6.8953861482e-03
 6.9389934652e-03
 6.9826007821e-03
 7.0262080990e-03
 7.0698149502e-03
 7.1134222671e-03
 7.1570295841e-03
 7.2006364353e-03
 7.2442437522e-03
 7.2878510691e-03
 7.3314583860e-03
 7.3750652373e-03
 7.4186725542e-03
 7.4622798711e-03
 7.5058871880e-03
 7.5494940393e-03
 7.5931013562e-03
 7.6367086731e-03
 7.6803155243e-03
 7.7239228413e-03
 7.7675301582e-03
 7.8111374751e-03
 7.8547447920e-03
 7.8983521089e-03
 7.9419584945e-03
 7.9855658114e-03
 8.0291731283e-03
 8.0727804452e-03
 8.1163877621e-03
 8.1599950790e-03
 8.2036023960e-03
 8.2472087815e-03
 8.2908160985e-03
 8.3344234154e-03
 8.3780307323e-03
 8.4216380492e-03
 8.4652453661e-03
 8.5088526830e-03
 8.5524590686e-03
 8.5960663855e-03
 8.6396737024e-03
 8.6832810193e-03
 8.7268883362e-03
 8.7704956532e-03
 8.8141029701e-03
 8.8577093557e-03
 8.9013166726e-03
 8.9449239895e-03
 8.9885313064e-03
 9.0321386233e-03
 9.0757459402e-03
 9.1193532571e-03
 9.1629596427e-03
 9.2065669596e-03
 9.2501742765e-03
 9.2937815934e-03
 9.3373889104e-03
 9.3809962273e-03
 9.4246035442e-03
 9.4682099298e-03
 9.5118172467e-03
 9.5554245636e-03
 9.5990318805e-03
 9.6426391974e-03
 9.6862465143e-03
 9.7298538312e-03
 9.7734602168e-03
 9.8170675337e-03
 9.8606748506e-03
 9.9042821676e-03
 9.9478894845e-03
 9.9914968014e-03
 1.0035192594e-02
 1.0078932159e-02
 1.0122774169e-02
 1.0166718625e-02
 1.0210764594e-02
 1.0254913941e-02
 1.0299165733e-02
 1.0343520902e-02
 1.0387979448e-02
 1.0432542302e-02
 1.0477208532e-02
 1.0521978140e-02
 1.0566852987e-02
 1.0611832142e-02
 1.0656916536e-02
 1.0702105239e-02
 1.0747400112e-02
 1.0792800225e-02
 1.0838305578e-02
 1.0883918032e-02
 1.0929635726e-02
 1.0975460522e-02
 1.1021392420e-02
 1.1067431420e-02
 1.1113576591e-02
 1.1159830727e-02
 1.1206191964e-02
 1.1252661236e-02
 1.1299239472e-02
 1.1345925741e-02
 1.1392720975e-02
 1.1439625174e-02
 1.1486638337e-02
 1.1533761397e-02
 1.1580994353e-02
 1.1628337204e-02
 1.1675790884e-02
 1.1723354459e-02
 1.1771029793e-02
 1.1818815954e-02
 1.1866712943e-02
 1.1914722621e-02
 1.1962843128e-02
 1.2011076324e-02
 1.2059422210e-02
 1.2107879855e-02
 1.2156451121e-02
 1.2205136009e-02
 1.2253933586e-02
 1.2302844785e-02
 1.2351870537e-02
 1.2401010841e-02
 1.2450264767e-02
 1.2499634176e-02
 1.2549119070e-02
 1.2598718517e-02
 1.2648433447e-02
 1.2698264793e-02
 1.2748211622e-02
 1.2798275799e-02
 1.2848456390e-02
 1.2898753397e-02
 1.2949168682e-02
 1.2999700382e-02
 1.3050350361e-02
 1.3101118617e-02
 1.3152004220e-02
 1.3203009963e-02
 1.3254133053e-02
 1.3305376284e-02
 1.3356738724e-02
 1.3408221304e-02
 1.3459823094e-02
 1.3511545956e-02
 1.3563388959e-02
 1.3615352102e-02
 1.3667437248e-02
 1.3719643466e-02
 1.3771971688e-02
 1.3824421912e-02
 1.3876994140e-02
 1.3929689303e-02
 1.3982506469e-02
 1.4035447501e-02
 1.4088511467e-02
 1.4141699299e-02
 1.4195010997e-02
 1.4248447493e-02
 1.4302007854e-02
 1.4355693012e-02
 1.4409503900e-02
 1.4463440515e-02
 1.4517501928e-02
 1.4571690001e-02
 1.4626003802e-02
 1.4680444263e-02
 1.4735012315e-02
 1.4789707027e-02
 1.4844529331e-02
 1.4899479225e-02
 1.4954557642e-02
 1.5009763651e-02
 1.5065099113e-02
 1.5120563097e-02
 1.5176156536e-02
 1.5231879428e-02
 1.5287732705e-02
 1.5343715437e-02
 1.5399829485e-02
 1.5456073917e-02
 1.5512449667e-02
 1.5568955801e-02
 1.5625594184e-02
 1.5682365745e-02
 1.5739267692e-02
 1.5796303749e-02
 1.5853472054e-02
 1.5910774469e-02
 1.5968209133e-02
 1.6025779769e-02
 1.6083482653e-02
 1.6141319647e-02
 1.6199292615e-02
 1.6257401556e-02
 1.6315644607e-02
 1.6374023631e-02
 1.6432538629e-02
 1.6491189599e-02
 1.6549978405e-02
 1.6608903185e-02
 1.6667965800e-02
 1.6727166250e-02
 1.6786504537e-02
 1.6845982522e-02
 1.6905596480e-02
 1.6965351999e-02
 1.7025245354e-02
 1.7085278407e-02
 1.7145451158e-02
 1.7205763608e-02
 1.7266217619e-02
 1.7326813191e-02
 1.7387548462e-02
 1.7448427156e-02
 1.7509445548e-02
 1.7570607364e-02
 1.7631912604e-02
 1.7693359405e-02
 1.7754949629e-02
 1.7816683277e-02
 1.7878562212e-02
 1.7940584570e-02
 1.8002750352e-02
 1.8065061420e-02
 1.8127519637e-02
 1.8190121278e-02
 1.8252870068e-02
 1.8315764144e-02
 1.8378805369e-02
 1.8441993743e-02
 1.8505329266e-02
 1.8568811938e-02
 1.8632443622e-02
 1.8696222454e-02
 1.8760150298e-02
 1.8824227154e-02
 1.8888453022e-02
 1.8952829763e-02
 1.9017355517e-02
 1.9082032144e-02
 1.9146859646e-02
 1.9211838022e-02
 1.9276967272e-02
 1.9342249259e-02
 1.9407683983e-02
 1.9473269582e-02
 1.9539009780e-02
 1.9604900852e-02
 1.9670946524e-02
 1.9737146795e-02
 1.9803501666e-02
 1.9870011136e-02
 1.9936675206e-02
 2.0003493875e-02
 2.0070469007e-02
 2.0137600601e-02
 2.0204888657e-02
 2.0272333175e-02
 2.0339934155e-02
 2.0407693461e-02
 2.0475611091e-02
 2.0543687046e-02
 2.0611921325e-02
 2.0680313930e-02
 2.0748866722e-02
 2.0817579702e-02
 2.0886452869e-02
 2.0955486223e-02
 2.1024679765e-02
 2.1094035357e-02
 2.1163552999e-02
 2.1233230829e-02
 2.1303072572e-02
 2.1373076364e-02
 2.1443244070e-02
 2.1513575688e-02
 2.1584071219e-02
 2.1654730663e-02
 2.1725554019e-02
 2.1796543151e-02
 2.1867698058e-02
 2.1939018741e-02
 2.2010505199e-02
 2.2082157433e-02
 2.2153979167e-02
 2.2225966677e-02
 2.2298121825e-02
 2.2370444611e-02
 2.2442936897e-02
 2.2515598685e-02
 2.2588429973e-02
 2.2661428899e-02
 2.2734601051e-02
 2.2807940841e-02
 2.2881453857e-02
 2.2955136374e-02
 2.3028992116e-02
 2.3103019223e-02
 2.3177219555e-02
 2.3251591250e-02
 2.3326138034e-02
 2.3400858045e-02
 2.3475751281e-02
 2.3550821468e-02
 2.3626064882e-02
 2.3701483384e-02
 2.3777078837e-02
 2.3852849379e-02
 2.3928796872e-02
 2.4004921317e-02
 2.4081222713e-02
 2.4157702923e-02
 2.4234361947e-02
 2.4311197922e-02
 2.4388214573e-02
 2.4465410039e-02
 2.4542786181e-02
 2.4620341137e-02
 2.4698078632e-02
 2.4775994942e-02
 2.4854095653e-02
 2.4932377040e-02
 2.5010840967e-02
 2.5089487433e-02
 2.5168316439e-02
 2.5247331709e-02
 2.5326529518e-02
 2.5405911729e-02
 2.5485480204e-02
 2.5565233082e-02
 2.5645172223e-02
 2.5725297630e-02
 2.5805609301e-02
 2.5886109099e-02
 2.5966795161e-02
 2.6047671214e-02
 2.6128733531e-02
 2.6209985837e-02
 2.6291428134e-02
 2.6373060420e-02
 2.6454882696e-02
 2.6536894962e-02
 2.6619099081e-02
 2.6701495051e-02
 2.6784081012e-02
 2.6866862550e-02
 2.6949834079e-02
 2.7033001184e-02
 2.7116362005e-02
 2.7199916542e-02
 2.7283664793e-02
 2.7367610484e-02
 2.7451749891e-02
 2.7536086738e-02
 2.7620619163e-02
 2.7705349028e-02
 2.7790276334e-02
 2.7875402942e-02
 2.7960725129e-02
 2.8046248481e-02
 2.8131971136e-02
 2.8217893094e-02
 2.8304014355e-02
 2.8390336782e-02
 2.8476862237e-02
 2.8563586995e-02
 2.8650514781e-02
 2.8737645596e-02
 2.8824979439e-02
 2.8912516311e-02
 2.9000258073e-02
 2.9088204727e-02
 2.9176354408e-02
 2.9264710844e-02
 2.9353272170e-02
 2.9442042112e-02
 2.9531016946e-02
 2.9620200396e-02
 2.9709590599e-02
 2.9799189419e-02
 2.9888998717e-02
 2.9979014769e-02
 3.0069243163e-02
 3.0159680173e-02
 3.0250327662e-02
 3.0341187492e-02
 3.0432259664e-02
 3.0523542315e-02
 3.0615039170e-02
 3.0706748366e-02
 3.0798671767e-02
 3.0890809372e-02
 3.0983163044e-02
 3.1075730920e-02
 3.1168513000e-02
 3.1261514872e-02
 3.1354729086e-02
 3.1448163092e-02
 3.1541816890e-02
 3.1635686755e-02
 3.1729772687e-02
 3.1824082136e-02
 3.1918611377e-02
 3.2013356686e-02
 3.2108325511e-02
 3.2203517854e-02
 3.2298929989e-02
 3.2394565642e-02
 3.2490421087e-02
 3.2586503774e-02
 3.2682806253e-02
 3.2779335976e-02
 3.2876092941e-02
 3.2973073423e-02
 3.3070277423e-02
 3.3167708665e-02
 3.3265370876e-02
 3.3363256603e-02
 3.3461373299e-02
 3.3559717238e-02
 3.3658292145e-02
 3.3757094294e-02
 3.3856127411e-02
 3.3955391496e-02
 3.4054886550e-02
 3.4154616296e-02
 3.4254573286e-02
 3.4354768693e-02
 3.4455195069e-02
 3.4555856138e-02
 3.4656751901e-02
 3.4757882357e-02
 3.4859247506e-02
 3.4960851073e-02
 3.5062689334e-02
 3.5164766014e-02
 3.5267081112e-02
 3.5369634628e-02
 3.5472426564e-02
 3.5575456917e-02
 3.5678729415e-02
 3.5782244056e-02
 3.5885997117e-02
 3.5989992321e-02
 3.6094229668e-02
 3.6198712885e-02
 3.6303434521e-02
 3.6408405751e-02
 3.6513619125e-02
 3.6619078368e-02
 3.6724783480e-02
 3.6830734462e-02
 3.6936931312e-02
 3.7043377757e-02
 3.7150070071e-02
 3.7257011980e-02
 3.7364203483e-02
 3.7471644580e-02
 3.7579335272e-02
 3.7687279284e-02
 3.7795472890e-02
 3.7903919816e-02
 3.8012620062e-02
 3.8121573627e-02
 3.8230780512e-02
 3.8340240717e-02
 3.8449957967e-02
 3.8559928536e-02
 3.8670156151e-02
 3.8780640811e-02
 3.8891386241e-02
 3.9002384990e-02
 3.9113648236e-02
 3.9225164801e-02
 3.9336945862e-02
 3.9448983967e-02
 3.9561286569e-02
 3.9673846215e-02
 3.9786674082e-02
 3.9899758995e-02
 4.0013112128e-02
 4.0126726031e-02
 4.0240608156e-02
 4.0354754776e-02
 4.0469165891e-02
 4.0583845228e-02
 4.0698792785e-02
 4.0814004838e-02
 4.0929488838e-02
 4.1045237333e-02
 4.1161261499e-02
 4.1277553886e-02
 4.1394114494e-02
 4.1510950774e-02
 4.1628059000e-02
 4.1745439172e-02
 4.1863091290e-02
 4.1981019080e-02
 4.2099222541e-02
 4.2217697948e-02
 4.2336452752e-02
 4.2455486953e-02
 4.2574793100e-02
 4.2694382370e-02
 4.2814247310e-02
 4.2934391648e-02
 4.3054815382e-02
 4.3175522238e-02
 4.3296508491e-02
 4.3417777866e-02
 4.3539330363e-02
 4.3661165982e-02
 4.3783284724e-02
 4.3905686587e-02
 4.4028375298e-02
 4.4151350856e-02
 4.4274613261e-02
 4.4398162514e-02
 4.4521998614e-02
 4.4646125287e-02
 4.4770538807e-02
 4.4895242900e-02
 4.5020237565e-02
 4.5145526528e-02
 4.5271106064e-02
 4.5396976173e-02
 4.5523140579e-02
 4.5649599284e-02
 4.5776352286e-02
 4.5903403312e-02
 4.6030748636e-02
 4.6158391982e-02
 4.6286329627e-02
 4.6414569020e-02
 4.6543106437e-02
 4.6671941876e-02
 4.6801079065e-02
 4.6930518001e-02
 4.7060254961e-02
 4.7190297395e-02
 4.7320645303e-02
 4.7451291233e-02
 4.7582246363e-02
 4.7713503242e-02
 4.7845069319e-02
 4.7976940870e-02
 4.8109117895e-02
 4.8241604120e-02
 4.8374403268e-02
 4.8507507890e-02
 4.8640921712e-02
 4.8774648458e-02
 4.8908688128e-02
 4.9043036997e-02
 4.9177698791e-02
 4.9312677234e-02
 4.9447968602e-02
 4.9583576620e-02
 4.9719501287e-02
 4.9855742604e-02
 4.9992300570e-02
