luts/V3_LogC_800_to_linear.spi1d
Version 1
From 0 1
Length 65536
Components 1
{
 -1.7290486023e-02
 -1.7287641764e-02
 -1.7284799367e-02
 -1.7281956971e-02
 -1.7279114574e-02
 -1.7276272178e-02
 -1.7273427919e-02
 -1.7270585522e-02
 -1.7267743126e-02
 -1.7264900729e-02
 -1.7262058333e-02
 -1.7259214073e-02
 -1.7256371677e-02
 -1.7253529280e-02
 -1.7250686884e-02
 -1.7247844487e-02
 -1.7245000228e-02
 -1.7242157832e-02
 -1.7239315435e-02
 -1.7236473039e-02
 -1.7233630642e-02
 -1.7230786383e-02
 -1.7227943987e-02
 -1.7225101590e-02
 -1.7222259194e-02
 -1.7219416797e-02
 -1.7216572538e-02
 -1.7213730142e-02
 -1.7210887745e-02
 -1.7208045349e-02
 -1.7205202952e-02
 -1.7202358693e-02
 -1.7199516296e-02
 -1.7196673900e-02
 -1.7193831503e-02
 -1.7190989107e-02
 -1.7188144848e-02
 -1.7185302451e-02
 -1.7182460055e-02
 -1.7179617658e-02
 -1.7176775262e-02
 -1.7173931003e-02
 -1.7171088606e-02
 -1.7168246210e-02
 -1.7165403813e-02
 -1.7162561417e-02
 -1.7159717157e-02
 -1.7156874761e-02
 -1.7154032364e-02
 -1.7151189968e-02
 -1.7148347571e-02
 -1.7145503312e-02
 -1.7142660916e-02
 -1.7139818519e-02
 -1.7136976123e-02
 -1.7134133726e-02
 -1.7131289467e-02
 -1.7128447071e-02
 -1.7125604674e-02
 -1.7122762278e-02
 -1.7119919881e-02
 -1.7117075622e-02
 -1.7114233226e-02
 -1.7111390829e-02
 -1.7108548433e-02
 -1.7105706036e-02
 -1.7102861777e-02
 -1.7100019380e-02
 -1.7097176984e-02
 -1.7094334587e-02
 -1.7091492191e-02
 -1.7088647932e-02
 -1.7085805535e-02
 -1.7082963139e-02
 -1.7080120742e-02
 -1.7077278346e-02
 -1.7074434087e-02
 -1.7071591690e-02
 -1.7068749294e-02
 -1.7065906897e-02
 -1.7063064501e-02
 -1.7060220242e-02
 -1.7057377845e-02
 -1.7054535449e-02
 -1.7051693052e-02
 -1.7048850656e-02
 -1.7046006396e-02
 -1.7043164000e-02
 -1.7040321603e-02
 -1.7037479207e-02
 -1.7034636810e-02
 -1.7031792551e-02
 -1.7028950155e-02
 -1.7026107758e-02
 -1.7023265362e-02
 -1.7020421103e-02
 -1.7017578706e-02
 -1.7014736310e-02
 -1.7011893913e-02
 -1.7009051517e-02
 -1.7006207258e-02
 -1.7003364861e-02
 -1.7000522465e-02
 -1.6997680068e-02
 -1.6994837672e-02
 -1.6991993412e-02
 -1.6989151016e-02
 -1.6986308619e-02
 -1.6983466223e-02
 -1.6980623826e-02
 -1.6977779567e-02
 -1.6974937171e-02
 -1.6972094774e-02
 -1.6969252378e-02
 -1.6966409981e-02
 -1.6963565722e-02
 -1.6960723326e-02
 -1.6957880929e-02
 -1.6955038533e-02
 -1.6952196136e-02
 -1.6949351877e-02
 -1.6946509480e-02
 -1.6943667084e-02
 -1.6940824687e-02
 -1.6937982291e-02
 -1.6935138032e-02
 -1.6932295635e-02
 -1.6929453239e-02
 -1.6926610842e-02
 -1.6923768446e-02
 -1.6920924187e-02
 -1.6918081790e-02
 -1.6915239394e-02
 -1.6912396997e-02
 -1.6909554601e-02
 -1.6906710342e-02
 -1.6903867945e-02
 -1.6901025549e-02
 -1.6898183152e-02
 -1.6895340756e-02
 -1.6892496496e-02
 -1.6889654100e-02
 -1.6886811703e-02
 -1.6883969307e-02
 -1.6881126910e-02
 -1.6878282651e-02
 -1.6875440255e-02
 -1.6872597858e-02
 -1.6869755462e-02
 -1.6866913065e-02
 -1.6864068806e-02
 -1.6861226410e-02
 -1.6858384013e-02
 -1.6855541617e-02
 -1.6852699220e-02
 -1.6849854961e-02
 -1.6847012565e-02
 -1.6844170168e-02
 -1.6841327772e-02
 -1.6838485375e-02
 -1.6835641116e-02
 -1.6832798719e-02
 -1.6829956323e-02
 -1.6827113926e-02
 -1.6824271530e-02
 -1.6821427271e-02
 -1.6818584874e-02
 -1.6815742478e-02
 -1.6812900081e-02
 -1.6810057685e-02
 -1.6807213426e-02
 -1.6804371029e-02
 -1.6801528633e-02
 -1.6798686236e-02
 -1.6795843840e-02
 -1.6792999581e-02
 -1.6790157184e-02
 -1.6787314788e-02
 -1.6784472391e-02
 -1.6781629995e-02
 -1.6778785735e-02
 -1.6775943339e-02
 -1.6773100942e-02
 -1.6770258546e-02
 -1.6767416149e-02
 -1.6764571890e-02
 -1.6761729494e-02
 -1.6758887097e-02
 -1.6756044701e-02
 -1.6753202304e-02
 -1.6750358045e-02
 -1.6747515649e-02
 -1.6744673252e-02
 -1.6741830856e-02
 -1.6738988459e-02
 -1.6736144200e-02
 -1.6733301803e-02
 -1.6730459407e-02
 -1.6727617010e-02
 -1.6724772751e-02
 -1.6721930355e-02
 -1.6719087958e-02
 -1.6716245562e-02
 -1.6713403165e-02
 -1.6710558906e-02
 -1.6707716510e-02
 -1.6704874113e-02
 -1.6702031717e-02
 -1.6699189320e-02
 -1.6696345061e-02
 -1.6693502665e-02
 -1.6690660268e-02
 -1.6687817872e-02
 -1.6684975475e-02
 -1.6682131216e-02
 -1.6679288819e-02
 -1.6676446423e-02
 -1.6673604026e-02
 -1.6670761630e-02
 -1.6667917371e-02
 -1.6665074974e-02
 -1.6662232578e-02
 -1.6659390181e-02
 -1.6656547785e-02
 -1.6653703526e-02
 -1.6650861129e-02
 -1.6648018733e-02
 -1.6645176336e-02
 -1.6642333940e-02
 -1.6639489681e-02
 -1.6636647284e-02
 -1.6633804888e-02
 -1.6630962491e-02
 -1.6628120095e-02
 -1.6625275835e-02
 -1.6622433439e-02
 -1.6619591042e-02
 -1.6616748646e-02
 -1.6613906249e-02
 -1.6611061990e-02
 -1.6608219594e-02
 -1.6605377197e-02
 -1.6602534801e-02
 -1.6599692404e-02
 -1.6596848145e-02
 -1.6594005749e-02
 -1.6591163352e-02
 -1.6588320956e-02
 -1.6585478559e-02
 -1.6582634300e-02
 -1.6579791903e-02
 -1.6576949507e-02
 -1.6574107111e-02
 -1.6571264714e-02
 -1.6568420455e-02
 -1.6565578058e-02
 -1.6562735662e-02
 -1.6559893265e-02
 -1.6557050869e-02
 -1.6554206610e-02
 -1.6551364213e-02
 -1.6548521817e-02
 -1.6545679420e-02
 -1.6542837024e-02
 -1.6539992765e-02
 -1.6537150368e-02
 -1.6534307972e-02
 -1.6531465575e-02
 -1.6528623179e-02
 -1.6525778919e-02
 -1.6522936523e-02
 -1.6520094126e-02
 -1.6517251730e-02
 -1.6514409333e-02
 -1.6511565074e-02
 -1.6508722678e-02
 -1.6505880281e-02
 -1.6503037885e-02
 -1.6500195488e-02
 -1.6497351229e-02
 -1.6494508833e-02
 -1.6491666436e-02
 -1.6488824040e-02
 -1.6485981643e-02
 -1.6483137384e-02
 -1.6480294988e-02
 -1.6477452591e-02
 -1.6474610195e-02
 -1.6471767798e-02
 -1.6468923539e-02
 -1.6466081142e-02
 -1.6463238746e-02
 -1.6460396349e-02
 -1.6457553953e-02
 -1.6454709694e-02
 -1.6451867297e-02
 -1.6449024901e-02
 -1.6446182504e-02
 -1.6443340108e-02
 -1.6440495849e-02
 -1.6437653452e-02
 -1.6434811056e-02
 -1.6431968659e-02
 -1.6429124400e-02
 -1.6426282004e-02
 -1.6423439607e-02
 -1.6420597211e-02
 -1.6417754814e-02
 -1.6414910555e-02
 -1.6412068158e-02
 -1.6409225762e-02
 -1.6406383365e-02
 -1.6403540969e-02
 -1.6400696710e-02
 -1.6397854313e-02
 -1.6395011917e-02
 -1.6392169520e-02
 -1.6389327124e-02
 -1.6386482865e-02
 -1.6383640468e-02
 -1.6380798072e-02
 -1.6377955675e-02
 -1.6375113279e-02
 -1.6372269019e-02
 -1.6369426623e-02
 -1.6366584226e-02
 -1.6363741830e-02
 -1.6360899433e-02
 -1.6358055174e-02
 -1.6355212778e-02
 -1.6352370381e-02
 -1.6349527985e-02
 -1.6346685588e-02
 -1.6343841329e-02
 -1.6340998933e-02
 -1.6338156536e-02
 -1.6335314140e-02
 -1.6332471743e-02
 -1.6329627484e-02
 -1.6326785088e-02
 -1.6323942691e-02
 -1.6321100295e-02
 -1.6318257898e-02
 -1.6315413639e-02
 -1.6312571242e-02
 -1.6309728846e-02
 -1.6306886449e-02
 -1.6304044053e-02
 -1.6301199794e-02
 -1.6298357397e-02
 -1.6295515001e-02
 -1.6292672604e-02
 -1.6289830208e-02
 -1.6286985949e-02
 -1.6284143552e-02
 -1.6281301156e-02
 -1.6278458759e-02
 -1.6275616363e-02
 -1.6272772104e-02
 -1.6269929707e-02
 -1.6267087311e-02
 -1.6264244914e-02
 -1.6261402518e-02
 -1.6258558258e-02
 -1.6255715862e-02
 -1.6252873465e-02
 -1.6250031069e-02
 -1.6247188672e-02
 -1.6244344413e-02
 -1.6241502017e-02
 -1.6238659620e-02
 -1.6235817224e-02
 -1.6232974827e-02
 -1.6230130568e-02
 -1.6227288172e-02
 -1.6224445775e-02
 -1.6221603379e-02
 -1.6218760982e-02
 -1.6215916723e-02
 -1.6213074327e-02
 -1.6210231930e-02
 -1.6207389534e-02
 -1.6204547137e-02
 -1.6201702878e-02
 -1.6198860481e-02
 -1.6196018085e-02
 -1.6193175688e-02
 -1.6190333292e-02
 -1.6187489033e-02
 -1.6184646636e-02
 -1.6181804240e-02
 -1.6178961843e-02
 -1.6176119447e-02
 -1.6173275188e-02
 -1.6170432791e-02
 -1.6167590395e-02
 -1.6164747998e-02
 -1.6161905602e-02
 -1.6159061342e-02
 -1.6156218946e-02
 -1.6153376549e-02
 -1.6150534153e-02
 -1.6147691756e-02
 -1.6144847497e-02
 -1.6142005101e-02
 -1.6139162704e-02
 -1.6136320308e-02
 -1.6133477911e-02
 -1.6130633652e-02
 -1.6127791256e-02
 -1.6124948859e-02
 -1.6122106463e-02
 -1.6119262204e-02
 -1.6116419807e-02
 -1.6113577411e-02
 -1.6110735014e-02
 -1.6107892618e-02
 -1.6105048358e-02
 -1.6102205962e-02
 -1.6099363565e-02
 -1.6096521169e-02
 -1.6093678772e-02
 -1.6090834513e-02
 -1.6087992117e-02
 -1.6085149720e-02
 -1.6082307324e-02
 -1.6079464927e-02
 -1.6076620668e-02
 -1.6073778272e-02
 -1.6070935875e-02
 -1.6068093479e-02
 -1.6065251082e-02
 -1.6062406823e-02
 -1.6059564427e-02
 -1.6056722030e-02
 -1.6053879634e-02
 -1.6051037237e-02
 -1.6048192978e-02
 -1.6045350581e-02
 -1.6042508185e-02
 -1.6039665788e-02
 -1.6036823392e-02
 -1.6033979133e-02
 -1.6031136736e-02
 -1.6028294340e-02
 -1.6025451943e-02
 -1.6022609547e-02
 -1.6019765288e-02
 -1.6016922891e-02
 -1.6014080495e-02
 -1.6011238098e-02
 -1.6008395702e-02
 -1.6005551443e-02
 -1.6002709046e-02
 -1.5999866650e-02
 -1.5997024253e-02
 -1.5994181857e-02
 -1.5991337597e-02
 -1.5988495201e-02
 -1.5985652804e-02
 -1.5982810408e-02
 -1.5979968011e-02
 -1.5977123752e-02
 -1.5974281356e-02
 -1.5971438959e-02
 -1.5968596563e-02
 -1.5965754166e-02
 -1.5962909907e-02
 -1.5960067511e-02
 -1.5957225114e-02
 -1.5954382718e-02
 -1.5951540321e-02
 -1.5948696062e-02
 -1.5945853665e-02
 -1.5943011269e-02
 -1.5940168872e-02
 -1.5937326476e-02
 -1.5934482217e-02
 -1.5931639820e-02
 -1.5928797424e-02
 -1.5925955027e-02
 -1.5923112631e-02
 -1.5920268372e-02
 -1.5917425975e-02
 -1.5914583579e-02
 -1.5911741182e-02
 -1.5908898786e-02
 -1.5906054527e-02
 -1.5903212130e-02
 -1.5900369734e-02
 -1.5897527337e-02
 -1.5894684941e-02
 -1.5891840681e-02
 -1.5888998285e-02
 -1.5886155888e-02
 -1.5883313492e-02
 -1.5880471095e-02
 -1.5877626836e-02
 -1.5874784440e-02
 -1.5871942043e-02
 -1.5869099647e-02
 -1.5866257250e-02
 -1.5863412991e-02
 -1.5860570595e-02
 -1.5857728198e-02
 -1.5854885802e-02
 -1.5852043405e-02
 -1.5849199146e-02
 -1.5846356750e-02
 -1.5843514353e-02
 -1.5840671957e-02
 -1.5837829560e-02
 -1.5834985301e-02
 -1.5832142904e-02
 -1.5829300508e-02
 -1.5826458111e-02
 -1.5823613852e-02
 -1.5820771456e-02
 -1.5817929059e-02
 -1.5815086663e-02
 -1.5812244266e-02
 -1.5809400007e-02
 -1.5806557611e-02
 -1.5803715214e-02
 -1.5800872818e-02
 -1.5798030421e-02
 -1.5795186162e-02
 -1.5792343765e-02
 -1.5789501369e-02
 -1.5786658973e-02
 -1.5783816576e-02
 -1.5780972317e-02
 -1.5778129920e-02
 -1.5775287524e-02
 -1.5772445127e-02
 -1.5769602731e-02
 -1.5766758472e-02
 -1.5763916075e-02
 -1.5761073679e-02
 -1.5758231282e-02
 -1.5755388886e-02
 -1.5752544627e-02
 -1.5749702230e-02
 -1.5746859834e-02
 -1.5744017437e-02
 -1.5741175041e-02
 -1.5738330781e-02
 -1.5735488385e-02
 -1.5732645988e-02
 -1.5729803592e-02
 -1.5726961195e-02
 -1.5724116936e-02
 -1.5721274540e-02
 -1.5718432143e-02
 -1.5715589747e-02
 -1.5712747350e-02
 -1.5709903091e-02
 -1.5707060695e-02
 -1.5704218298e-02
 -1.5701375902e-02
 -1.5698533505e-02
 -1.5695689246e-02
 -1.5692846850e-02
 -1.5690004453e-02
 -1.5687162057e-02
 -1.5684319660e-02
 -1.5681475401e-02
 -1.5678633004e-02
 -1.5675790608e-02
 -1.5672948211e-02
 -1.5670105815e-02
 -1.5667261556e-02
 -1.5664419159e-02
 -1.5661576763e-02
 -1.5658734366e-02
 -1.5655891970e-02
 -1.5653047711e-02
 -1.5650205314e-02
 -1.5647362918e-02
 -1.5644520521e-02
 -1.5641678125e-02
 -1.5638833866e-02
 -1.5635991469e-02
 -1.5633149073e-02
 -1.5630306676e-02
 -1.5627464280e-02
 -1.5624620952e-02
 -1.5621777624e-02
 -1.5618935227e-02
 -1.5616092831e-02
 -1.5613249503e-02
 -1.5610407107e-02
 -1.5607563779e-02
 -1.5604721382e-02
 -1.5601878054e-02
 -1.5599035658e-02
 -1.5596193261e-02
 -1.5593349934e-02
 -1.5590507537e-02
 -1.5587664209e-02
 -1.5584821813e-02
 -1.5581979416e-02
 -1.5579136088e-02
 -1.5576293692e-02
 -1.5573450364e-02
 -1.5570607968e-02
 -1.5567765571e-02
 -1.5564922243e-02
 -1.5562079847e-02
 -1.5559236519e-02
 -1.5556394123e-02
 -1.5553551726e-02
 -1.5550708398e-02
 -1.5547866002e-02
 -1.5545022674e-02
 -1.5542180277e-02
 -1.5539337881e-02
 -1.5536494553e-02
 -1.5533652157e-02
 -1.5530808829e-02
 -1.5527966432e-02
 -1.5525124036e-02
 -1.5522280708e-02
 -1.5519438311e-02
 -1.5516594984e-02
 -1.5513752587e-02
 -1.5510910191e-02
 -1.5508066863e-02
 -1.5505224466e-02
 -1.5502381139e-02
 -1.5499538742e-02
 -1.5496696346e-02
 -1.5493853018e-02
 -1.5491010621e-02
 -1.5488167293e-02
 -1.5485324897e-02
 -1.5482482500e-02
 -1.5479639173e-02
 -1.5476796776e-02
 -1.5473953448e-02
 -1.5471111052e-02
 -1.5468268655e-02
 -1.5465425327e-02
 -1.5462582931e-02
 -1.5459739603e-02
 -1.5456897207e-02
 -1.5454053879e-02
 -1.5451211482e-02
 -1.5448369086e-02
 -1.5445525758e-02
 -1.5442683361e-02
 -1.5439840034e-02
 -1.5436997637e-02
 -1.5434155241e-02
 -1.5431311913e-02
 -1.5428469516e-02
 -1.5425626189e-02
 -1.5422783792e-02
 -1.5419941396e-02
 -1.5417098068e-02
 -1.5414255671e-02
 -1.5411412343e-02
 -1.5408569947e-02
 -1.5405727550e-02
 -1.5402884223e-02
 -1.5400041826e-02
 -1.5397198498e-02
 -1.5394356102e-02
 -1.5391513705e-02
 -1.5388670377e-02
 -1.5385827981e-02
 -1.5382984653e-02
 -1.5380142257e-02
 -1.5377299860e-02
 -1.5374456532e-02
 -1.5371614136e-02
 -1.5368770808e-02
 -1.5365928411e-02
 -1.5363086015e-02
 -1.5360242687e-02
 -1.5357400291e-02
 -1.5354556963e-02
 -1.5351714566e-02
 -1.5348872170e-02
 -1.5346028842e-02
 -1.5343186446e-02
 -1.5340343118e-02
 -1.5337500721e-02
 -1.5334658325e-02
 -1.5331814997e-02
 -1.5328972600e-02
 -1.5326129273e-02
 -1.5323286876e-02
 -1.5320444480e-02
 -1.5317601152e-02
 -1.5314758755e-02
 -1.5311915427e-02
 -1.5309073031e-02
 -1.5306229703e-02
 -1.5303387307e-02
 -1.5300544910e-02
 -1.5297701582e-02
 -1.5294859186e-02
 -1.5292015858e-02
 -1.5289173461e-02
 -1.5286331065e-02
 -1.5283487737e-02
 -1.5280645341e-02
 -1.5277802013e-02
 -1.5274959616e-02
 -1.5272117220e-02
 -1.5269273892e-02
 -1.5266431496e-02
 -1.5263588168e-02
 -1.5260745771e-02
 -1.5257903375e-02
 -1.5255060047e-02
 -1.5252217650e-02
 -1.5249374323e-02
 -1.5246531926e-02
 -1.5243689530e-02
 -1.5240846202e-02
 -1.5238003805e-02
 -1.5235160477e-02
 -1.5232318081e-02
 -1.5229475684e-02
 -1.5226632357e-02
 -1.5223789960e-02
 -1.5220946632e-02
 -1.5218104236e-02
 -1.5215261839e-02
 -1.5212418512e-02
 -1.5209576115e-02
 -1.5206732787e-02
 -1.5203890391e-02
 -1.5201047994e-02
 -1.5198204666e-02
 -1.5195362270e-02
 -1.5192518942e-02
 -1.5189676546e-02
 -1.5186834149e-02
 -1.5183990821e-02
 -1.5181148425e-02
 -1.5178305097e-02
 -1.5175462700e-02
 -1.5172620304e-02
 -1.5169776976e-02
 -1.5166934580e-02
 -1.5164091252e-02
 -1.5161248855e-02
 -1.5158405527e-02
 -1.5155563131e-02
 -1.5152720734e-02
 -1.5149877407e-02
 -1.5147035010e-02
 -1.5144191682e-02
 -1.5141349286e-02
 -1.5138506889e-02
 -1.5135663562e-02
 -1.5132821165e-02
 -1.5129977837e-02
 -1.5127135441e-02
 -1.5124293044e-02
 -1.5121449716e-02
 -1.5118607320e-02
 -1.5115763992e-02
 -1.5112921596e-02
 -1.5110079199e-02
 -1.5107235871e-02
 -1.5104393475e-02
 -1.5101550147e-02
 -1.5098707750e-02
 -1.5095865354e-02
 -1.5093022026e-02
 -1.5090179630e-02
 -1.5087336302e-02
 -1.5084493905e-02
 -1.5081651509e-02
 -1.5078808181e-02
 -1.5075965784e-02
 -1.5073122457e-02
 -1.5070280060e-02
 -1.5067437664e-02
 -1.5064594336e-02
 -1.5061751939e-02
 -1.5058908612e-02
 -1.5056066215e-02
 -1.5053223819e-02
 -1.5050380491e-02
 -1.5047538094e-02
 -1.5044694766e-02
 -1.5041852370e-02
 -1.5039009973e-02
 -1.5036166646e-02
 -1.5033324249e-02
 -1.5030480921e-02
 -1.5027638525e-02
 -1.5024796128e-02
 -1.5021952800e-02
 -1.5019110404e-02
 -1.5016267076e-02
 -1.5013424680e-02
 -1.5010581352e-02
 -1.5007738955e-02
 -1.5004896559e-02
 -1.5002053231e-02
 -1.4999210835e-02
 -1.4996367507e-02
 -1.4993525110e-02
 -1.4990682714e-02
 -1.4987839386e-02
 -1.4984996989e-02
 -1.4982153662e-02
 -1.4979311265e-02
 -1.4976468869e-02
 -1.4973625541e-02
 -1.4970783144e-02
 -1.4967939816e-02
 -1.4965097420e-02
 -1.4962255023e-02
 -1.4959411696e-02
 -1.4956569299e-02
 -1.4953725971e-02
 -1.4950883575e-02
 -1.4948041178e-02
 -1.4945197850e-02
 -1.4942355454e-02
 -1.4939512126e-02
 -1.4936669730e-02
 -1.4933827333e-02
 -1.4930984005e-02
 -1.4928141609e-02
 -1.4925298281e-02
 -1.4922455885e-02
 -1.4919613488e-02
 -1.4916770160e-02
 -1.4913927764e-02
 -1.4911084436e-02
 -1.4908242039e-02
 -1.4905399643e-02
 -1.4902556315e-02
 -1.4899713919e-02
 -1.4896870591e-02
 -1.4894028194e-02
 -1.4891185798e-02
 -1.4888342470e-02
 -1.4885500073e-02
 -1.4882656746e-02
 -1.4879814349e-02
 -1.4876971953e-02
 -1.4874128625e-02
 -1.4871286228e-02
 -1.4868442900e-02
 -1.4865600504e-02
 -1.4862757176e-02
 -1.4859914780e-02
 -1.4857072383e-02
 -1.4854229055e-02
 -1.4851386659e-02
 -1.4848543331e-02
 -1.4845700935e-02
 -1.4842858538e-02
 -1.4840015210e-02
 -1.4837172814e-02
 -1.4834329486e-02
 -1.4831487089e-02
 -1.4828644693e-02
 -1.4825801365e-02
 -1.4822958969e-02
 -1.4820115641e-02
 -1.4817273244e-02
 -1.4814430848e-02
 -1.4811587520e-02
 -1.4808745123e-02
 -1.4805901796e-02
 -1.4803059399e-02
 -1.4800217003e-02
 -1.4797373675e-02
 -1.4794531278e-02
 -1.4791687950e-02
 -1.4788845554e-02
 -1.4786003157e-02
 -1.4783159830e-02
 -1.4780317433e-02
 -1.4777474105e-02
 -1.4774631709e-02
 -1.4771789312e-02
 -1.4768945985e-02
 -1.4766103588e-02
 -1.4763260260e-02
 -1.4760417864e-02
 -1.4757575467e-02
 -1.4754732139e-02
 -1.4751889743e-02
 -1.4749046415e-02
 -1.4746204019e-02
 -1.4743361622e-02
 -1.4740518294e-02
 -1.4737675898e-02
 -1.4734832570e-02
 -1.4731990173e-02
 -1.4729147777e-02
 -1.4726304449e-02
 -1.4723462053e-02
 -1.4720618725e-02
 -1.4717776328e-02
 -1.4714933001e-02
 -1.4712090604e-02
 -1.4709248208e-02
 -1.4706404880e-02
 -1.4703562483e-02
 -1.4700719155e-02
 -1.4697876759e-02
 -1.4695034362e-02
 -1.4692191035e-02
 -1.4689348638e-02
 -1.4686505310e-02
 -1.4683662914e-02
 -1.4680820517e-02
 -1.4677977189e-02
 -1.4675134793e-02
 -1.4672291465e-02
 -1.4669449069e-02
 -1.4666606672e-02
 -1.4663763344e-02
 -1.4660920948e-02
 -1.4658077620e-02
 -1.4655235223e-02
 -1.4652392827e-02
 -1.4649549499e-02
 -1.4646707103e-02
 -1.4643863775e-02
 -1.4641021378e-02
 -1.4638178982e-02
 -1.4635335654e-02
 -1.4632493258e-02
 -1.4629649930e-02
 -1.4626807533e-02
 -1.4623965137e-02
 -1.4621121809e-02
 -1.4618279412e-02
 -1.4615436085e-02
 -1.4612593688e-02
 -1.4609751292e-02
 -1.4606907964e-02
 -1.4604065567e-02
 -1.4601222239e-02
 -1.4598379843e-02
 -1.4595537446e-02
 -1.4592694119e-02
 -1.4589851722e-02
 -1.4587008394e-02
 -1.4584165998e-02
 -1.4581323601e-02
 -1.4578480273e-02
 -1.4575637877e-02
 -1.4572794549e-02
 -1.4569952153e-02
 -1.4567108825e-02
 -1.4564266428e-02
 -1.4561424032e-02
 -1.4558580704e-02
 -1.4555738308e-02
 -1.4552894980e-02
 -1.4550052583e-02
 -1.4547210187e-02
 -1.4544366859e-02
 -1.4541524462e-02
 -1.4538681135e-02
 -1.4535838738e-02
 -1.4532996342e-02
 -1.4530153014e-02
 -1.4527310617e-02
 -1.4524467289e-02
 -1.4521624893e-02
 -1.4518782496e-02
 -1.4515939169e-02
 -1.4513096772e-02
 -1.4510253444e-02
 -1.4507411048e-02
 -1.4504568651e-02
 -1.4501725323e-02
 -1.4498882927e-02
 -1.4496039599e-02
 -1.4493197203e-02
 -1.4490354806e-02
 -1.4487511478e-02
 -1.4484669082e-02
 -1.4481825754e-02
 -1.4478983358e-02
 -1.4476140961e-02
 -1.4473297633e-02
 -1.4470455237e-02
 -1.4467611909e-02
 -1.4464769512e-02
 -1.4461927116e-02
 -1.4459083788e-02
 -1.4456241392e-02
 -1.4453398064e-02
 -1.4450555667e-02
 -1.4447713271e-02
 -1.4444869943e-02
 -1.4442027546e-02
 -1.4439184219e-02
 -1.4436341822e-02
 -1.4433499426e-02
 -1.4430656098e-02
 -1.4427813701e-02
 -1.4424970374e-02
 -1.4422127977e-02
 -1.4419284649e-02
 -1.4416442253e-02
 -1.4413599856e-02
 -1.4410756528e-02
 -1.4407914132e-02
 -1.4405070804e-02
 -1.4402228408e-02
 -1.4399386011e-02
 -1.4396542683e-02
 -1.4393700287e-02
 -1.4390856959e-02
 -1.4388014562e-02
 -1.4385172166e-02
 -1.4382328838e-02
 -1.4379486442e-02
 -1.4376643114e-02
 -1.4373800717e-02
 -1.4370958321e-02
 -1.4368114993e-02
 -1.4365272596e-02
 -1.4362429269e-02
 -1.4359586872e-02
 -1.4356744476e-02
 -1.4353901148e-02
 -1.4351058751e-02
 -1.4348215424e-02
 -1.4345373027e-02
 -1.4342530631e-02
 -1.4339687303e-02
 -1.4336844906e-02
 -1.4334001578e-02
 -1.4331159182e-02
 -1.4328316785e-02
 -1.4325473458e-02
 -1.4322631061e-02
 -1.4319787733e-02
 -1.4316945337e-02
 -1.4314102940e-02
 -1.4311259612e-02
 -1.4308417216e-02
 -1.4305573888e-02
 -1.4302731492e-02
 -1.4299889095e-02
 -1.4297045767e-02
 -1.4294203371e-02
 -1.4291360043e-02
 -1.4288517646e-02
 -1.4285675250e-02
 -1.4282831922e-02
 -1.4279989526e-02
 -1.4277146198e-02
 -1.4274303801e-02
 -1.4271460474e-02
 -1.4268618077e-02
 -1.4265775681e-02
 -1.4262932353e-02
 -1.4260089956e-02
 -1.4257246628e-02
 -1.4254404232e-02
 -1.4251561835e-02
 -1.4248718508e-02
 -1.4245876111e-02
 -1.4243032783e-02
 -1.4240190387e-02
 -1.4237347990e-02
 -1.4234504662e-02
 -1.4231662266e-02
 -1.4228818938e-02
 -1.4225976542e-02
 -1.4223134145e-02
 -1.4220290817e-02
 -1.4217448421e-02
 -1.4214605093e-02
 -1.4211762697e-02
 -1.4208920300e-02
 -1.4206076972e-02
 -1.4203234576e-02
 -1.4200391248e-02
 -1.4197548851e-02
 -1.4194706455e-02
 -1.4191863127e-02
 -1.4189020731e-02
 -1.4186177403e-02
 -1.4183335006e-02
 -1.4180492610e-02
 -1.4177649282e-02
 -1.4174806885e-02
 -1.4171963558e-02
 -1.4169121161e-02
 -1.4166278765e-02
 -1.4163435437e-02
 -1.4160593040e-02
 -1.4157749712e-02
 -1.4154907316e-02
 -1.4152064919e-02
 -1.4149221592e-02
 -1.4146379195e-02
 -1.4143535867e-02
 -1.4140693471e-02
 -1.4137851074e-02
 -1.4135007747e-02
 -1.4132165350e-02
 -1.4129322022e-02
 -1.4126479626e-02
 -1.4123637229e-02
 -1.4120793901e-02
 -1.4117951505e-02
 -1.4115108177e-02
 -1.4112265781e-02
 -1.4109422453e-02
 -1.4106580056e-02
 -1.4103737660e-02
 -1.4100894332e-02
 -1.4098051935e-02
 -1.4095208608e-02
 -1.4092366211e-02
 -1.4089523815e-02
 -1.4086680487e-02
 -1.4083838090e-02
 -1.4080994762e-02
 -1.4078152366e-02
 -1.4075309969e-02
 -1.4072466642e-02
 -1.4069624245e-02
 -1.4066780917e-02
 -1.4063938521e-02
 -1.4061096124e-02
 -1.4058252797e-02
 -1.4055410400e-02
 -1.4052567072e-02
 -1.4049724676e-02
 -1.4046882279e-02
 -1.4044038951e-02
 -1.4041196555e-02
 -1.4038353227e-02
 -1.4035510831e-02
 -1.4032668434e-02
 -1.4029825106e-02
 -1.4026982710e-02
 -1.4024139382e-02
 -1.4021296985e-02
 -1.4018454589e-02
 -1.4015611261e-02
 -1.4012768865e-02
 -1.4009925537e-02
 -1.4007083140e-02
 -1.4004240744e-02
 -1.4001397416e-02
 -1.3998555019e-02
 -1.3995711692e-02
 -1.3992869295e-02
 -1.3990026899e-02
 -1.3987183571e-02
 -1.3984341174e-02
 -1.3981497847e-02
 -1.3978655450e-02
 -1.3975813054e-02
 -1.3972969726e-02
 -1.3970127329e-02
 -1.3967284001e-02
 -1.3964441605e-02
 -1.3961598277e-02
 -1.3958755881e-02
 -1.3955913484e-02
 -1.3953070156e-02
 -1.3950227760e-02
 -1.3947384432e-02
 -1.3944542035e-02
 -1.3941699639e-02
 -1.3938856311e-02
 -1.3936013915e-02
 -1.3933170587e-02
 -1.3930328190e-02
 -1.3927485794e-02
 -1.3924642466e-02
 -1.3921800070e-02
 -1.3918956742e-02
 -1.3916114345e-02
 -1.3913271949e-02
 -1.3910428621e-02
 -1.3907586224e-02
 -1.3904742897e-02
 -1.3901900500e-02
 -1.3899058104e-02
 -1.3896214776e-02
 -1.3893372379e-02
 -1.3890529051e-02
