luts/V3_LogC_2560_to_linear.spi1d
Version 1
From 0 1
Length 65536
Components 1
{
 -1.8475187942e-02
 -1.8472151831e-02
 -1.8469113857e-02
 -1.8466077745e-02
 -1.8463041633e-02
 -1.8460003659e-02
 -1.8456967548e-02
 -1.8453931436e-02
 -1.8450893462e-02
 -1.8447857350e-02
 -1.8444821239e-02
 -1.8441783264e-02
 -1.8438747153e-02
 -1.8435711041e-02
 -1.8432673067e-02
 -1.8429636955e-02
 -1.8426600844e-02
 -1.8423562869e-02
 -1.8420526758e-02
 -1.8417490646e-02
 -1.8414452672e-02
 -1.8411416560e-02
 -1.8408380449e-02
 -1.8405342475e-02
 -1.8402306363e-02
 -1.8399270251e-02
 -1.8396232277e-02
 -1.8393196166e-02
 -1.8390160054e-02
 -1.8387122080e-02
 -1.8384085968e-02
 -1.8381049857e-02
 -1.8378011882e-02
 -1.8374975771e-02
 -1.8371939659e-02
 -1.8368901685e-02
 -1.8365865573e-02
 -1.8362829462e-02
 -1.8359791487e-02
 -1.8356755376e-02
 -1.8353719264e-02
 -1.8350681290e-02
 -1.8347645178e-02
 -1.8344609067e-02
 -1.8341571093e-02
 -1.8338534981e-02
 -1.8335498869e-02
 -1.8332460895e-02
 -1.8329424784e-02
 -1.8326388672e-02
 -1.8323350698e-02
 -1.8320314586e-02
 -1.8317278475e-02
 -1.8314240500e-02
 -1.8311204389e-02
 -1.8308168277e-02
 -1.8305130303e-02
 -1.8302094191e-02
 -1.8299058080e-02
 -1.8296020105e-02
 -1.8292983994e-02
 -1.8289947882e-02
 -1.8286909908e-02
 -1.8283873796e-02
 -1.8280837685e-02
 -1.8277799711e-02
 -1.8274763599e-02
 -1.8271727487e-02
 -1.8268689513e-02
 -1.8265653402e-02
 -1.8262617290e-02
 -1.8259579316e-02
 -1.8256543204e-02
 -1.8253507093e-02
 -1.8250469118e-02
 -1.8247433007e-02
 -1.8244396895e-02
 -1.8241358921e-02
 -1.8238322809e-02
 -1.8235286698e-02
 -1.8232248724e-02
 -1.8229212612e-02
 -1.8226176500e-02
 -1.8223138526e-02
 -1.8220102414e-02
 -1.8217066303e-02
 -1.8214028329e-02
 -1.8210992217e-02
 -1.8207956105e-02
 -1.8204918131e-02
 -1.8201882020e-02
 -1.8198845908e-02
 -1.8195807934e-02
 -1.8192771822e-02
 -1.8189735711e-02
 -1.8186697736e-02
 -1.8183661625e-02
 -1.8180625513e-02
 -1.8177587539e-02
 -1.8174551427e-02
 -1.8171515316e-02
 -1.8168477342e-02
 -1.8165441230e-02
 -1.8162405118e-02
 -1.8159367144e-02
 -1.8156331033e-02
 -1.8153294921e-02
 -1.8150256947e-02
 -1.8147220835e-02
 -1.8144184723e-02
 -1.8141146749e-02
 -1.8138110638e-02
 -1.8135074526e-02
 -1.8132036552e-02
 -1.8129000440e-02
 -1.8125964329e-02
 -1.8122926354e-02
 -1.8119890243e-02
 -1.8116854131e-02
 -1.8113816157e-02
 -1.8110780045e-02
 -1.8107743934e-02
 -1.8104705960e-02
 -1.8101669848e-02
 -1.8098633736e-02
 -1.8095595762e-02
 -1.8092559651e-02
 -1.8089523539e-02
 -1.8086485565e-02
 -1.8083449453e-02
 -1.8080413342e-02
 -1.8077375367e-02
 -1.8074339256e-02
 -1.8071303144e-02
 -1.8068265170e-02
 -1.8065229058e-02
 -1.8062192947e-02
 -1.8059154972e-02
 -1.8056118861e-02
 -1.8053082749e-02
 -1.8050044775e-02
 -1.8047008663e-02
 -1.8043972552e-02
 -1.8040934578e-02
 -1.8037898466e-02
 -1.8034862354e-02
 -1.8031824380e-02
 -1.8028788269e-02
 -1.8025752157e-02
 -1.8022714183e-02
 -1.8019678071e-02
 -1.8016641960e-02
 -1.8013603985e-02
 -1.8010567874e-02
 -1.8007531762e-02
 -1.8004493788e-02
 -1.8001457676e-02
 -1.7998421565e-02
 -1.7995383590e-02
 -1.7992347479e-02
 -1.7989311367e-02
 -1.7986273393e-02
 -1.7983237281e-02
 -1.7980201170e-02
 -1.7977163196e-02
 -1.7974127084e-02
 -1.7971090972e-02
 -1.7968052998e-02
 -1.7965016887e-02
 -1.7961980775e-02
 -1.7958942801e-02
 -1.7955906689e-02
 -1.7952870578e-02
 -1.7949832603e-02
 -1.7946796492e-02
 -1.7943760380e-02
 -1.7940722406e-02
 -1.7937686294e-02
 -1.7934650183e-02
 -1.7931612208e-02
 -1.7928576097e-02
 -1.7925539985e-02
 -1.7922502011e-02
 -1.7919465899e-02
 -1.7916429788e-02
 -1.7913391814e-02
 -1.7910355702e-02
 -1.7907319590e-02
 -1.7904281616e-02
 -1.7901245505e-02
 -1.7898209393e-02
 -1.7895171419e-02
 -1.7892135307e-02
 -1.7889099196e-02
 -1.7886061221e-02
 -1.7883025110e-02
 -1.7879988998e-02
 -1.7876951024e-02
 -1.7873914912e-02
 -1.7870878801e-02
 -1.7867840827e-02
 -1.7864804715e-02
 -1.7861768603e-02
 -1.7858730629e-02
 -1.7855694517e-02
 -1.7852658406e-02
 -1.7849620432e-02
 -1.7846584320e-02
 -1.7843548208e-02
 -1.7840510234e-02
 -1.7837474123e-02
 -1.7834438011e-02
 -1.7831400037e-02
 -1.7828363925e-02
 -1.7825327814e-02
 -1.7822289839e-02
 -1.7819253728e-02
 -1.7816217616e-02
 -1.7813179642e-02
 -1.7810143530e-02
 -1.7807107419e-02
 -1.7804069445e-02
 -1.7801033333e-02
 -1.7797997221e-02
 -1.7794959247e-02
 -1.7791923136e-02
 -1.7788887024e-02
 -1.7785849050e-02
 -1.7782812938e-02
 -1.7779776827e-02
 -1.7776738852e-02
 -1.7773702741e-02
 -1.7770666629e-02
 -1.7767628655e-02
 -1.7764592543e-02
 -1.7761556432e-02
 -1.7758518457e-02
 -1.7755482346e-02
 -1.7752446234e-02
 -1.7749408260e-02
 -1.7746372148e-02
 -1.7743336037e-02
 -1.7740298063e-02
 -1.7737261951e-02
 -1.7734225839e-02
 -1.7731187865e-02
 -1.7728151754e-02
 -1.7725115642e-02
 -1.7722077668e-02
 -1.7719041556e-02
 -1.7716005445e-02
 -1.7712967470e-02
 -1.7709931359e-02
 -1.7706895247e-02
 -1.7703857273e-02
 -1.7700821161e-02
 -1.7697785050e-02
 -1.7694747075e-02
 -1.7691710964e-02
 -1.7688674852e-02
 -1.7685636878e-02
 -1.7682600766e-02
 -1.7679564655e-02
 -1.7676526681e-02
 -1.7673490569e-02
 -1.7670454457e-02
 -1.7667416483e-02
 -1.7664380372e-02
 -1.7661344260e-02
 -1.7658306286e-02
 -1.7655270174e-02
 -1.7652234063e-02
 -1.7649196088e-02
 -1.7646159977e-02
 -1.7643123865e-02
 -1.7640085891e-02
 -1.7637049779e-02
 -1.7634013668e-02
 -1.7630975693e-02
 -1.7627939582e-02
 -1.7624903470e-02
 -1.7621865496e-02
 -1.7618829384e-02
 -1.7615793273e-02
 -1.7612755299e-02
 -1.7609719187e-02
 -1.7606683075e-02
 -1.7603645101e-02
 -1.7600608990e-02
 -1.7597572878e-02
 -1.7594534904e-02
 -1.7591498792e-02
 -1.7588462681e-02
 -1.7585424706e-02
 -1.7582388595e-02
 -1.7579352483e-02
 -1.7576314509e-02
 -1.7573278397e-02
 -1.7570242286e-02
 -1.7567204311e-02
 -1.7564168200e-02
 -1.7561132088e-02
 -1.7558094114e-02
 -1.7555058002e-02
 -1.7552021891e-02
 -1.7548983917e-02
 -1.7545947805e-02
 -1.7542911693e-02
 -1.7539873719e-02
 -1.7536837608e-02
 -1.7533801496e-02
 -1.7530763522e-02
 -1.7527727410e-02
 -1.7524691299e-02
 -1.7521653324e-02
 -1.7518617213e-02
 -1.7515581101e-02
 -1.7512543127e-02
 -1.7509507015e-02
 -1.7506470904e-02
 -1.7503432930e-02
 -1.7500396818e-02
 -1.7497360706e-02
 -1.7494322732e-02
 -1.7491286620e-02
 -1.7488250509e-02
 -1.7485212535e-02
 -1.7482176423e-02
 -1.7479140311e-02
 -1.7476102337e-02
 -1.7473066226e-02
 -1.7470030114e-02
 -1.7466992140e-02
 -1.7463956028e-02
 -1.7460919917e-02
 -1.7457881942e-02
 -1.7454845831e-02
 -1.7451809719e-02
 -1.7448771745e-02
 -1.7445735633e-02
 -1.7442699522e-02
 -1.7439661548e-02
 -1.7436625436e-02
 -1.7433589324e-02
 -1.7430551350e-02
 -1.7427515239e-02
 -1.7424479127e-02
 -1.7421441153e-02
 -1.7418405041e-02
 -1.7415368930e-02
 -1.7412330955e-02
 -1.7409294844e-02
 -1.7406258732e-02
 -1.7403220758e-02
 -1.7400184646e-02
 -1.7397148535e-02
 -1.7394110560e-02
 -1.7391074449e-02
 -1.7388038337e-02
 -1.7385000363e-02
 -1.7381964251e-02
 -1.7378928140e-02
 -1.7375890166e-02
 -1.7372854054e-02
 -1.7369817942e-02
 -1.7366779968e-02
 -1.7363743857e-02
 -1.7360707745e-02
 -1.7357669771e-02
 -1.7354633659e-02
 -1.7351597548e-02
 -1.7348559573e-02
 -1.7345523462e-02
 -1.7342487350e-02
 -1.7339449376e-02
 -1.7336413264e-02
 -1.7333377153e-02
 -1.7330339178e-02
 -1.7327303067e-02
 -1.7324266955e-02
 -1.7321228981e-02
 -1.7318192869e-02
 -1.7315156758e-02
 -1.7312118784e-02
 -1.7309082672e-02
 -1.7306046560e-02
 -1.7303008586e-02
 -1.7299972475e-02
 -1.7296936363e-02
 -1.7293898389e-02
 -1.7290862277e-02
 -1.7287826166e-02
 -1.7284788191e-02
 -1.7281752080e-02
 -1.7278715968e-02
 -1.7275677994e-02
 -1.7272641882e-02
 -1.7269605771e-02
 -1.7266567796e-02
 -1.7263531685e-02
 -1.7260495573e-02
 -1.7257457599e-02
 -1.7254421487e-02
 -1.7251385376e-02
 -1.7248347402e-02
 -1.7245311290e-02
 -1.7242275178e-02
 -1.7239237204e-02
 -1.7236201093e-02
 -1.7233164981e-02
 -1.7230127007e-02
 -1.7227090895e-02
 -1.7224054784e-02
 -1.7221016809e-02
 -1.7217980698e-02
 -1.7214944586e-02
 -1.7211906612e-02
 -1.7208870500e-02
 -1.7205834389e-02
 -1.7202796414e-02
 -1.7199760303e-02
 -1.7196724191e-02
 -1.7193686217e-02
 -1.7190650105e-02
 -1.7187613994e-02
 -1.7184576020e-02
 -1.7181539908e-02
 -1.7178503796e-02
 -1.7175465822e-02
 -1.7172429711e-02
 -1.7169393599e-02
 -1.7166355625e-02
 -1.7163319513e-02
 -1.7160283402e-02
 -1.7157245427e-02
 -1.7154209316e-02
 -1.7151173204e-02
 -1.7148135230e-02
 -1.7145099118e-02
 -1.7142063007e-02
 -1.7139025033e-02
 -1.7135988921e-02
 -1.7132952809e-02
 -1.7129914835e-02
 -1.7126878724e-02
 -1.7123842612e-02
 -1.7120804638e-02
 -1.7117768526e-02
 -1.7114732414e-02
 -1.7111694440e-02
 -1.7108658329e-02
 -1.7105622217e-02
 -1.7102584243e-02
 -1.7099548131e-02
 -1.7096512020e-02
 -1.7093474045e-02
 -1.7090437934e-02
 -1.7087401822e-02
 -1.7084363848e-02
 -1.7081327736e-02
 -1.7078291625e-02
 -1.7075253651e-02
 -1.7072217539e-02
 -1.7069181427e-02
 -1.7066143453e-02
 -1.7063107342e-02
 -1.7060071230e-02
 -1.7057033256e-02
 -1.7053997144e-02
 -1.7050961033e-02
 -1.7047923058e-02
 -1.7044886947e-02
 -1.7041850835e-02
 -1.7038812861e-02
 -1.7035776749e-02
 -1.7032740638e-02
 -1.7029702663e-02
 -1.7026666552e-02
 -1.7023630440e-02
 -1.7020592466e-02
 -1.7017556354e-02
 -1.7014520243e-02
 -1.7011482269e-02
 -1.7008446157e-02
 -1.7005410045e-02
 -1.7002372071e-02
 -1.6999335960e-02
 -1.6996299848e-02
 -1.6993261874e-02
 -1.6990225762e-02
 -1.6987189651e-02
 -1.6984151676e-02
 -1.6981115565e-02
 -1.6978079453e-02
 -1.6975041479e-02
 -1.6972005367e-02
 -1.6968969256e-02
 -1.6965931281e-02
 -1.6962895170e-02
 -1.6959859058e-02
 -1.6956821084e-02
 -1.6953784972e-02
 -1.6950748861e-02
 -1.6947710887e-02
 -1.6944674775e-02
 -1.6941638663e-02
 -1.6938600689e-02
 -1.6935564578e-02
 -1.6932528466e-02
 -1.6929490492e-02
 -1.6926454380e-02
 -1.6923418269e-02
 -1.6920380294e-02
 -1.6917344183e-02
 -1.6914308071e-02
 -1.6911270097e-02
 -1.6908233985e-02
 -1.6905197874e-02
 -1.6902159899e-02
 -1.6899123788e-02
 -1.6896087676e-02
 -1.6893049702e-02
 -1.6890013590e-02
 -1.6886977479e-02
 -1.6883939505e-02
 -1.6880903393e-02
 -1.6877867281e-02
 -1.6874829307e-02
 -1.6871793196e-02
 -1.6868757084e-02
 -1.6865719110e-02
 -1.6862682998e-02
 -1.6859646887e-02
 -1.6856608912e-02
 -1.6853572801e-02
 -1.6850536689e-02
 -1.6847498715e-02
 -1.6844462603e-02
 -1.6841426492e-02
 -1.6838388517e-02
 -1.6835352406e-02
 -1.6832316294e-02
 -1.6829278320e-02
 -1.6826242208e-02
 -1.6823206097e-02
 -1.6820168123e-02
 -1.6817132011e-02
 -1.6814095899e-02
 -1.6811057925e-02
 -1.6808021814e-02
 -1.6804985702e-02
 -1.6801947728e-02
 -1.6798911616e-02
 -1.6795875505e-02
 -1.6792837530e-02
 -1.6789801419e-02
 -1.6786765307e-02
 -1.6783727333e-02
 -1.6780691221e-02
 -1.6777655110e-02
 -1.6774617136e-02
 -1.6771581024e-02
 -1.6768544912e-02
 -1.6765506938e-02
 -1.6762470827e-02
 -1.6759434715e-02
 -1.6756396741e-02
 -1.6753360629e-02
 -1.6750324517e-02
 -1.6747286543e-02
 -1.6744250432e-02
 -1.6741214320e-02
 -1.6738176346e-02
 -1.6735140234e-02
 -1.6732104123e-02
 -1.6729066148e-02
 -1.6726030037e-02
 -1.6722993925e-02
 -1.6719955951e-02
 -1.6716919839e-02
 -1.6713883728e-02
 -1.6710845754e-02
 -1.6707809642e-02
 -1.6704773530e-02
 -1.6701735556e-02
 -1.6698699445e-02
 -1.6695663333e-02
 -1.6692625359e-02
 -1.6689589247e-02
 -1.6686553136e-02
 -1.6683515161e-02
 -1.6680479050e-02
 -1.6677442938e-02
 -1.6674404964e-02
 -1.6671368852e-02
 -1.6668332741e-02
 -1.6665294766e-02
 -1.6662258655e-02
 -1.6659222543e-02
 -1.6656184569e-02
 -1.6653148457e-02
 -1.6650112346e-02
 -1.6647074372e-02
 -1.6644038260e-02
 -1.6641002148e-02
 -1.6637964174e-02
 -1.6634928063e-02
 -1.6631891951e-02
 -1.6628853977e-02
 -1.6625817865e-02
 -1.6622781754e-02
 -1.6619743779e-02
 -1.6616707668e-02
 -1.6613671556e-02
 -1.6610633582e-02
 -1.6607597470e-02
 -1.6604561359e-02
 -1.6601523384e-02
 -1.6598487273e-02
 -1.6595451161e-02
 -1.6592413187e-02
 -1.6589377075e-02
 -1.6586340964e-02
 -1.6583302990e-02
 -1.6580266878e-02
 -1.6577230766e-02
 -1.6574192792e-02
 -1.6571156681e-02
 -1.6568120569e-02
 -1.6565082595e-02
 -1.6562046483e-02
 -1.6559010372e-02
 -1.6555972397e-02
 -1.6552936286e-02
 -1.6549900174e-02
 -1.6546862200e-02
 -1.6543826088e-02
 -1.6540789977e-02
 -1.6537752002e-02
 -1.6534715891e-02
 -1.6531679779e-02
 -1.6528641805e-02
 -1.6525605693e-02
 -1.6522569582e-02
 -1.6519531608e-02
 -1.6516495496e-02
 -1.6513459384e-02
 -1.6510421410e-02
 -1.6507385299e-02
 -1.6504349187e-02
 -1.6501311213e-02
 -1.6498275101e-02
 -1.6495238990e-02
 -1.6492201015e-02
 -1.6489164904e-02
 -1.6486128792e-02
 -1.6483090818e-02
 -1.6480054706e-02
 -1.6477018595e-02
 -1.6473980621e-02
 -1.6470944509e-02
 -1.6467908397e-02
 -1.6464870423e-02
 -1.6461834311e-02
 -1.6458798200e-02
 -1.6455760226e-02
 -1.6452724114e-02
 -1.6449688002e-02
 -1.6446650028e-02
 -1.6443613917e-02
 -1.6440577805e-02
 -1.6437539831e-02
 -1.6434503719e-02
 -1.6431467608e-02
 -1.6428429633e-02
 -1.6425393522e-02
 -1.6422357410e-02
 -1.6419319436e-02
 -1.6416283324e-02
 -1.6413247213e-02
 -1.6410209239e-02
 -1.6407173127e-02
 -1.6404137015e-02
 -1.6401099041e-02
 -1.6398062930e-02
 -1.6395026818e-02
 -1.6391988844e-02
 -1.6388952732e-02
 -1.6385916620e-02
 -1.6382878646e-02
 -1.6379842535e-02
 -1.6376806423e-02
 -1.6373768449e-02
 -1.6370732337e-02
 -1.6367696226e-02
 -1.6364658251e-02
 -1.6361622140e-02
 -1.6358586028e-02
 -1.6355548054e-02
 -1.6352511942e-02
 -1.6349475831e-02
 -1.6346437857e-02
 -1.6343401745e-02
 -1.6340365633e-02
 -1.6337327659e-02
 -1.6334291548e-02
 -1.6331255436e-02
 -1.6328217462e-02
 -1.6325181350e-02
 -1.6322145239e-02
 -1.6319107264e-02
 -1.6316071153e-02
 -1.6313035041e-02
 -1.6309997067e-02
 -1.6306960955e-02
 -1.6303924844e-02
 -1.6300886869e-02
 -1.6297850758e-02
 -1.6294814646e-02
 -1.6291776672e-02
 -1.6288740560e-02
 -1.6285704449e-02
 -1.6282666475e-02
 -1.6279630363e-02
 -1.6276594251e-02
 -1.6273556277e-02
 -1.6270520166e-02
 -1.6267484054e-02
 -1.6264446080e-02
 -1.6261409968e-02
 -1.6258373857e-02
 -1.6255335882e-02
 -1.6252299771e-02
 -1.6249263659e-02
 -1.6246225685e-02
 -1.6243189573e-02
 -1.6240153462e-02
 -1.6237115487e-02
 -1.6234079376e-02
 -1.6231043264e-02
 -1.6228005290e-02
 -1.6224969178e-02
 -1.6221933067e-02
 -1.6218895093e-02
 -1.6215858981e-02
 -1.6212822869e-02
 -1.6209784895e-02
 -1.6206748784e-02
 -1.6203712672e-02
 -1.6200674698e-02
 -1.6197638586e-02
 -1.6194602475e-02
 -1.6191564500e-02
 -1.6188528389e-02
 -1.6185492277e-02
 -1.6182454303e-02
 -1.6179418191e-02
 -1.6176382080e-02
 -1.6173344105e-02
 -1.6170307994e-02
 -1.6167271882e-02
 -1.6164233908e-02
 -1.6161197796e-02
 -1.6158161685e-02
 -1.6155123711e-02
 -1.6152087599e-02
 -1.6149051487e-02
 -1.6146013513e-02
 -1.6142977402e-02
 -1.6139941290e-02
 -1.6136903316e-02
 -1.6133867204e-02
 -1.6130831093e-02
 -1.6127793118e-02
 -1.6124757007e-02
 -1.6121720895e-02
 -1.6118682921e-02
 -1.6115646809e-02
 -1.6112610698e-02
 -1.6109572724e-02
 -1.6106536612e-02
 -1.6103500500e-02
 -1.6100462526e-02
 -1.6097426414e-02
 -1.6094390303e-02
 -1.6091352329e-02
 -1.6088316217e-02
 -1.6085280105e-02
 -1.6082242131e-02
 -1.6079206020e-02
 -1.6076169908e-02
 -1.6073131934e-02
 -1.6070095822e-02
 -1.6067059711e-02
 -1.6064021736e-02
 -1.6060985625e-02
 -1.6057949513e-02
 -1.6054911539e-02
 -1.6051875427e-02
 -1.6048839316e-02
 -1.6045801342e-02
 -1.6042765230e-02
 -1.6039729118e-02
 -1.6036691144e-02
 -1.6033655033e-02
 -1.6030618921e-02
 -1.6027580947e-02
 -1.6024544835e-02
 -1.6021508723e-02
 -1.6018470749e-02
 -1.6015434638e-02
 -1.6012398526e-02
 -1.6009360552e-02
 -1.6006324440e-02
 -1.6003288329e-02
 -1.6000250354e-02
 -1.5997214243e-02
 -1.5994178131e-02
 -1.5991140157e-02
 -1.5988104045e-02
 -1.5985067934e-02
 -1.5982029960e-02
 -1.5978993848e-02
 -1.5975957736e-02
 -1.5972919762e-02
 -1.5969883651e-02
 -1.5966847539e-02
 -1.5963809565e-02
 -1.5960773453e-02
 -1.5957737342e-02
 -1.5954699367e-02
 -1.5951663256e-02
 -1.5948627144e-02
 -1.5945589170e-02
 -1.5942553058e-02
 -1.5939516947e-02
 -1.5936478972e-02
 -1.5933442861e-02
 -1.5930406749e-02
 -1.5927368775e-02
 -1.5924332663e-02
 -1.5921296552e-02
 -1.5918258578e-02
 -1.5915222466e-02
 -1.5912186354e-02
 -1.5909148380e-02
 -1.5906112269e-02
 -1.5903076157e-02
 -1.5900038183e-02
 -1.5897002071e-02
 -1.5893965960e-02
 -1.5890927985e-02
 -1.5887891874e-02
 -1.5884855762e-02
 -1.5881817788e-02
 -1.5878781676e-02
 -1.5875745565e-02
 -1.5872707590e-02
 -1.5869671479e-02
 -1.5866635367e-02
 -1.5863597393e-02
 -1.5860561281e-02
 -1.5857525170e-02
 -1.5854487196e-02
 -1.5851451084e-02
 -1.5848414972e-02
 -1.5845376998e-02
 -1.5842340887e-02
 -1.5839304775e-02
 -1.5836266801e-02
 -1.5833230689e-02
 -1.5830194578e-02
 -1.5827156603e-02
 -1.5824120492e-02
 -1.5821084380e-02
 -1.5818046406e-02
 -1.5815010294e-02
 -1.5811974183e-02
 -1.5808936208e-02
 -1.5805900097e-02
 -1.5802863985e-02
 -1.5799826011e-02
 -1.5796789899e-02
 -1.5793753788e-02
 -1.5790715814e-02
 -1.5787679702e-02
 -1.5784643590e-02
 -1.5781605616e-02
 -1.5778569505e-02
 -1.5775533393e-02
 -1.5772495419e-02
 -1.5769459307e-02
 -1.5766423196e-02
 -1.5763385221e-02
 -1.5760349110e-02
 -1.5757312998e-02
 -1.5754275024e-02
 -1.5751238912e-02
 -1.5748202801e-02
 -1.5745164827e-02
 -1.5742128715e-02
 -1.5739092603e-02
 -1.5736054629e-02
 -1.5733018517e-02
 -1.5729982406e-02
 -1.5726944432e-02
 -1.5723908320e-02
 -1.5720872208e-02
 -1.5717834234e-02
 -1.5714798123e-02
 -1.5711762011e-02
 -1.5708724037e-02
 -1.5705687925e-02
 -1.5702651814e-02
 -1.5699613839e-02
 -1.5696577728e-02
 -1.5693541616e-02
 -1.5690503642e-02
 -1.5687467530e-02
 -1.5684431419e-02
 -1.5681393445e-02
 -1.5678357333e-02
 -1.5675321221e-02
 -1.5672283247e-02
 -1.5669247136e-02
 -1.5666211024e-02
 -1.5663173050e-02
 -1.5660136938e-02
 -1.5657100827e-02
 -1.5654062852e-02
 -1.5651026741e-02
 -1.5647990629e-02
 -1.5644952655e-02
 -1.5641916543e-02
 -1.5638880432e-02
 -1.5635842457e-02
 -1.5632806346e-02
 -1.5629770234e-02
 -1.5626732260e-02
 -1.5623696148e-02
 -1.5620660037e-02
 -1.5617622994e-02
 -1.5614585951e-02
 -1.5611549839e-02
 -1.5608512796e-02
 -1.5605475754e-02
 -1.5602439642e-02
 -1.5599402599e-02
 -1.5596365556e-02
 -1.5593329445e-02
 -1.5590292402e-02
 -1.5587255359e-02
 -1.5584219247e-02
 -1.5581182204e-02
 -1.5578145161e-02
 -1.5575109050e-02
 -1.5572072007e-02
 -1.5569034964e-02
 -1.5565998852e-02
 -1.5562961809e-02
 -1.5559924766e-02
 -1.5556888655e-02
 -1.5553851612e-02
 -1.5550814569e-02
 -1.5547778457e-02
 -1.5544741414e-02
 -1.5541704372e-02
 -1.5538668260e-02
 -1.5535631217e-02
 -1.5532594174e-02
 -1.5529558063e-02
 -1.5526521020e-02
 -1.5523483977e-02
 -1.5520447865e-02
 -1.5517410822e-02
 -1.5514373779e-02
 -1.5511337668e-02
 -1.5508300625e-02
 -1.5505263582e-02
 -1.5502227470e-02
 -1.5499190427e-02
 -1.5496153384e-02
 -1.5493117273e-02
 -1.5490080230e-02
 -1.5487043187e-02
 -1.5484007075e-02
 -1.5480970033e-02
 -1.5477932990e-02
 -1.5474896878e-02
 -1.5471859835e-02
 -1.5468822792e-02
 -1.5465786681e-02
 -1.5462749638e-02
 -1.5459712595e-02
 -1.5456676483e-02
 -1.5453639440e-02
 -1.5450602397e-02
 -1.5447566286e-02
 -1.5444529243e-02
 -1.5441492200e-02
 -1.5438456088e-02
 -1.5435419045e-02
 -1.5432382002e-02
 -1.5429345891e-02
 -1.5426308848e-02
 -1.5423271805e-02
 -1.5420235693e-02
 -1.5417198651e-02
 -1.5414161608e-02
 -1.5411125496e-02
 -1.5408088453e-02
 -1.5405051410e-02
 -1.5402015299e-02
 -1.5398978256e-02
 -1.5395941213e-02
 -1.5392905101e-02
 -1.5389868058e-02
 -1.5386831015e-02
 -1.5383794904e-02
 -1.5380757861e-02
 -1.5377720818e-02
 -1.5374684706e-02
 -1.5371647663e-02
 -1.5368610620e-02
 -1.5365574509e-02
 -1.5362537466e-02
 -1.5359500423e-02
 -1.5356464311e-02
 -1.5353427269e-02
 -1.5350390226e-02
 -1.5347354114e-02
 -1.5344317071e-02
 -1.5341280028e-02
 -1.5338243917e-02
 -1.5335206874e-02
 -1.5332169831e-02
 -1.5329133719e-02
 -1.5326096676e-02
 -1.5323059633e-02
 -1.5320023522e-02
 -1.5316986479e-02
 -1.5313949436e-02
 -1.5310913324e-02
 -1.5307876281e-02
 -1.5304839239e-02
 -1.5301803127e-02
 -1.5298766084e-02
 -1.5295729041e-02
 -1.5292692930e-02
 -1.5289655887e-02
 -1.5286618844e-02
 -1.5283582732e-02
 -1.5280545689e-02
 -1.5277508646e-02
 -1.5274472535e-02
 -1.5271435492e-02
 -1.5268398449e-02
 -1.5265362337e-02
 -1.5262325294e-02
 -1.5259288251e-02
 -1.5256252140e-02
 -1.5253215097e-02
 -1.5250178054e-02
 -1.5247141942e-02
 -1.5244104899e-02
 -1.5241067857e-02
 -1.5238031745e-02
 -1.5234994702e-02
 -1.5231957659e-02
 -1.5228921548e-02
 -1.5225884505e-02
 -1.5222847462e-02
 -1.5219811350e-02
 -1.5216774307e-02
 -1.5213737264e-02
 -1.5210701153e-02
 -1.5207664110e-02
 -1.5204627067e-02
 -1.5201590955e-02
 -1.5198553912e-02
 -1.5195516869e-02
 -1.5192480758e-02
 -1.5189443715e-02
 -1.5186406672e-02
 -1.5183370560e-02
 -1.5180333517e-02
 -1.5177296475e-02
 -1.5174260363e-02
 -1.5171223320e-02
 -1.5168186277e-02
 -1.5165150166e-02
 -1.5162113123e-02
 -1.5159076080e-02
 -1.5156039968e-02
 -1.5153002925e-02
 -1.5149965882e-02
 -1.5146929771e-02
 -1.5143892728e-02
 -1.5140855685e-02
 -1.5137819573e-02
 -1.5134782530e-02
 -1.5131745487e-02
 -1.5128709376e-02
 -1.5125672333e-02
 -1.5122635290e-02
 -1.5119599178e-02
 -1.5116562136e-02
 -1.5113525093e-02
 -1.5110488981e-02
 -1.5107451938e-02
 -1.5104414895e-02
 -1.5101378784e-02
 -1.5098341741e-02
 -1.5095304698e-02
 -1.5092268586e-02
 -1.5089231543e-02
 -1.5086194500e-02
 -1.5083158389e-02
 -1.5080121346e-02
 -1.5077084303e-02
 -1.5074048191e-02
 -1.5071011148e-02
 -1.5067974105e-02
 -1.5064937994e-02
 -1.5061900951e-02
 -1.5058863908e-02
 -1.5055827796e-02
 -1.5052790754e-02
 -1.5049753711e-02
 -1.5046717599e-02
 -1.5043680556e-02
 -1.5040643513e-02
 -1.5037607402e-02
 -1.5034570359e-02
 -1.5031533316e-02
 -1.5028497204e-02
 -1.5025460161e-02
 -1.5022423118e-02
 -1.5019387007e-02
 -1.5016349964e-02
 -1.5013312921e-02
 -1.5010276809e-02
 -1.5007239766e-02
 -1.5004202724e-02
 -1.5001166612e-02
 -1.4998129569e-02
 -1.4995092526e-02
 -1.4992056414e-02
 -1.4989019372e-02
 -1.4985982329e-02
 -1.4982946217e-02
 -1.4979909174e-02
 -1.4976872131e-02
 -1.4973836020e-02
 -1.4970798977e-02
 -1.4967761934e-02
 -1.4964725822e-02
 -1.4961688779e-02
 -1.4958651736e-02
 -1.4955615625e-02
 -1.4952578582e-02
 -1.4949541539e-02
 -1.4946505427e-02
 -1.4943468384e-02
 -1.4940431342e-02
 -1.4937395230e-02
 -1.4934358187e-02
 -1.4931321144e-02
 -1.4928285033e-02
 -1.4925247990e-02
 -1.4922210947e-02
 -1.4919174835e-02
 -1.4916137792e-02
 -1.4913100749e-02
 -1.4910064638e-02
 -1.4907027595e-02
 -1.4903990552e-02
 -1.4900954440e-02
 -1.4897917397e-02
 -1.4894880354e-02
 -1.4891844243e-02
 -1.4888807200e-02
 -1.4885770157e-02
 -1.4882734045e-02
 -1.4879697002e-02
 -1.4876659960e-02
 -1.4873623848e-02
 -1.4870586805e-02
 -1.4867549762e-02
 -1.4864513651e-02
 -1.4861476608e-02
 -1.4858439565e-02
 -1.4855403453e-02
 -1.4852366410e-02
 -1.4849329367e-02
 -1.4846293256e-02
 -1.4843256213e-02
