luts/V3_LogC_160_to_linear.spi1d
Version 1
From 0 1
Length 65536
Components 1
{
 -1.5881121159e-02
 -1.5878509730e-02
 -1.5875896439e-02
 -1.5873285010e-02
 -1.5870673582e-02
 -1.5868062153e-02
 -1.5865448862e-02
 -1.5862837434e-02
 -1.5860226005e-02
 -1.5857612714e-02
 -1.5855001286e-02
 -1.5852389857e-02
 -1.5849778429e-02
 -1.5847165138e-02
 -1.5844553709e-02
 -1.5841942281e-02
 -1.5839330852e-02
 -1.5836717561e-02
 -1.5834106132e-02
 -1.5831494704e-02
 -1.5828881413e-02
 -1.5826269984e-02
 -1.5823658556e-02
 -1.5821047127e-02
 -1.5818433836e-02
 -1.5815822408e-02
 -1.5813210979e-02
 -1.5810599551e-02
 -1.5807986259e-02
 -1.5805374831e-02
 -1.5802763402e-02
 -1.5800150111e-02
 -1.5797538683e-02
 -1.5794927254e-02
 -1.5792315826e-02
 -1.5789702535e-02
 -1.5787091106e-02
 -1.5784479678e-02
 -1.5781868249e-02
 -1.5779254958e-02
 -1.5776643530e-02
 -1.5774032101e-02
 -1.5771418810e-02
 -1.5768807381e-02
 -1.5766195953e-02
 -1.5763584524e-02
 -1.5760971233e-02
 -1.5758359805e-02
 -1.5755748376e-02
 -1.5753136948e-02
 -1.5750523657e-02
 -1.5747912228e-02
 -1.5745300800e-02
 -1.5742687508e-02
 -1.5740076080e-02
 -1.5737464651e-02
 -1.5734853223e-02
 -1.5732239932e-02
 -1.5729628503e-02
 -1.5727017075e-02
 -1.5724405646e-02
 -1.5721792355e-02
 -1.5719180927e-02
 -1.5716569498e-02
 -1.5713958070e-02
 -1.5711344779e-02
 -1.5708733350e-02
 -1.5706121922e-02
 -1.5703508630e-02
 -1.5700897202e-02
 -1.5698285773e-02
 -1.5695674345e-02
 -1.5693061054e-02
 -1.5690449625e-02
 -1.5687838197e-02
 -1.5685226768e-02
 -1.5682613477e-02
 -1.5680002049e-02
 -1.5677390620e-02
 -1.5674777329e-02
 -1.5672165900e-02
 -1.5669554472e-02
 -1.5666943043e-02
 -1.5664329752e-02
 -1.5661718324e-02
 -1.5659106895e-02
 -1.5656495467e-02
 -1.5653882176e-02
 -1.5651270747e-02
 -1.5648659319e-02
 -1.5646046028e-02
 -1.5643434599e-02
 -1.5640823171e-02
 -1.5638211742e-02
 -1.5635598451e-02
 -1.5632987022e-02
 -1.5630375594e-02
 -1.5627764165e-02
 -1.5625150874e-02
 -1.5622539446e-02
 -1.5619927086e-02
 -1.5617315657e-02
 -1.5614703298e-02
 -1.5612091869e-02
 -1.5609479509e-02
 -1.5606868081e-02
 -1.5604255721e-02
 -1.5601644292e-02
 -1.5599031933e-02
 -1.5596420504e-02
 -1.5593808144e-02
 -1.5591195785e-02
 -1.5588584356e-02
 -1.5585971996e-02
 -1.5583360568e-02
 -1.5580748208e-02
 -1.5578136779e-02
 -1.5575524420e-02
 -1.5572912991e-02
 -1.5570300631e-02
 -1.5567689203e-02
 -1.5565076843e-02
 -1.5562464483e-02
 -1.5559853055e-02
 -1.5557240695e-02
 -1.5554629266e-02
 -1.5552016906e-02
 -1.5549405478e-02
 -1.5546793118e-02
 -1.5544181690e-02
 -1.5541569330e-02
 -1.5538957901e-02
 -1.5536345541e-02
 -1.5533733182e-02
 -1.5531121753e-02
 -1.5528509393e-02
 -1.5525897965e-02
 -1.5523285605e-02
 -1.5520674177e-02
 -1.5518061817e-02
 -1.5515450388e-02
 -1.5512838028e-02
 -1.5510226600e-02
 -1.5507614240e-02
 -1.5505001880e-02
 -1.5502390452e-02
 -1.5499778092e-02
 -1.5497166663e-02
 -1.5494554304e-02
 -1.5491942875e-02
 -1.5489330515e-02
 -1.5486719087e-02
 -1.5484106727e-02
 -1.5481495298e-02
 -1.5478882939e-02
 -1.5476270579e-02
 -1.5473659150e-02
 -1.5471046790e-02
 -1.5468435362e-02
 -1.5465823002e-02
 -1.5463211574e-02
 -1.5460599214e-02
 -1.5457987785e-02
 -1.5455375426e-02
 -1.5452763997e-02
 -1.5450151637e-02
 -1.5447539277e-02
 -1.5444927849e-02
 -1.5442315489e-02
 -1.5439704061e-02
 -1.5437091701e-02
 -1.5434480272e-02
 -1.5431867912e-02
 -1.5429256484e-02
 -1.5426644124e-02
 -1.5424032696e-02
 -1.5421420336e-02
 -1.5418808907e-02
 -1.5416196547e-02
 -1.5413584188e-02
 -1.5410972759e-02
 -1.5408360399e-02
 -1.5405748971e-02
 -1.5403136611e-02
 -1.5400525182e-02
 -1.5397912823e-02
 -1.5395301394e-02
 -1.5392689034e-02
 -1.5390077606e-02
 -1.5387465246e-02
 -1.5384852886e-02
 -1.5382241458e-02
 -1.5379629098e-02
 -1.5377017669e-02
 -1.5374405310e-02
 -1.5371793881e-02
 -1.5369181521e-02
 -1.5366570093e-02
 -1.5363957733e-02
 -1.5361346304e-02
 -1.5358733945e-02
 -1.5356121585e-02
 -1.5353510156e-02
 -1.5350897796e-02
 -1.5348286368e-02
 -1.5345674008e-02
 -1.5343062580e-02
 -1.5340450220e-02
 -1.5337838791e-02
 -1.5335226431e-02
 -1.5332615003e-02
 -1.5330002643e-02
 -1.5327390283e-02
 -1.5324778855e-02
 -1.5322166495e-02
 -1.5319555067e-02
 -1.5316942707e-02
 -1.5314331278e-02
 -1.5311718918e-02
 -1.5309107490e-02
 -1.5306495130e-02
 -1.5303883702e-02
 -1.5301271342e-02
 -1.5298658982e-02
 -1.5296047553e-02
 -1.5293435194e-02
 -1.5290823765e-02
 -1.5288211405e-02
 -1.5285599977e-02
 -1.5282987617e-02
 -1.5280376188e-02
 -1.5277763829e-02
 -1.5275152400e-02
 -1.5272540040e-02
 -1.5269927680e-02
 -1.5267316252e-02
 -1.5264703892e-02
 -1.5262092464e-02
 -1.5259480104e-02
 -1.5256868675e-02
 -1.5254256316e-02
 -1.5251644887e-02
 -1.5249032527e-02
 -1.5246421099e-02
 -1.5243808739e-02
 -1.5241197310e-02
 -1.5238584951e-02
 -1.5235972591e-02
 -1.5233361162e-02
 -1.5230748802e-02
 -1.5228137374e-02
 -1.5225525014e-02
 -1.5222913586e-02
 -1.5220301226e-02
 -1.5217689797e-02
 -1.5215077437e-02
 -1.5212466009e-02
 -1.5209853649e-02
 -1.5207241289e-02
 -1.5204629861e-02
 -1.5202017501e-02
 -1.5199406072e-02
 -1.5196793713e-02
 -1.5194182284e-02
 -1.5191569924e-02
 -1.5188958496e-02
 -1.5186346136e-02
 -1.5183734708e-02
 -1.5181122348e-02
 -1.5178509988e-02
 -1.5175898559e-02
 -1.5173286200e-02
 -1.5170674771e-02
 -1.5168062411e-02
 -1.5165450983e-02
 -1.5162838623e-02
 -1.5160227194e-02
 -1.5157614835e-02
 -1.5155003406e-02
 -1.5152391046e-02
 -1.5149778686e-02
 -1.5147167258e-02
 -1.5144554898e-02
 -1.5141943470e-02
 -1.5139331110e-02
 -1.5136719681e-02
 -1.5134107322e-02
 -1.5131495893e-02
 -1.5128883533e-02
 -1.5126272105e-02
 -1.5123659745e-02
 -1.5121047385e-02
 -1.5118435957e-02
 -1.5115823597e-02
 -1.5113212168e-02
 -1.5110599808e-02
 -1.5107988380e-02
 -1.5105376020e-02
 -1.5102764592e-02
 -1.5100152232e-02
 -1.5097540803e-02
 -1.5094928443e-02
 -1.5092316084e-02
 -1.5089704655e-02
 -1.5087092295e-02
 -1.5084480867e-02
 -1.5081868507e-02
 -1.5079257078e-02
 -1.5076644719e-02
 -1.5074033290e-02
 -1.5071420930e-02
 -1.5068809502e-02
 -1.5066197142e-02
 -1.5063585714e-02
 -1.5060973354e-02
 -1.5058360994e-02
 -1.5055749565e-02
 -1.5053137206e-02
 -1.5050525777e-02
 -1.5047913417e-02
 -1.5045301989e-02
 -1.5042689629e-02
 -1.5040078200e-02
 -1.5037465841e-02
 -1.5034854412e-02
 -1.5032242052e-02
 -1.5029629692e-02
 -1.5027018264e-02
 -1.5024405904e-02
 -1.5021794476e-02
 -1.5019182116e-02
 -1.5016570687e-02
 -1.5013958327e-02
 -1.5011346899e-02
 -1.5008734539e-02
 -1.5006123111e-02
 -1.5003510751e-02
 -1.5000898391e-02
 -1.4998286963e-02
 -1.4995674603e-02
 -1.4993063174e-02
 -1.4990450814e-02
 -1.4987839386e-02
 -1.4985227026e-02
 -1.4982615598e-02
 -1.4980003238e-02
 -1.4977391809e-02
 -1.4974779449e-02
 -1.4972167090e-02
 -1.4969555661e-02
 -1.4966943301e-02
 -1.4964331873e-02
 -1.4961719513e-02
 -1.4959108084e-02
 -1.4956495725e-02
 -1.4953884296e-02
 -1.4951271936e-02
 -1.4948660508e-02
 -1.4946048148e-02
 -1.4943435788e-02
 -1.4940824360e-02
 -1.4938212000e-02
 -1.4935600571e-02
 -1.4932988212e-02
 -1.4930376783e-02
 -1.4927764423e-02
 -1.4925152995e-02
 -1.4922540635e-02
 -1.4919929206e-02
 -1.4917316847e-02
 -1.4914704487e-02
 -1.4912093058e-02
 -1.4909480698e-02
 -1.4906869270e-02
 -1.4904256910e-02
 -1.4901645482e-02
 -1.4899033122e-02
 -1.4896421693e-02
 -1.4893809333e-02
 -1.4891197905e-02
 -1.4888585545e-02
 -1.4885974117e-02
 -1.4883361757e-02
 -1.4880749397e-02
 -1.4878137968e-02
 -1.4875525609e-02
 -1.4872914180e-02
 -1.4870301820e-02
 -1.4867690392e-02
 -1.4865078032e-02
 -1.4862466604e-02
 -1.4859854244e-02
 -1.4857242815e-02
 -1.4854630455e-02
 -1.4852018096e-02
 -1.4849406667e-02
 -1.4846794307e-02
 -1.4844182879e-02
 -1.4841570519e-02
 -1.4838959090e-02
 -1.4836346731e-02
 -1.4833735302e-02
 -1.4831122942e-02
 -1.4828511514e-02
 -1.4825899154e-02
 -1.4823286794e-02
 -1.4820675366e-02
 -1.4818063006e-02
 -1.4815451577e-02
 -1.4812839217e-02
 -1.4810227789e-02
 -1.4807615429e-02
 -1.4805004001e-02
 -1.4802391641e-02
 -1.4799780212e-02
 -1.4797167853e-02
 -1.4794555493e-02
 -1.4791944064e-02
 -1.4789331704e-02
 -1.4786720276e-02
 -1.4784107916e-02
 -1.4781496488e-02
 -1.4778884128e-02
 -1.4776272699e-02
 -1.4773660339e-02
 -1.4771048911e-02
 -1.4768436551e-02
 -1.4765824191e-02
 -1.4763212763e-02
 -1.4760600403e-02
 -1.4757988974e-02
 -1.4755376615e-02
 -1.4752765186e-02
 -1.4750152826e-02
 -1.4747541398e-02
 -1.4744929038e-02
 -1.4742317609e-02
 -1.4739705250e-02
 -1.4737092890e-02
 -1.4734481461e-02
 -1.4731869102e-02
 -1.4729257673e-02
 -1.4726645313e-02
 -1.4724033885e-02
 -1.4721421525e-02
 -1.4718810096e-02
 -1.4716197737e-02
 -1.4713586308e-02
 -1.4710973948e-02
 -1.4708362520e-02
 -1.4705750160e-02
 -1.4703137800e-02
 -1.4700526372e-02
 -1.4697914012e-02
 -1.4695302583e-02
 -1.4692690223e-02
 -1.4690078795e-02
 -1.4687466435e-02
 -1.4684855007e-02
 -1.4682242647e-02
 -1.4679631218e-02
 -1.4677018858e-02
 -1.4674406499e-02
 -1.4671795070e-02
 -1.4669182710e-02
 -1.4666571282e-02
 -1.4663958922e-02
 -1.4661347494e-02
 -1.4658735134e-02
 -1.4656123705e-02
 -1.4653511345e-02
 -1.4650899917e-02
 -1.4648287557e-02
 -1.4645675197e-02
 -1.4643063769e-02
 -1.4640451409e-02
 -1.4637839980e-02
 -1.4635227621e-02
 -1.4632616192e-02
 -1.4630003832e-02
 -1.4627392404e-02
 -1.4624780044e-02
 -1.4622168615e-02
 -1.4619556256e-02
 -1.4616943896e-02
 -1.4614332467e-02
 -1.4611720107e-02
 -1.4609108679e-02
 -1.4606496319e-02
 -1.4603884891e-02
 -1.4601272531e-02
 -1.4598661102e-02
 -1.4596048743e-02
 -1.4593437314e-02
 -1.4590824954e-02
 -1.4588212594e-02
 -1.4585601166e-02
 -1.4582988806e-02
 -1.4580377378e-02
 -1.4577765018e-02
 -1.4575153589e-02
 -1.4572541229e-02
 -1.4569929801e-02
 -1.4567317441e-02
 -1.4564706013e-02
 -1.4562093653e-02
 -1.4559481293e-02
 -1.4556869864e-02
 -1.4554257505e-02
 -1.4551646076e-02
 -1.4549033716e-02
 -1.4546422288e-02
 -1.4543809928e-02
 -1.4541198500e-02
 -1.4538586140e-02
 -1.4535974711e-02
 -1.4533362351e-02
 -1.4530750923e-02
 -1.4528138563e-02
 -1.4525526203e-02
 -1.4522914775e-02
 -1.4520302415e-02
 -1.4517690986e-02
 -1.4515078627e-02
 -1.4512467198e-02
 -1.4509854838e-02
 -1.4507243410e-02
 -1.4504631050e-02
 -1.4502019621e-02
 -1.4499407262e-02
 -1.4496794902e-02
 -1.4494183473e-02
 -1.4491571113e-02
 -1.4488959685e-02
 -1.4486347325e-02
 -1.4483735897e-02
 -1.4481123537e-02
 -1.4478512108e-02
 -1.4475899749e-02
 -1.4473288320e-02
 -1.4470675960e-02
 -1.4468063600e-02
 -1.4465452172e-02
 -1.4462839812e-02
 -1.4460228384e-02
 -1.4457616024e-02
 -1.4455004595e-02
 -1.4452392235e-02
 -1.4449780807e-02
 -1.4447168447e-02
 -1.4444557019e-02
 -1.4441944659e-02
 -1.4439332299e-02
 -1.4436720870e-02
 -1.4434108511e-02
 -1.4431497082e-02
 -1.4428884722e-02
 -1.4426273294e-02
 -1.4423660934e-02
 -1.4421049505e-02
 -1.4418437146e-02
 -1.4415825717e-02
 -1.4413213357e-02
 -1.4410600998e-02
 -1.4407989569e-02
 -1.4405377209e-02
 -1.4402765781e-02
 -1.4400153421e-02
 -1.4397541992e-02
 -1.4394929633e-02
 -1.4392318204e-02
 -1.4389705844e-02
 -1.4387094416e-02
 -1.4384482056e-02
 -1.4381869696e-02
 -1.4379258268e-02
 -1.4376645908e-02
 -1.4374034479e-02
 -1.4371422119e-02
 -1.4368810691e-02
 -1.4366198331e-02
 -1.4363586903e-02
 -1.4360974543e-02
 -1.4358363114e-02
 -1.4355750754e-02
 -1.4353139326e-02
 -1.4350526966e-02
 -1.4347914606e-02
 -1.4345303178e-02
 -1.4342690818e-02
 -1.4340079390e-02
 -1.4337467030e-02
 -1.4334855601e-02
 -1.4332243241e-02
 -1.4329631813e-02
 -1.4327019453e-02
 -1.4324408025e-02
 -1.4321795665e-02
 -1.4319183305e-02
 -1.4316571876e-02
 -1.4313959517e-02
 -1.4311348088e-02
 -1.4308735728e-02
 -1.4306124300e-02
 -1.4303511940e-02
 -1.4300900511e-02
 -1.4298288152e-02
 -1.4295676723e-02
 -1.4293064363e-02
 -1.4290452003e-02
 -1.4287840575e-02
 -1.4285228215e-02
 -1.4282616787e-02
 -1.4280004427e-02
 -1.4277392998e-02
 -1.4274780639e-02
 -1.4272169210e-02
 -1.4269556850e-02
 -1.4266945422e-02
 -1.4264333062e-02
 -1.4261720702e-02
 -1.4259109274e-02
 -1.4256496914e-02
 -1.4253885485e-02
 -1.4251273125e-02
 -1.4248661697e-02
 -1.4246049337e-02
 -1.4243437909e-02
 -1.4240825549e-02
 -1.4238214120e-02
 -1.4235601760e-02
 -1.4232989401e-02
 -1.4230377972e-02
 -1.4227765612e-02
 -1.4225154184e-02
 -1.4222541824e-02
 -1.4219930395e-02
 -1.4217318036e-02
 -1.4214706607e-02
 -1.4212094247e-02
 -1.4209482819e-02
 -1.4206870459e-02
 -1.4204258099e-02
 -1.4201646671e-02
 -1.4199034311e-02
 -1.4196422882e-02
 -1.4193810523e-02
 -1.4191199094e-02
 -1.4188586734e-02
 -1.4185975306e-02
 -1.4183362946e-02
 -1.4180751517e-02
 -1.4178139158e-02
 -1.4175527729e-02
 -1.4172915369e-02
 -1.4170303009e-02
 -1.4167691581e-02
 -1.4165079221e-02
 -1.4162467793e-02
 -1.4159855433e-02
 -1.4157244004e-02
 -1.4154631644e-02
 -1.4152020216e-02
 -1.4149407856e-02
 -1.4146796428e-02
 -1.4144184068e-02
 -1.4141571708e-02
 -1.4138960280e-02
 -1.4136347920e-02
 -1.4133736491e-02
 -1.4131124131e-02
 -1.4128512703e-02
 -1.4125900343e-02
 -1.4123288915e-02
 -1.4120676555e-02
 -1.4118065126e-02
 -1.4115452766e-02
 -1.4112840407e-02
 -1.4110228978e-02
 -1.4107616618e-02
 -1.4105005190e-02
 -1.4102392830e-02
 -1.4099781401e-02
 -1.4097169042e-02
 -1.4094557613e-02
 -1.4091945253e-02
 -1.4089333825e-02
 -1.4086721465e-02
 -1.4084109105e-02
 -1.4081497677e-02
 -1.4078885317e-02
 -1.4076273888e-02
 -1.4073661529e-02
 -1.4071050100e-02
 -1.4068437740e-02
 -1.4065826312e-02
 -1.4063213952e-02
 -1.4060602523e-02
 -1.4057990164e-02
 -1.4055377804e-02
 -1.4052766375e-02
 -1.4050154015e-02
 -1.4047542587e-02
 -1.4044930227e-02
 -1.4042318799e-02
 -1.4039706439e-02
 -1.4037095010e-02
 -1.4034482650e-02
 -1.4031871222e-02
 -1.4029258862e-02
 -1.4026646502e-02
 -1.4024035074e-02
 -1.4021422714e-02
 -1.4018811285e-02
 -1.4016198926e-02
 -1.4013587497e-02
 -1.4010975137e-02
 -1.4008363709e-02
 -1.4005751349e-02
 -1.4003139921e-02
 -1.4000527561e-02
 -1.3997916132e-02
 -1.3995303772e-02
 -1.3992691413e-02
 -1.3990079984e-02
 -1.3987467624e-02
 -1.3984856196e-02
 -1.3982243836e-02
 -1.3979632407e-02
 -1.3977020048e-02
 -1.3974408619e-02
 -1.3971796259e-02
 -1.3969184831e-02
 -1.3966572471e-02
 -1.3963960111e-02
 -1.3961348683e-02
 -1.3958736323e-02
 -1.3956124894e-02
 -1.3953512534e-02
 -1.3950901106e-02
 -1.3948288746e-02
 -1.3945677318e-02
 -1.3943064958e-02
 -1.3940453529e-02
 -1.3937841170e-02
 -1.3935228810e-02
 -1.3932617381e-02
 -1.3930005021e-02
 -1.3927393593e-02
 -1.3924781233e-02
 -1.3922169805e-02
 -1.3919557445e-02
 -1.3916946016e-02
 -1.3914333656e-02
 -1.3911722228e-02
 -1.3909109868e-02
 -1.3906497508e-02
 -1.3903886080e-02
 -1.3901273720e-02
 -1.3898662291e-02
 -1.3896049932e-02
 -1.3893438503e-02
 -1.3890826143e-02
 -1.3888214715e-02
 -1.3885602355e-02
 -1.3882990927e-02
 -1.3880378567e-02
 -1.3877766207e-02
 -1.3875154778e-02
 -1.3872542419e-02
 -1.3869930990e-02
 -1.3867318630e-02
 -1.3864707202e-02
 -1.3862094842e-02
 -1.3859483413e-02
 -1.3856871054e-02
 -1.3854259625e-02
 -1.3851647265e-02
 -1.3849034905e-02
 -1.3846423477e-02
 -1.3843811117e-02
 -1.3841199689e-02
 -1.3838587329e-02
 -1.3835975900e-02
 -1.3833363540e-02
 -1.3830752112e-02
 -1.3828139752e-02
 -1.3825528324e-02
 -1.3822915964e-02
 -1.3820304535e-02
 -1.3817692176e-02
 -1.3815079816e-02
 -1.3812468387e-02
 -1.3809856027e-02
 -1.3807244599e-02
 -1.3804632239e-02
 -1.3802020811e-02
 -1.3799408451e-02
 -1.3796797022e-02
 -1.3794184662e-02
 -1.3791573234e-02
 -1.3788960874e-02
 -1.3786348514e-02
 -1.3783737086e-02
 -1.3781124726e-02
 -1.3778513297e-02
 -1.3775900938e-02
 -1.3773289509e-02
 -1.3770677149e-02
 -1.3768065721e-02
 -1.3765453361e-02
 -1.3762841932e-02
 -1.3760229573e-02
 -1.3757617213e-02
 -1.3755005784e-02
 -1.3752393425e-02
 -1.3749781996e-02
 -1.3747169636e-02
 -1.3744558208e-02
 -1.3741945848e-02
 -1.3739334419e-02
 -1.3736722060e-02
 -1.3734110631e-02
 -1.3731498271e-02
 -1.3728885911e-02
 -1.3726274483e-02
 -1.3723662123e-02
 -1.3721050695e-02
 -1.3718438335e-02
 -1.3715826906e-02
 -1.3713214546e-02
 -1.3710603118e-02
 -1.3707990758e-02
 -1.3705379330e-02
 -1.3702766970e-02
 -1.3700154610e-02
 -1.3697543181e-02
 -1.3694930822e-02
 -1.3692319393e-02
 -1.3689707033e-02
 -1.3687095605e-02
 -1.3684483245e-02
 -1.3681871817e-02
 -1.3679259457e-02
 -1.3676648028e-02
 -1.3674035668e-02
 -1.3671423309e-02
 -1.3668811880e-02
 -1.3666199520e-02
 -1.3663588092e-02
 -1.3660975732e-02
 -1.3658364303e-02
 -1.3655751944e-02
 -1.3653140515e-02
 -1.3650528155e-02
 -1.3647916727e-02
 -1.3645304367e-02
 -1.3642692007e-02
 -1.3640080579e-02
 -1.3637468219e-02
 -1.3634856790e-02
 -1.3632244430e-02
 -1.3629633002e-02
 -1.3627020642e-02
 -1.3624409214e-02
 -1.3621796854e-02
 -1.3619185425e-02
 -1.3616573066e-02
 -1.3613961637e-02
 -1.3611349277e-02
 -1.3608736917e-02
 -1.3606125489e-02
 -1.3603513129e-02
 -1.3600901701e-02
 -1.3598289341e-02
 -1.3595677912e-02
 -1.3593065552e-02
 -1.3590454124e-02
 -1.3587841764e-02
 -1.3585230336e-02
 -1.3582617976e-02
 -1.3580005616e-02
 -1.3577394187e-02
 -1.3574781828e-02
 -1.3572170399e-02
 -1.3569558039e-02
 -1.3566946611e-02
 -1.3564334251e-02
 -1.3561722822e-02
 -1.3559110463e-02
 -1.3556499034e-02
 -1.3553886674e-02
 -1.3551274315e-02
 -1.3548662886e-02
 -1.3546050526e-02
 -1.3543439098e-02
 -1.3540826738e-02
 -1.3538215309e-02
 -1.3535602950e-02
 -1.3532991521e-02
 -1.3530379161e-02
 -1.3527767733e-02
 -1.3525155373e-02
 -1.3522543013e-02
 -1.3519931585e-02
 -1.3517319225e-02
 -1.3514707796e-02
 -1.3512095436e-02
 -1.3509484008e-02
 -1.3506871648e-02
 -1.3504260220e-02
 -1.3501647860e-02
 -1.3499036431e-02
 -1.3496424071e-02
 -1.3493811712e-02
 -1.3491200283e-02
 -1.3488587923e-02
 -1.3485976495e-02
 -1.3483364135e-02
 -1.3480752707e-02
 -1.3478140347e-02
 -1.3475528918e-02
 -1.3472916558e-02
 -1.3470305130e-02
 -1.3467692770e-02
 -1.3465080410e-02
 -1.3462468982e-02
 -1.3459856622e-02
 -1.3457245193e-02
 -1.3454632834e-02
 -1.3452021405e-02
 -1.3449409045e-02
 -1.3446797617e-02
 -1.3444185257e-02
 -1.3441573828e-02
 -1.3438961469e-02
 -1.3436350040e-02
 -1.3433737680e-02
 -1.3431125320e-02
 -1.3428513892e-02
 -1.3425901532e-02
 -1.3423290104e-02
 -1.3420677744e-02
 -1.3418066315e-02
 -1.3415453956e-02
 -1.3412842527e-02
 -1.3410230167e-02
 -1.3407618739e-02
 -1.3405006379e-02
 -1.3402394019e-02
 -1.3399782591e-02
 -1.3397170231e-02
 -1.3394558802e-02
 -1.3391946442e-02
 -1.3389335014e-02
 -1.3386722654e-02
 -1.3384111226e-02
 -1.3381498866e-02
 -1.3378887437e-02
 -1.3376275077e-02
 -1.3373662718e-02
 -1.3371051289e-02
 -1.3368438929e-02
 -1.3365827501e-02
 -1.3363215141e-02
 -1.3360603712e-02
 -1.3357991353e-02
 -1.3355379924e-02
 -1.3352767564e-02
 -1.3350156136e-02
 -1.3347543776e-02
 -1.3344931416e-02
 -1.3342319988e-02
 -1.3339707628e-02
 -1.3337096199e-02
 -1.3334483840e-02
 -1.3331872411e-02
 -1.3329260051e-02
 -1.3326648623e-02
 -1.3324036263e-02
 -1.3321424834e-02
 -1.3318812475e-02
 -1.3316200115e-02
 -1.3313588686e-02
 -1.3310976326e-02
 -1.3308364898e-02
 -1.3305752538e-02
 -1.3303141110e-02
 -1.3300528750e-02
 -1.3297917321e-02
 -1.3295304962e-02
 -1.3292693533e-02
 -1.3290081173e-02
 -1.3287468813e-02
 -1.3284857385e-02
 -1.3282245025e-02
 -1.3279633597e-02
 -1.3277021237e-02
 -1.3274409808e-02
 -1.3271797448e-02
 -1.3269186020e-02
 -1.3266573660e-02
 -1.3263962232e-02
 -1.3261349872e-02
 -1.3258738443e-02
 -1.3256126083e-02
 -1.3253513724e-02
 -1.3250902295e-02
 -1.3248289935e-02
 -1.3245678507e-02
 -1.3243066147e-02
 -1.3240454718e-02
 -1.3237842359e-02
 -1.3235230930e-02
 -1.3232618570e-02
 -1.3230007142e-02
 -1.3227394782e-02
 -1.3224782422e-02
 -1.3222170994e-02
 -1.3219558634e-02
 -1.3216947205e-02
 -1.3214334846e-02
 -1.3211723417e-02
 -1.3209111057e-02
 -1.3206499629e-02
 -1.3203887269e-02
 -1.3201275840e-02
 -1.3198663481e-02
 -1.3196051121e-02
 -1.3193439692e-02
 -1.3190827332e-02
 -1.3188215904e-02
 -1.3185603544e-02
 -1.3182992116e-02
 -1.3180379756e-02
 -1.3177768327e-02
 -1.3175155967e-02
 -1.3172544539e-02
 -1.3169932179e-02
 -1.3167319819e-02
 -1.3164708391e-02
 -1.3162096031e-02
 -1.3159484603e-02
 -1.3156872243e-02
 -1.3154260814e-02
 -1.3151648454e-02
 -1.3149037026e-02
 -1.3146424666e-02
 -1.3143813238e-02
 -1.3141200878e-02
 -1.3138588518e-02
 -1.3135977089e-02
 -1.3133364730e-02
 -1.3130753301e-02
 -1.3128140941e-02
 -1.3125529513e-02
 -1.3122917153e-02
 -1.3120305724e-02
 -1.3117693365e-02
 -1.3115081936e-02
 -1.3112469576e-02
 -1.3109857216e-02
 -1.3107245788e-02
 -1.3104633428e-02
 -1.3102022000e-02
 -1.3099409640e-02
 -1.3096798211e-02
 -1.3094185852e-02
 -1.3091574423e-02
 -1.3088962063e-02
 -1.3086350635e-02
 -1.3083738275e-02
 -1.3081126846e-02
 -1.3078514487e-02
 -1.3075902127e-02
 -1.3073290698e-02
 -1.3070678338e-02
 -1.3068066910e-02
 -1.3065454550e-02
 -1.3062843122e-02
 -1.3060230762e-02
 -1.3057619333e-02
 -1.3055006973e-02
 -1.3052395545e-02
 -1.3049783185e-02
 -1.3047170825e-02
 -1.3044559397e-02
 -1.3041947037e-02
 -1.3039335608e-02
 -1.3036723249e-02
 -1.3034111820e-02
 -1.3031499460e-02
 -1.3028888032e-02
 -1.3026275672e-02
 -1.3023664244e-02
 -1.3021051884e-02
 -1.3018439524e-02
 -1.3015828095e-02
 -1.3013215736e-02
 -1.3010604307e-02
 -1.3007991947e-02
 -1.3005380519e-02
 -1.3002768159e-02
 -1.3000156730e-02
 -1.2997544371e-02
 -1.2994932942e-02
 -1.2992320582e-02
 -1.2989708222e-02
 -1.2987096794e-02
 -1.2984484434e-02
 -1.2981873006e-02
 -1.2979260646e-02
 -1.2976649217e-02
 -1.2974036857e-02
 -1.2971425429e-02
 -1.2968813069e-02
 -1.2966201641e-02
 -1.2963589281e-02
 -1.2960976921e-02
 -1.2958365493e-02
 -1.2955753133e-02
 -1.2953141704e-02
 -1.2950529344e-02
 -1.2947917916e-02
 -1.2945305556e-02
 -1.2942694128e-02
 -1.2940081768e-02
 -1.2937470339e-02
 -1.2934857979e-02
 -1.2932245620e-02
 -1.2929634191e-02
 -1.2927021831e-02
 -1.2924410403e-02
 -1.2921798043e-02
 -1.2919186614e-02
 -1.2916574255e-02
 -1.2913962826e-02
 -1.2911350466e-02
 -1.2908739038e-02
 -1.2906126678e-02
 -1.2903515249e-02
 -1.2900902890e-02
 -1.2898290530e-02
 -1.2895679101e-02
 -1.2893066742e-02
 -1.2890455313e-02
 -1.2887842953e-02
 -1.2885231525e-02
 -1.2882619165e-02
 -1.2880007736e-02
 -1.2877395377e-02
 -1.2874783948e-02
 -1.2872171588e-02
 -1.2869559228e-02
 -1.2866947800e-02
 -1.2864335440e-02
 -1.2861724012e-02
 -1.2859111652e-02
 -1.2856500223e-02
 -1.2853887863e-02
 -1.2851276435e-02
 -1.2848664075e-02
 -1.2846052647e-02
 -1.2843440287e-02
 -1.2840827927e-02
 -1.2838216498e-02
 -1.2835604139e-02
 -1.2832992710e-02
 -1.2830380350e-02
 -1.2827768922e-02
 -1.2825156562e-02
 -1.2822545134e-02
 -1.2819932774e-02
 -1.2817321345e-02
 -1.2814708985e-02
 -1.2812096626e-02
 -1.2809485197e-02
 -1.2806872837e-02
 -1.2804261409e-02
 -1.2801649049e-02
 -1.2799037620e-02
 -1.2796425261e-02
 -1.2793813832e-02
 -1.2791201472e-02
 -1.2788590044e-02
 -1.2785977684e-02
 -1.2783365324e-02
 -1.2780753896e-02
 -1.2778141536e-02
 -1.2775530107e-02
 -1.2772917747e-02
 -1.2770306319e-02
 -1.2767693959e-02
 -1.2765082531e-02
 -1.2762470171e-02
 -1.2759858742e-02
 -1.2757246383e-02
