luts/V3_LogC_500_to_linear.spi1d
Version 1
From 0 1
Length 65536
Components 1
{
 -1.6853740439e-02
 -1.6850968823e-02
 -1.6848199069e-02
 -1.6845427454e-02
 -1.6842655838e-02
 -1.6839884222e-02
 -1.6837112606e-02
 -1.6834342852e-02
 -1.6831571236e-02
 -1.6828799620e-02
 -1.6826028004e-02
 -1.6823256388e-02
 -1.6820486635e-02
 -1.6817715019e-02
 -1.6814943403e-02
 -1.6812171787e-02
 -1.6809400171e-02
 -1.6806630418e-02
 -1.6803858802e-02
 -1.6801087186e-02
 -1.6798315570e-02
 -1.6795543954e-02
 -1.6792774200e-02
 -1.6790002584e-02
 -1.6787230968e-02
 -1.6784459352e-02
 -1.6781687737e-02
 -1.6778916121e-02
 -1.6776146367e-02
 -1.6773374751e-02
 -1.6770603135e-02
 -1.6767831519e-02
 -1.6765059903e-02
 -1.6762290150e-02
 -1.6759518534e-02
 -1.6756746918e-02
 -1.6753975302e-02
 -1.6751203686e-02
 -1.6748433933e-02
 -1.6745662317e-02
 -1.6742890701e-02
 -1.6740119085e-02
 -1.6737347469e-02
 -1.6734577715e-02
 -1.6731806099e-02
 -1.6729034483e-02
 -1.6726262867e-02
 -1.6723491251e-02
 -1.6720721498e-02
 -1.6717949882e-02
 -1.6715178266e-02
 -1.6712406650e-02
 -1.6709635034e-02
 -1.6706865281e-02
 -1.6704093665e-02
 -1.6701322049e-02
 -1.6698550433e-02
 -1.6695778817e-02
 -1.6693009064e-02
 -1.6690237448e-02
 -1.6687465832e-02
 -1.6684694216e-02
 -1.6681922600e-02
 -1.6679152846e-02
 -1.6676381230e-02
 -1.6673609614e-02
 -1.6670837998e-02
 -1.6668066382e-02
 -1.6665296629e-02
 -1.6662525013e-02
 -1.6659753397e-02
 -1.6656981781e-02
 -1.6654210165e-02
 -1.6651440412e-02
 -1.6648668796e-02
 -1.6645897180e-02
 -1.6643125564e-02
 -1.6640353948e-02
 -1.6637584195e-02
 -1.6634812579e-02
 -1.6632040963e-02
 -1.6629269347e-02
 -1.6626497731e-02
 -1.6623727977e-02
 -1.6620956361e-02
 -1.6618184745e-02
 -1.6615413129e-02
 -1.6612641513e-02
 -1.6609869897e-02
 -1.6607100144e-02
 -1.6604328528e-02
 -1.6601556912e-02
 -1.6598785296e-02
 -1.6596013680e-02
 -1.6593243927e-02
 -1.6590472311e-02
 -1.6587700695e-02
 -1.6584929079e-02
 -1.6582157463e-02
 -1.6579387709e-02
 -1.6576616094e-02
 -1.6573844478e-02
 -1.6571072862e-02
 -1.6568301246e-02
 -1.6565531492e-02
 -1.6562759876e-02
 -1.6559988260e-02
 -1.6557216644e-02
 -1.6554445028e-02
 -1.6551675275e-02
 -1.6548903659e-02
 -1.6546132043e-02
 -1.6543360427e-02
 -1.6540588811e-02
 -1.6537819058e-02
 -1.6535047442e-02
 -1.6532275826e-02
 -1.6529504210e-02
 -1.6526732594e-02
 -1.6523962840e-02
 -1.6521191224e-02
 -1.6518419608e-02
 -1.6515647992e-02
 -1.6512876377e-02
 -1.6510106623e-02
 -1.6507335007e-02
 -1.6504563391e-02
 -1.6501791775e-02
 -1.6499020159e-02
 -1.6496250406e-02
 -1.6493478790e-02
 -1.6490707174e-02
 -1.6487935558e-02
 -1.6485163942e-02
 -1.6482394189e-02
 -1.6479622573e-02
 -1.6476850957e-02
 -1.6474079341e-02
 -1.6471307725e-02
 -1.6468537971e-02
 -1.6465766355e-02
 -1.6462994739e-02
 -1.6460223123e-02
 -1.6457451507e-02
 -1.6454681754e-02
 -1.6451910138e-02
 -1.6449138522e-02
 -1.6446366906e-02
 -1.6443595290e-02
 -1.6440823674e-02
 -1.6438053921e-02
 -1.6435282305e-02
 -1.6432510689e-02
 -1.6429739073e-02
 -1.6426967457e-02
 -1.6424197704e-02
 -1.6421426088e-02
 -1.6418654472e-02
 -1.6415882856e-02
 -1.6413111240e-02
 -1.6410341486e-02
 -1.6407569870e-02
 -1.6404798254e-02
 -1.6402026638e-02
 -1.6399255022e-02
 -1.6396485269e-02
 -1.6393713653e-02
 -1.6390942037e-02
 -1.6388170421e-02
 -1.6385398805e-02
 -1.6382629052e-02
 -1.6379857436e-02
 -1.6377085820e-02
 -1.6374314204e-02
 -1.6371542588e-02
 -1.6368772835e-02
 -1.6366001219e-02
 -1.6363229603e-02
 -1.6360457987e-02
 -1.6357686371e-02
 -1.6354916617e-02
 -1.6352145001e-02
 -1.6349373385e-02
 -1.6346601769e-02
 -1.6343830153e-02
 -1.6341060400e-02
 -1.6338288784e-02
 -1.6335517168e-02
 -1.6332745552e-02
 -1.6329973936e-02
 -1.6327204183e-02
 -1.6324432567e-02
 -1.6321660951e-02
 -1.6318889335e-02
 -1.6316117719e-02
 -1.6313347965e-02
 -1.6310576349e-02
 -1.6307804734e-02
 -1.6305033118e-02
 -1.6302261502e-02
 -1.6299491748e-02
 -1.6296720132e-02
 -1.6293948516e-02
 -1.6291176900e-02
 -1.6288405284e-02
 -1.6285635531e-02
 -1.6282863915e-02
 -1.6280092299e-02
 -1.6277320683e-02
 -1.6274549067e-02
 -1.6271777451e-02
 -1.6269007698e-02
 -1.6266236082e-02
 -1.6263464466e-02
 -1.6260692850e-02
 -1.6257921234e-02
 -1.6255151480e-02
 -1.6252379864e-02
 -1.6249608248e-02
 -1.6246836632e-02
 -1.6244065017e-02
 -1.6241295263e-02
 -1.6238523647e-02
 -1.6235752031e-02
 -1.6232980415e-02
 -1.6230208799e-02
 -1.6227439046e-02
 -1.6224667430e-02
 -1.6221895814e-02
 -1.6219124198e-02
 -1.6216352582e-02
 -1.6213582829e-02
 -1.6210811213e-02
 -1.6208039597e-02
 -1.6205267981e-02
 -1.6202496365e-02
 -1.6199726611e-02
 -1.6196954995e-02
 -1.6194183379e-02
 -1.6191411763e-02
 -1.6188640147e-02
 -1.6185870394e-02
 -1.6183098778e-02
 -1.6180327162e-02
 -1.6177555546e-02
 -1.6174783930e-02
 -1.6172014177e-02
 -1.6169242561e-02
 -1.6166470945e-02
 -1.6163699329e-02
 -1.6160927713e-02
 -1.6158157960e-02
 -1.6155386344e-02
 -1.6152614728e-02
 -1.6149843112e-02
 -1.6147071496e-02
 -1.6144301742e-02
 -1.6141530126e-02
 -1.6138758510e-02
 -1.6135986894e-02
 -1.6133215278e-02
 -1.6130445525e-02
 -1.6127673909e-02
 -1.6124902293e-02
 -1.6122130677e-02
 -1.6119359061e-02
 -1.6116589308e-02
 -1.6113817692e-02
 -1.6111046076e-02
 -1.6108274460e-02
 -1.6105502844e-02
 -1.6102733091e-02
 -1.6099961475e-02
 -1.6097189859e-02
 -1.6094418243e-02
 -1.6091646627e-02
 -1.6088875011e-02
 -1.6086105257e-02
 -1.6083333641e-02
 -1.6080562025e-02
 -1.6077790409e-02
 -1.6075018793e-02
 -1.6072249040e-02
 -1.6069477424e-02
 -1.6066705808e-02
 -1.6063934192e-02
 -1.6061162576e-02
 -1.6058392823e-02
 -1.6055621207e-02
 -1.6052849591e-02
 -1.6050077975e-02
 -1.6047306359e-02
 -1.6044536605e-02
 -1.6041764989e-02
 -1.6038993374e-02
 -1.6036221758e-02
 -1.6033450142e-02
 -1.6030680388e-02
 -1.6027908772e-02
 -1.6025137156e-02
 -1.6022365540e-02
 -1.6019593924e-02
 -1.6016824171e-02
 -1.6014052555e-02
 -1.6011280939e-02
 -1.6008509323e-02
 -1.6005737707e-02
 -1.6002967954e-02
 -1.6000196338e-02
 -1.5997424722e-02
 -1.5994653106e-02
 -1.5991881490e-02
 -1.5989111736e-02
 -1.5986340120e-02
 -1.5983568504e-02
 -1.5980796888e-02
 -1.5978025272e-02
 -1.5975255519e-02
 -1.5972483903e-02
 -1.5969712287e-02
 -1.5966940671e-02
 -1.5964169055e-02
 -1.5961399302e-02
 -1.5958627686e-02
 -1.5955856070e-02
 -1.5953084454e-02
 -1.5950312838e-02
 -1.5947543085e-02
 -1.5944771469e-02
 -1.5941999853e-02
 -1.5939228237e-02
 -1.5936456621e-02
 -1.5933686867e-02
 -1.5930915251e-02
 -1.5928143635e-02
 -1.5925372019e-02
 -1.5922600403e-02
 -1.5919828787e-02
 -1.5917059034e-02
 -1.5914287418e-02
 -1.5911515802e-02
 -1.5908744186e-02
 -1.5905972570e-02
 -1.5903202817e-02
 -1.5900431201e-02
 -1.5897659585e-02
 -1.5894887969e-02
 -1.5892116353e-02
 -1.5889346600e-02
 -1.5886574984e-02
 -1.5883803368e-02
 -1.5881031752e-02
 -1.5878260136e-02
 -1.5875490382e-02
 -1.5872718766e-02
 -1.5869947150e-02
 -1.5867175534e-02
 -1.5864403918e-02
 -1.5861634165e-02
 -1.5858862549e-02
 -1.5856090933e-02
 -1.5853319317e-02
 -1.5850547701e-02
 -1.5847777948e-02
 -1.5845006332e-02
 -1.5842234716e-02
 -1.5839463100e-02
 -1.5836691484e-02
 -1.5833921731e-02
 -1.5831150115e-02
 -1.5828378499e-02
 -1.5825606883e-02
 -1.5822835267e-02
 -1.5820065513e-02
 -1.5817293897e-02
 -1.5814522281e-02
 -1.5811750665e-02
 -1.5808979049e-02
 -1.5806209296e-02
 -1.5803437680e-02
 -1.5800666064e-02
 -1.5797894448e-02
 -1.5795122832e-02
 -1.5792353079e-02
 -1.5789581463e-02
 -1.5786809847e-02
 -1.5784038231e-02
 -1.5781266615e-02
 -1.5778496861e-02
 -1.5775725245e-02
 -1.5772953629e-02
 -1.5770182014e-02
 -1.5767410398e-02
 -1.5764640644e-02
 -1.5761869028e-02
 -1.5759097412e-02
 -1.5756325796e-02
 -1.5753554180e-02
 -1.5750782564e-02
 -1.5748012811e-02
 -1.5745241195e-02
 -1.5742469579e-02
 -1.5739697963e-02
 -1.5736926347e-02
 -1.5734156594e-02
 -1.5731384978e-02
 -1.5728613362e-02
 -1.5725841746e-02
 -1.5723070130e-02
 -1.5720300376e-02
 -1.5717528760e-02
 -1.5714757144e-02
 -1.5711985528e-02
 -1.5709213912e-02
 -1.5706444159e-02
 -1.5703672543e-02
 -1.5700900927e-02
 -1.5698129311e-02
 -1.5695357695e-02
 -1.5692587942e-02
 -1.5689816326e-02
 -1.5687044710e-02
 -1.5684273094e-02
 -1.5681501478e-02
 -1.5678731725e-02
 -1.5675960109e-02
 -1.5673188493e-02
 -1.5670416877e-02
 -1.5667645261e-02
 -1.5664875507e-02
 -1.5662103891e-02
 -1.5659332275e-02
 -1.5656560659e-02
 -1.5653789043e-02
 -1.5651019290e-02
 -1.5648247674e-02
 -1.5645476058e-02
 -1.5642704442e-02
 -1.5639932826e-02
 -1.5637163073e-02
 -1.5634391457e-02
 -1.5631619841e-02
 -1.5628848225e-02
 -1.5626076609e-02
 -1.5623305924e-02
 -1.5620534308e-02
 -1.5617763624e-02
 -1.5614992008e-02
 -1.5612221323e-02
 -1.5609449707e-02
 -1.5606678091e-02
 -1.5603907406e-02
 -1.5601135790e-02
 -1.5598365106e-02
 -1.5595593490e-02
 -1.5592821874e-02
 -1.5590051189e-02
 -1.5587279573e-02
 -1.5584508888e-02
 -1.5581737272e-02
 -1.5578965656e-02
 -1.5576194972e-02
 -1.5573423356e-02
 -1.5570652671e-02
 -1.5567881055e-02
 -1.5565109439e-02
 -1.5562338755e-02
 -1.5559567139e-02
 -1.5556796454e-02
 -1.5554024838e-02
 -1.5551253222e-02
 -1.5548482537e-02
 -1.5545710921e-02
 -1.5542939305e-02
 -1.5540168621e-02
 -1.5537397005e-02
 -1.5534626320e-02
 -1.5531854704e-02
 -1.5529083088e-02
 -1.5526312403e-02
 -1.5523540787e-02
 -1.5520770103e-02
 -1.5517998487e-02
 -1.5515226871e-02
 -1.5512456186e-02
 -1.5509684570e-02
 -1.5506913885e-02
 -1.5504142269e-02
 -1.5501370654e-02
 -1.5498599969e-02
 -1.5495828353e-02
 -1.5493057668e-02
 -1.5490286052e-02
 -1.5487514436e-02
 -1.5484743752e-02
 -1.5481972136e-02
 -1.5479201451e-02
 -1.5476429835e-02
 -1.5473658219e-02
 -1.5470887534e-02
 -1.5468115918e-02
 -1.5465345234e-02
 -1.5462573618e-02
 -1.5459802002e-02
 -1.5457031317e-02
 -1.5454259701e-02
 -1.5451488085e-02
 -1.5448717400e-02
 -1.5445945784e-02
 -1.5443175100e-02
 -1.5440403484e-02
 -1.5437631868e-02
 -1.5434861183e-02
 -1.5432089567e-02
 -1.5429318883e-02
 -1.5426547267e-02
 -1.5423775651e-02
 -1.5421004966e-02
 -1.5418233350e-02
 -1.5415462665e-02
 -1.5412691049e-02
 -1.5409919433e-02
 -1.5407148749e-02
 -1.5404377133e-02
 -1.5401606448e-02
 -1.5398834832e-02
 -1.5396063216e-02
 -1.5393292531e-02
 -1.5390520915e-02
 -1.5387750231e-02
 -1.5384978615e-02
 -1.5382206999e-02
 -1.5379436314e-02
 -1.5376664698e-02
 -1.5373893082e-02
 -1.5371122397e-02
 -1.5368350782e-02
 -1.5365580097e-02
 -1.5362808481e-02
 -1.5360036865e-02
 -1.5357266180e-02
 -1.5354494564e-02
 -1.5351723880e-02
 -1.5348952264e-02
 -1.5346180648e-02
 -1.5343409963e-02
 -1.5340638347e-02
 -1.5337867662e-02
 -1.5335096046e-02
 -1.5332324430e-02
 -1.5329553746e-02
 -1.5326782130e-02
 -1.5324011445e-02
 -1.5321239829e-02
 -1.5318468213e-02
 -1.5315697528e-02
 -1.5312925912e-02
 -1.5310155228e-02
 -1.5307383612e-02
 -1.5304611996e-02
 -1.5301841311e-02
 -1.5299069695e-02
 -1.5296299011e-02
 -1.5293527395e-02
 -1.5290755779e-02
 -1.5287985094e-02
 -1.5285213478e-02
 -1.5282441862e-02
 -1.5279671177e-02
 -1.5276899561e-02
 -1.5274128877e-02
 -1.5271357261e-02
 -1.5268585645e-02
 -1.5265814960e-02
 -1.5263043344e-02
 -1.5260272659e-02
 -1.5257501043e-02
 -1.5254729427e-02
 -1.5251958743e-02
 -1.5249187127e-02
 -1.5246416442e-02
 -1.5243644826e-02
 -1.5240873210e-02
 -1.5238102525e-02
 -1.5235330909e-02
 -1.5232560225e-02
 -1.5229788609e-02
 -1.5227016993e-02
 -1.5224246308e-02
 -1.5221474692e-02
 -1.5218704008e-02
 -1.5215932392e-02
 -1.5213160776e-02
 -1.5210390091e-02
 -1.5207618475e-02
 -1.5204846859e-02
 -1.5202076174e-02
 -1.5199304558e-02
 -1.5196533874e-02
 -1.5193762258e-02
 -1.5190990642e-02
 -1.5188219957e-02
 -1.5185448341e-02
 -1.5182677656e-02
 -1.5179906040e-02
 -1.5177134424e-02
 -1.5174363740e-02
 -1.5171592124e-02
 -1.5168821439e-02
 -1.5166049823e-02
 -1.5163278207e-02
 -1.5160507523e-02
 -1.5157735907e-02
 -1.5154965222e-02
 -1.5152193606e-02
 -1.5149421990e-02
 -1.5146651305e-02
 -1.5143879689e-02
 -1.5141109005e-02
 -1.5138337389e-02
 -1.5135565773e-02
 -1.5132795088e-02
 -1.5130023472e-02
 -1.5127252787e-02
 -1.5124481171e-02
 -1.5121709555e-02
 -1.5118938871e-02
 -1.5116167255e-02
 -1.5113395639e-02
 -1.5110624954e-02
 -1.5107853338e-02
 -1.5105082653e-02
 -1.5102311037e-02
 -1.5099539421e-02
 -1.5096768737e-02
 -1.5093997121e-02
 -1.5091226436e-02
 -1.5088454820e-02
 -1.5085683204e-02
 -1.5082912520e-02
 -1.5080140904e-02
 -1.5077370219e-02
 -1.5074598603e-02
 -1.5071826987e-02
 -1.5069056302e-02
 -1.5066284686e-02
 -1.5063514002e-02
 -1.5060742386e-02
 -1.5057970770e-02
 -1.5055200085e-02
 -1.5052428469e-02
 -1.5049657784e-02
 -1.5046886168e-02
 -1.5044114552e-02
 -1.5041343868e-02
 -1.5038572252e-02
 -1.5035800636e-02
 -1.5033029951e-02
 -1.5030258335e-02
 -1.5027487651e-02
 -1.5024716035e-02
 -1.5021944419e-02
 -1.5019173734e-02
 -1.5016402118e-02
 -1.5013631433e-02
 -1.5010859817e-02
 -1.5008088201e-02
 -1.5005317517e-02
 -1.5002545901e-02
 -1.4999775216e-02
 -1.4997003600e-02
 -1.4994231984e-02
 -1.4991461299e-02
 -1.4988689683e-02
 -1.4985918999e-02
 -1.4983147383e-02
 -1.4980375767e-02
 -1.4977605082e-02
 -1.4974833466e-02
 -1.4972062781e-02
 -1.4969291165e-02
 -1.4966519549e-02
 -1.4963748865e-02
 -1.4960977249e-02
 -1.4958206564e-02
 -1.4955434948e-02
 -1.4952663332e-02
 -1.4949892648e-02
 -1.4947121032e-02
 -1.4944349416e-02
 -1.4941578731e-02
 -1.4938807115e-02
 -1.4936036430e-02
 -1.4933264814e-02
 -1.4930493198e-02
 -1.4927722514e-02
 -1.4924950898e-02
 -1.4922180213e-02
 -1.4919408597e-02
 -1.4916636981e-02
 -1.4913866296e-02
 -1.4911094680e-02
 -1.4908323996e-02
 -1.4905552380e-02
 -1.4902780764e-02
 -1.4900010079e-02
 -1.4897238463e-02
 -1.4894467779e-02
 -1.4891696163e-02
 -1.4888924547e-02
 -1.4886153862e-02
 -1.4883382246e-02
 -1.4880611561e-02
 -1.4877839945e-02
 -1.4875068329e-02
 -1.4872297645e-02
 -1.4869526029e-02
 -1.4866755344e-02
 -1.4863983728e-02
 -1.4861212112e-02
 -1.4858441427e-02
 -1.4855669811e-02
 -1.4852898195e-02
 -1.4850127511e-02
 -1.4847355895e-02
 -1.4844585210e-02
 -1.4841813594e-02
 -1.4839041978e-02
 -1.4836271293e-02
 -1.4833499677e-02
 -1.4830728993e-02
 -1.4827957377e-02
 -1.4825185761e-02
 -1.4822415076e-02
 -1.4819643460e-02
 -1.4816872776e-02
 -1.4814101160e-02
 -1.4811329544e-02
 -1.4808558859e-02
 -1.4805787243e-02
 -1.4803016558e-02
 -1.4800244942e-02
 -1.4797473326e-02
 -1.4794702642e-02
 -1.4791931026e-02
 -1.4789160341e-02
 -1.4786388725e-02
 -1.4783617109e-02
 -1.4780846424e-02
 -1.4778074808e-02
 -1.4775303192e-02
 -1.4772532508e-02
 -1.4769760892e-02
 -1.4766990207e-02
 -1.4764218591e-02
 -1.4761446975e-02
 -1.4758676291e-02
 -1.4755904675e-02
 -1.4753133990e-02
 -1.4750362374e-02
 -1.4747590758e-02
 -1.4744820073e-02
 -1.4742048457e-02
 -1.4739277773e-02
 -1.4736506157e-02
 -1.4733734541e-02
 -1.4730963856e-02
 -1.4728192240e-02
 -1.4725421555e-02
 -1.4722649939e-02
 -1.4719878323e-02
 -1.4717107639e-02
 -1.4714336023e-02
 -1.4711565338e-02
 -1.4708793722e-02
 -1.4706022106e-02
 -1.4703251421e-02
 -1.4700479805e-02
 -1.4697709121e-02
 -1.4694937505e-02
 -1.4692165889e-02
 -1.4689395204e-02
 -1.4686623588e-02
 -1.4683851972e-02
 -1.4681081288e-02
 -1.4678309672e-02
 -1.4675538987e-02
 -1.4672767371e-02
 -1.4669995755e-02
 -1.4667225070e-02
 -1.4664453454e-02
 -1.4661682770e-02
 -1.4658911154e-02
 -1.4656139538e-02
 -1.4653368853e-02
 -1.4650597237e-02
 -1.4647826552e-02
 -1.4645054936e-02
 -1.4642283320e-02
 -1.4639512636e-02
 -1.4636741020e-02
 -1.4633970335e-02
 -1.4631198719e-02
 -1.4628427103e-02
 -1.4625656419e-02
 -1.4622884803e-02
 -1.4620114118e-02
 -1.4617342502e-02
 -1.4614570886e-02
 -1.4611800201e-02
 -1.4609028585e-02
 -1.4606256969e-02
 -1.4603486285e-02
 -1.4600714669e-02
 -1.4597943984e-02
 -1.4595172368e-02
 -1.4592400752e-02
 -1.4589630067e-02
 -1.4586858451e-02
 -1.4584087767e-02
 -1.4581316151e-02
 -1.4578544535e-02
 -1.4575773850e-02
 -1.4573002234e-02
 -1.4570231549e-02
 -1.4567459933e-02
 -1.4564688317e-02
 -1.4561917633e-02
 -1.4559146017e-02
 -1.4556375332e-02
 -1.4553603716e-02
 -1.4550832100e-02
 -1.4548061416e-02
 -1.4545289800e-02
 -1.4542519115e-02
 -1.4539747499e-02
 -1.4536975883e-02
 -1.4534205198e-02
 -1.4531433582e-02
 -1.4528662898e-02
 -1.4525891282e-02
 -1.4523119666e-02
 -1.4520348981e-02
 -1.4517577365e-02
 -1.4514805749e-02
 -1.4512035064e-02
 -1.4509263448e-02
 -1.4506492764e-02
 -1.4503721148e-02
 -1.4500949532e-02
 -1.4498178847e-02
 -1.4495407231e-02
 -1.4492636546e-02
 -1.4489864931e-02
 -1.4487093315e-02
 -1.4484322630e-02
 -1.4481551014e-02
 -1.4478780329e-02
 -1.4476008713e-02
 -1.4473237097e-02
 -1.4470466413e-02
 -1.4467694797e-02
 -1.4464924112e-02
 -1.4462152496e-02
 -1.4459380880e-02
 -1.4456610195e-02
 -1.4453838579e-02
 -1.4451067895e-02
 -1.4448296279e-02
 -1.4445524663e-02
 -1.4442753978e-02
 -1.4439982362e-02
 -1.4437210746e-02
 -1.4434440061e-02
 -1.4431668445e-02
 -1.4428897761e-02
 -1.4426126145e-02
 -1.4423354529e-02
 -1.4420583844e-02
 -1.4417812228e-02
 -1.4415041544e-02
 -1.4412269928e-02
 -1.4409498312e-02
 -1.4406727627e-02
 -1.4403956011e-02
 -1.4401185326e-02
 -1.4398413710e-02
 -1.4395642094e-02
 -1.4392871410e-02
 -1.4390099794e-02
 -1.4387329109e-02
 -1.4384557493e-02
 -1.4381785877e-02
 -1.4379015192e-02
 -1.4376243576e-02
 -1.4373472892e-02
 -1.4370701276e-02
 -1.4367929660e-02
 -1.4365158975e-02
 -1.4362387359e-02
 -1.4359616674e-02
 -1.4356845059e-02
 -1.4354073443e-02
 -1.4351302758e-02
 -1.4348531142e-02
 -1.4345759526e-02
 -1.4342988841e-02
 -1.4340217225e-02
 -1.4337446541e-02
 -1.4334674925e-02
 -1.4331903309e-02
 -1.4329132624e-02
 -1.4326361008e-02
 -1.4323590323e-02
 -1.4320818707e-02
 -1.4318047091e-02
 -1.4315276407e-02
 -1.4312504791e-02
 -1.4309734106e-02
 -1.4306962490e-02
 -1.4304190874e-02
 -1.4301420189e-02
 -1.4298648573e-02
 -1.4295877889e-02
 -1.4293106273e-02
 -1.4290334657e-02
 -1.4287563972e-02
 -1.4284792356e-02
 -1.4282021672e-02
 -1.4279250056e-02
 -1.4276478440e-02
 -1.4273707755e-02
 -1.4270936139e-02
 -1.4268165454e-02
 -1.4265393838e-02
 -1.4262622222e-02
 -1.4259851538e-02
 -1.4257079922e-02
 -1.4254308306e-02
 -1.4251537621e-02
 -1.4248766005e-02
 -1.4245995320e-02
 -1.4243223704e-02
 -1.4240452088e-02
 -1.4237681404e-02
 -1.4234909788e-02
 -1.4232139103e-02
 -1.4229367487e-02
 -1.4226595871e-02
 -1.4223825186e-02
 -1.4221053571e-02
 -1.4218282886e-02
 -1.4215511270e-02
 -1.4212739654e-02
 -1.4209968969e-02
 -1.4207197353e-02
 -1.4204426669e-02
 -1.4201655053e-02
 -1.4198883437e-02
 -1.4196112752e-02
 -1.4193341136e-02
 -1.4190570451e-02
 -1.4187798835e-02
 -1.4185027219e-02
 -1.4182256535e-02
 -1.4179484919e-02
 -1.4176713303e-02
 -1.4173942618e-02
 -1.4171171002e-02
 -1.4168400317e-02
 -1.4165628701e-02
 -1.4162857085e-02
 -1.4160086401e-02
 -1.4157314785e-02
 -1.4154544100e-02
 -1.4151772484e-02
 -1.4149000868e-02
 -1.4146230184e-02
 -1.4143458568e-02
 -1.4140687883e-02
 -1.4137916267e-02
 -1.4135144651e-02
 -1.4132373966e-02
 -1.4129602350e-02
 -1.4126831666e-02
 -1.4124060050e-02
 -1.4121288434e-02
 -1.4118517749e-02
 -1.4115746133e-02
 -1.4112975448e-02
 -1.4110203832e-02
 -1.4107432216e-02
 -1.4104661532e-02
 -1.4101889916e-02
 -1.4099119231e-02
 -1.4096347615e-02
 -1.4093575999e-02
 -1.4090805314e-02
 -1.4088033698e-02
 -1.4085262083e-02
 -1.4082491398e-02
 -1.4079719782e-02
 -1.4076949097e-02
 -1.4074177481e-02
 -1.4071405865e-02
 -1.4068635181e-02
 -1.4065863565e-02
 -1.4063092880e-02
 -1.4060321264e-02
 -1.4057549648e-02
 -1.4054778963e-02
 -1.4052007347e-02
 -1.4049236663e-02
 -1.4046465047e-02
 -1.4043693431e-02
 -1.4040922746e-02
 -1.4038151130e-02
 -1.4035380445e-02
 -1.4032608829e-02
 -1.4029837213e-02
 -1.4027066529e-02
 -1.4024294913e-02
 -1.4021524228e-02
 -1.4018752612e-02
 -1.4015980996e-02
 -1.4013210312e-02
 -1.4010438696e-02
 -1.4007667080e-02
 -1.4004896395e-02
 -1.4002124779e-02
 -1.3999354094e-02
 -1.3996582478e-02
 -1.3993810862e-02
 -1.3991040178e-02
 -1.3988268562e-02
 -1.3985497877e-02
 -1.3982726261e-02
 -1.3979954645e-02
 -1.3977183960e-02
 -1.3974412344e-02
 -1.3971641660e-02
 -1.3968870044e-02
 -1.3966098428e-02
 -1.3963327743e-02
 -1.3960556127e-02
 -1.3957785442e-02
 -1.3955013826e-02
 -1.3952242211e-02
 -1.3949471526e-02
 -1.3946699910e-02
 -1.3943929225e-02
 -1.3941157609e-02
 -1.3938385993e-02
 -1.3935615309e-02
 -1.3932843693e-02
 -1.3930073008e-02
 -1.3927301392e-02
 -1.3924529776e-02
 -1.3921759091e-02
 -1.3918987475e-02
 -1.3916215859e-02
 -1.3913445175e-02
 -1.3910673559e-02
 -1.3907902874e-02
 -1.3905131258e-02
 -1.3902359642e-02
 -1.3899588957e-02
 -1.3896817341e-02
 -1.3894046657e-02
 -1.3891275041e-02
 -1.3888503425e-02
 -1.3885732740e-02
 -1.3882961124e-02
 -1.3880190440e-02
 -1.3877418824e-02
 -1.3874647208e-02
 -1.3871876523e-02
 -1.3869104907e-02
 -1.3866334222e-02
 -1.3863562606e-02
 -1.3860790990e-02
 -1.3858020306e-02
 -1.3855248690e-02
 -1.3852478005e-02
 -1.3849706389e-02
 -1.3846934773e-02
 -1.3844164088e-02
 -1.3841392472e-02
 -1.3838620856e-02
 -1.3835850172e-02
 -1.3833078556e-02
 -1.3830307871e-02
 -1.3827536255e-02
 -1.3824764639e-02
 -1.3821993954e-02
 -1.3819222338e-02
 -1.3816451654e-02
 -1.3813680038e-02
 -1.3810908422e-02
 -1.3808137737e-02
 -1.3805366121e-02
 -1.3802595437e-02
 -1.3799823821e-02
 -1.3797052205e-02
 -1.3794281520e-02
 -1.3791509904e-02
 -1.3788739219e-02
 -1.3785967603e-02
 -1.3783195987e-02
 -1.3780425303e-02
 -1.3777653687e-02
 -1.3774883002e-02
 -1.3772111386e-02
 -1.3769339770e-02
 -1.3766569085e-02
 -1.3763797469e-02
 -1.3761026785e-02
 -1.3758255169e-02
 -1.3755483553e-02
 -1.3752712868e-02
 -1.3749941252e-02
 -1.3747169636e-02
 -1.3744398952e-02
 -1.3741627336e-02
 -1.3738856651e-02
 -1.3736085035e-02
 -1.3733313419e-02
 -1.3730542734e-02
 -1.3727771118e-02
 -1.3725000434e-02
 -1.3722228818e-02
 -1.3719457202e-02
 -1.3716686517e-02
 -1.3713914901e-02
 -1.3711144216e-02
 -1.3708372600e-02
 -1.3705600984e-02
 -1.3702830300e-02
 -1.3700058684e-02
 -1.3697287999e-02
 -1.3694516383e-02
 -1.3691744767e-02
 -1.3688974082e-02
 -1.3686202466e-02
 -1.3683431782e-02
 -1.3680660166e-02
 -1.3677888550e-02
 -1.3675117865e-02
 -1.3672346249e-02
 -1.3669574633e-02
 -1.3666803949e-02
 -1.3664032333e-02
 -1.3661261648e-02
 -1.3658490032e-02
 -1.3655718416e-02
 -1.3652947731e-02
 -1.3650176115e-02
 -1.3647405431e-02
 -1.3644633815e-02
 -1.3641862199e-02
 -1.3639091514e-02
 -1.3636319898e-02
 -1.3633549213e-02
 -1.3630777597e-02
 -1.3628005981e-02
 -1.3625235297e-02
 -1.3622463681e-02
 -1.3619692996e-02
 -1.3616921380e-02
 -1.3614149764e-02
 -1.3611379080e-02
 -1.3608607464e-02
 -1.3605836779e-02
 -1.3603065163e-02
 -1.3600293547e-02
 -1.3597522862e-02
 -1.3594751246e-02
 -1.3591980562e-02
 -1.3589208946e-02
 -1.3586437330e-02
 -1.3583666645e-02
 -1.3580895029e-02
 -1.3578123413e-02
 -1.3575352728e-02
 -1.3572581112e-02
 -1.3569810428e-02
 -1.3567038812e-02
 -1.3564267196e-02
 -1.3561496511e-02
 -1.3558724895e-02
 -1.3555954210e-02
 -1.3553182594e-02
 -1.3550410978e-02
 -1.3547640294e-02
 -1.3544868678e-02
 -1.3542097993e-02
 -1.3539326377e-02
