luts/V3_LogC_200_to_linear.spi1d
Version 1
From 0 1
Length 65536
Components 1
{
 -1.6062669456e-02
 -1.6060028225e-02
 -1.6057385132e-02
 -1.6054743901e-02
 -1.6052102670e-02
 -1.6049461439e-02
 -1.6046818346e-02
 -1.6044177115e-02
 -1.6041535884e-02
 -1.6038894653e-02
 -1.6036251560e-02
 -1.6033610329e-02
 -1.6030969098e-02
 -1.6028327867e-02
 -1.6025686637e-02
 -1.6023043543e-02
 -1.6020402312e-02
 -1.6017761081e-02
 -1.6015119851e-02
 -1.6012476757e-02
 -1.6009835526e-02
 -1.6007194296e-02
 -1.6004553065e-02
 -1.6001909971e-02
 -1.5999268740e-02
 -1.5996627510e-02
 -1.5993986279e-02
 -1.5991343185e-02
 -1.5988701954e-02
 -1.5986060724e-02
 -1.5983419493e-02
 -1.5980776399e-02
 -1.5978135169e-02
 -1.5975493938e-02
 -1.5972852707e-02
 -1.5970211476e-02
 -1.5967568383e-02
 -1.5964927152e-02
 -1.5962285921e-02
 -1.5959644690e-02
 -1.5957001597e-02
 -1.5954360366e-02
 -1.5951719135e-02
 -1.5949077904e-02
 -1.5946434811e-02
 -1.5943793580e-02
 -1.5941152349e-02
 -1.5938511118e-02
 -1.5935868025e-02
 -1.5933226794e-02
 -1.5930585563e-02
 -1.5927944332e-02
 -1.5925301239e-02
 -1.5922660008e-02
 -1.5920018777e-02
 -1.5917377546e-02
 -1.5914734453e-02
 -1.5912093222e-02
 -1.5909451991e-02
 -1.5906810760e-02
 -1.5904169530e-02
 -1.5901526436e-02
 -1.5898885205e-02
 -1.5896243975e-02
 -1.5893602744e-02
 -1.5890959650e-02
 -1.5888318419e-02
 -1.5885677189e-02
 -1.5883035958e-02
 -1.5880392864e-02
 -1.5877751634e-02
 -1.5875110403e-02
 -1.5872469172e-02
 -1.5869826078e-02
 -1.5867184848e-02
 -1.5864543617e-02
 -1.5861902386e-02
 -1.5859259292e-02
 -1.5856618062e-02
 -1.5853976831e-02
 -1.5851335600e-02
 -1.5848694369e-02
 -1.5846051276e-02
 -1.5843410045e-02
 -1.5840768814e-02
 -1.5838127583e-02
 -1.5835484490e-02
 -1.5832843259e-02
 -1.5830202028e-02
 -1.5827560797e-02
 -1.5824917704e-02
 -1.5822276473e-02
 -1.5819635242e-02
 -1.5816994011e-02
 -1.5814350918e-02
 -1.5811709687e-02
 -1.5809068456e-02
 -1.5806427225e-02
 -1.5803784132e-02
 -1.5801142901e-02
 -1.5798501670e-02
 -1.5795860440e-02
 -1.5793217346e-02
 -1.5790576115e-02
 -1.5787934884e-02
 -1.5785293654e-02
 -1.5782652423e-02
 -1.5780009329e-02
 -1.5777368098e-02
 -1.5774726868e-02
 -1.5772085637e-02
 -1.5769442543e-02
 -1.5766801313e-02
 -1.5764160082e-02
 -1.5761518851e-02
 -1.5758875757e-02
 -1.5756234527e-02
 -1.5753593296e-02
 -1.5750952065e-02
 -1.5748308972e-02
 -1.5745667741e-02
 -1.5743026510e-02
 -1.5740385279e-02
 -1.5737742186e-02
 -1.5735100955e-02
 -1.5732459724e-02
 -1.5729818493e-02
 -1.5727177262e-02
 -1.5724534169e-02
 -1.5721892938e-02
 -1.5719251707e-02
 -1.5716610476e-02
 -1.5713967383e-02
 -1.5711326152e-02
 -1.5708684921e-02
 -1.5706043690e-02
 -1.5703400597e-02
 -1.5700759366e-02
 -1.5698118135e-02
 -1.5695476905e-02
 -1.5692833811e-02
 -1.5690192580e-02
 -1.5687551349e-02
 -1.5684910119e-02
 -1.5682267025e-02
 -1.5679625794e-02
 -1.5676984563e-02
 -1.5674343333e-02
 -1.5671700239e-02
 -1.5669059008e-02
 -1.5666417778e-02
 -1.5663776547e-02
 -1.5661135316e-02
 -1.5658492222e-02
 -1.5655850992e-02
 -1.5653209761e-02
 -1.5650568530e-02
 -1.5647925436e-02
 -1.5645284206e-02
 -1.5642642975e-02
 -1.5640001744e-02
 -1.5637358651e-02
 -1.5634717420e-02
 -1.5632076189e-02
 -1.5629434958e-02
 -1.5626791865e-02
 -1.5624150634e-02
 -1.5621509403e-02
 -1.5618867241e-02
 -1.5616226010e-02
 -1.5613583848e-02
 -1.5610942617e-02
 -1.5608300455e-02
 -1.5605659224e-02
 -1.5603017993e-02
 -1.5600375831e-02
 -1.5597734600e-02
 -1.5595092438e-02
 -1.5592451207e-02
 -1.5589809045e-02
 -1.5587167814e-02
 -1.5584525652e-02
 -1.5581884421e-02
 -1.5579242259e-02
 -1.5576601028e-02
 -1.5573958866e-02
 -1.5571317635e-02
 -1.5568675473e-02
 -1.5566034243e-02
 -1.5563392080e-02
 -1.5560750850e-02
 -1.5558108687e-02
 -1.5555467457e-02
 -1.5552825294e-02
 -1.5550184064e-02
 -1.5547541901e-02
 -1.5544900671e-02
 -1.5542259440e-02
 -1.5539617278e-02
 -1.5536976047e-02
 -1.5534333885e-02
 -1.5531692654e-02
 -1.5529050492e-02
 -1.5526409261e-02
 -1.5523767099e-02
 -1.5521125868e-02
 -1.5518483706e-02
 -1.5515842475e-02
 -1.5513200313e-02
 -1.5510559082e-02
 -1.5507916920e-02
 -1.5505275689e-02
 -1.5502633527e-02
 -1.5499992296e-02
 -1.5497350134e-02
 -1.5494708903e-02
 -1.5492066741e-02
 -1.5489425510e-02
 -1.5486784279e-02
 -1.5484142117e-02
 -1.5481500886e-02
 -1.5478858724e-02
 -1.5476217493e-02
 -1.5473575331e-02
 -1.5470934100e-02
 -1.5468291938e-02
 -1.5465650707e-02
 -1.5463008545e-02
 -1.5460367315e-02
 -1.5457725152e-02
 -1.5455083922e-02
 -1.5452441759e-02
 -1.5449800529e-02
 -1.5447158366e-02
 -1.5444517136e-02
 -1.5441874973e-02
 -1.5439233743e-02
 -1.5436591581e-02
 -1.5433950350e-02
 -1.5431308188e-02
 -1.5428666957e-02
 -1.5426025726e-02
 -1.5423383564e-02
 -1.5420742333e-02
 -1.5418100171e-02
 -1.5415458940e-02
 -1.5412816778e-02
 -1.5410175547e-02
 -1.5407533385e-02
 -1.5404892154e-02
 -1.5402249992e-02
 -1.5399608761e-02
 -1.5396966599e-02
 -1.5394325368e-02
 -1.5391683206e-02
 -1.5389041975e-02
 -1.5386399813e-02
 -1.5383758582e-02
 -1.5381116420e-02
 -1.5378475189e-02
 -1.5375833027e-02
 -1.5373191796e-02
 -1.5370549634e-02
 -1.5367908403e-02
 -1.5365267172e-02
 -1.5362625010e-02
 -1.5359983779e-02
 -1.5357341617e-02
 -1.5354700387e-02
 -1.5352058224e-02
 -1.5349416994e-02
 -1.5346774831e-02
 -1.5344133601e-02
 -1.5341491438e-02
 -1.5338850208e-02
 -1.5336208045e-02
 -1.5333566815e-02
 -1.5330924653e-02
 -1.5328283422e-02
 -1.5325641260e-02
 -1.5323000029e-02
 -1.5320357867e-02
 -1.5317716636e-02
 -1.5315074474e-02
 -1.5312433243e-02
 -1.5309791081e-02
 -1.5307149850e-02
 -1.5304508619e-02
 -1.5301866457e-02
 -1.5299225226e-02
 -1.5296583064e-02
 -1.5293941833e-02
 -1.5291299671e-02
 -1.5288658440e-02
 -1.5286016278e-02
 -1.5283375047e-02
 -1.5280732885e-02
 -1.5278091654e-02
 -1.5275449492e-02
 -1.5272808261e-02
 -1.5270166099e-02
 -1.5267524868e-02
 -1.5264882706e-02
 -1.5262241475e-02
 -1.5259599313e-02
 -1.5256958082e-02
 -1.5254315920e-02
 -1.5251674689e-02
 -1.5249032527e-02
 -1.5246391296e-02
 -1.5243750066e-02
 -1.5241107903e-02
 -1.5238466673e-02
 -1.5235824510e-02
 -1.5233183280e-02
 -1.5230541117e-02
 -1.5227899887e-02
 -1.5225257725e-02
 -1.5222616494e-02
 -1.5219974332e-02
 -1.5217333101e-02
 -1.5214690939e-02
 -1.5212049708e-02
 -1.5209407546e-02
 -1.5206766315e-02
 -1.5204124153e-02
 -1.5201482922e-02
 -1.5198840760e-02
 -1.5196199529e-02
 -1.5193557367e-02
 -1.5190916136e-02
 -1.5188273974e-02
 -1.5185632743e-02
 -1.5182991512e-02
 -1.5180349350e-02
 -1.5177708119e-02
 -1.5175065957e-02
 -1.5172424726e-02
 -1.5169782564e-02
 -1.5167141333e-02
 -1.5164499171e-02
 -1.5161857940e-02
 -1.5159215778e-02
 -1.5156574547e-02
 -1.5153932385e-02
 -1.5151291154e-02
 -1.5148648992e-02
 -1.5146007761e-02
 -1.5143365599e-02
 -1.5140724368e-02
 -1.5138082206e-02
 -1.5135440975e-02
 -1.5132798813e-02
 -1.5130157582e-02
 -1.5127515420e-02
 -1.5124874189e-02
 -1.5122232959e-02
 -1.5119590797e-02
 -1.5116949566e-02
 -1.5114307404e-02
 -1.5111666173e-02
 -1.5109024011e-02
 -1.5106382780e-02
 -1.5103740618e-02
 -1.5101099387e-02
 -1.5098457225e-02
 -1.5095815994e-02
 -1.5093173832e-02
 -1.5090532601e-02
 -1.5087890439e-02
 -1.5085249208e-02
 -1.5082607046e-02
 -1.5079965815e-02
 -1.5077323653e-02
 -1.5074682422e-02
 -1.5072040260e-02
 -1.5069399029e-02
 -1.5066756867e-02
 -1.5064115636e-02
 -1.5061474405e-02
 -1.5058832243e-02
 -1.5056191012e-02
 -1.5053548850e-02
 -1.5050907619e-02
 -1.5048265457e-02
 -1.5045624226e-02
 -1.5042982064e-02
 -1.5040340833e-02
 -1.5037698671e-02
 -1.5035057440e-02
 -1.5032415278e-02
 -1.5029774047e-02
 -1.5027131885e-02
 -1.5024490654e-02
 -1.5021848492e-02
 -1.5019207262e-02
 -1.5016565099e-02
 -1.5013923869e-02
 -1.5011281706e-02
 -1.5008640476e-02
 -1.5005998313e-02
 -1.5003357083e-02
 -1.5000715852e-02
 -1.4998073690e-02
 -1.4995432459e-02
 -1.4992790297e-02
 -1.4990149066e-02
 -1.4987506904e-02
 -1.4984865673e-02
 -1.4982223511e-02
 -1.4979582280e-02
 -1.4976940118e-02
 -1.4974298887e-02
 -1.4971656725e-02
 -1.4969015494e-02
 -1.4966373332e-02
 -1.4963732101e-02
 -1.4961089939e-02
 -1.4958448708e-02
 -1.4955806546e-02
 -1.4953165315e-02
 -1.4950523153e-02
 -1.4947881922e-02
 -1.4945239760e-02
 -1.4942598529e-02
 -1.4939957298e-02
 -1.4937315136e-02
 -1.4934673905e-02
 -1.4932031743e-02
 -1.4929390512e-02
 -1.4926748350e-02
 -1.4924107119e-02
 -1.4921464957e-02
 -1.4918823726e-02
 -1.4916181564e-02
 -1.4913540334e-02
 -1.4910898171e-02
 -1.4908256941e-02
 -1.4905614778e-02
 -1.4902973548e-02
 -1.4900331385e-02
 -1.4897690155e-02
 -1.4895047992e-02
 -1.4892406762e-02
 -1.4889764600e-02
 -1.4887123369e-02
 -1.4884481207e-02
 -1.4881839976e-02
 -1.4879198745e-02
 -1.4876556583e-02
 -1.4873915352e-02
 -1.4871273190e-02
 -1.4868631959e-02
 -1.4865989797e-02
 -1.4863348566e-02
 -1.4860706404e-02
 -1.4858065173e-02
 -1.4855423011e-02
 -1.4852781780e-02
 -1.4850139618e-02
 -1.4847498387e-02
 -1.4844856225e-02
 -1.4842214994e-02
 -1.4839572832e-02
 -1.4836931601e-02
 -1.4834289439e-02
 -1.4831648208e-02
 -1.4829006046e-02
 -1.4826364815e-02
 -1.4823722653e-02
 -1.4821081422e-02
 -1.4818440191e-02
 -1.4815798029e-02
 -1.4813156798e-02
 -1.4810514636e-02
 -1.4807873406e-02
 -1.4805231243e-02
 -1.4802590013e-02
 -1.4799947850e-02
 -1.4797306620e-02
 -1.4794664457e-02
 -1.4792023227e-02
 -1.4789381064e-02
 -1.4786739834e-02
 -1.4784097672e-02
 -1.4781456441e-02
 -1.4778814279e-02
 -1.4776173048e-02
 -1.4773530886e-02
 -1.4770889655e-02
 -1.4768247493e-02
 -1.4765606262e-02
 -1.4762964100e-02
 -1.4760322869e-02
 -1.4757681638e-02
 -1.4755039476e-02
 -1.4752398245e-02
 -1.4749756083e-02
 -1.4747114852e-02
 -1.4744472690e-02
 -1.4741831459e-02
 -1.4739189297e-02
 -1.4736548066e-02
 -1.4733905904e-02
 -1.4731264673e-02
 -1.4728622511e-02
 -1.4725981280e-02
 -1.4723339118e-02
 -1.4720697887e-02
 -1.4718055725e-02
 -1.4715414494e-02
 -1.4712772332e-02
 -1.4710131101e-02
 -1.4707488939e-02
 -1.4704847708e-02
 -1.4702205546e-02
 -1.4699564315e-02
 -1.4696923085e-02
 -1.4694280922e-02
 -1.4691639692e-02
 -1.4688997529e-02
 -1.4686356299e-02
 -1.4683714136e-02
 -1.4681072906e-02
 -1.4678430744e-02
 -1.4675789513e-02
 -1.4673147351e-02
 -1.4670506120e-02
 -1.4667863958e-02
 -1.4665222727e-02
 -1.4662580565e-02
 -1.4659939334e-02
 -1.4657297172e-02
 -1.4654655941e-02
 -1.4652013779e-02
 -1.4649372548e-02
 -1.4646730386e-02
 -1.4644089155e-02
 -1.4641446993e-02
 -1.4638805762e-02
 -1.4636164531e-02
 -1.4633522369e-02
 -1.4630881138e-02
 -1.4628238976e-02
 -1.4625597745e-02
 -1.4622955583e-02
 -1.4620314352e-02
 -1.4617672190e-02
 -1.4615030959e-02
 -1.4612388797e-02
 -1.4609747566e-02
 -1.4607105404e-02
 -1.4604464173e-02
 -1.4601822011e-02
 -1.4599180780e-02
 -1.4596538618e-02
 -1.4593897387e-02
 -1.4591255225e-02
 -1.4588613994e-02
 -1.4585971832e-02
 -1.4583330601e-02
 -1.4580688439e-02
 -1.4578047208e-02
 -1.4575405978e-02
 -1.4572763816e-02
 -1.4570122585e-02
 -1.4567480423e-02
 -1.4564839192e-02
 -1.4562197030e-02
 -1.4559555799e-02
 -1.4556913637e-02
 -1.4554272406e-02
 -1.4551630244e-02
 -1.4548989013e-02
 -1.4546346851e-02
 -1.4543705620e-02
 -1.4541063458e-02
 -1.4538422227e-02
 -1.4535780065e-02
 -1.4533138834e-02
 -1.4530496672e-02
 -1.4527855441e-02
 -1.4525213279e-02
 -1.4522572048e-02
 -1.4519929886e-02
 -1.4517288655e-02
 -1.4514647424e-02
 -1.4512005262e-02
 -1.4509364031e-02
 -1.4506721869e-02
 -1.4504080638e-02
 -1.4501438476e-02
 -1.4498797245e-02
 -1.4496155083e-02
 -1.4493513852e-02
 -1.4490871690e-02
 -1.4488230459e-02
 -1.4485588297e-02
 -1.4482947066e-02
 -1.4480304904e-02
 -1.4477663673e-02
 -1.4475021511e-02
 -1.4472380280e-02
 -1.4469738118e-02
 -1.4467096888e-02
 -1.4464454725e-02
 -1.4461813495e-02
 -1.4459172264e-02
 -1.4456530102e-02
 -1.4453888871e-02
 -1.4451246709e-02
 -1.4448605478e-02
 -1.4445963316e-02
 -1.4443322085e-02
 -1.4440679923e-02
 -1.4438038692e-02
 -1.4435396530e-02
 -1.4432755299e-02
 -1.4430113137e-02
 -1.4427471906e-02
 -1.4424829744e-02
 -1.4422188513e-02
 -1.4419546351e-02
 -1.4416905120e-02
 -1.4414262958e-02
 -1.4411621727e-02
 -1.4408979565e-02
 -1.4406338334e-02
 -1.4403696172e-02
 -1.4401054941e-02
 -1.4398413710e-02
 -1.4395771548e-02
 -1.4393130317e-02
 -1.4390488155e-02
 -1.4387846924e-02
 -1.4385204762e-02
 -1.4382563531e-02
 -1.4379921369e-02
 -1.4377280138e-02
 -1.4374637976e-02
 -1.4371996745e-02
 -1.4369354583e-02
 -1.4366713353e-02
 -1.4364071190e-02
 -1.4361429960e-02
 -1.4358787797e-02
 -1.4356146567e-02
 -1.4353504404e-02
 -1.4350863174e-02
 -1.4348221011e-02
 -1.4345579781e-02
 -1.4342937618e-02
 -1.4340296388e-02
 -1.4337655157e-02
 -1.4335012995e-02
 -1.4332371764e-02
 -1.4329729602e-02
 -1.4327088371e-02
 -1.4324446209e-02
 -1.4321804978e-02
 -1.4319162816e-02
 -1.4316521585e-02
 -1.4313879423e-02
 -1.4311238192e-02
 -1.4308596030e-02
 -1.4305954799e-02
 -1.4303312637e-02
 -1.4300671406e-02
 -1.4298029244e-02
 -1.4295388013e-02
 -1.4292745851e-02
 -1.4290104620e-02
 -1.4287462458e-02
 -1.4284821227e-02
 -1.4282179065e-02
 -1.4279537834e-02
 -1.4276896603e-02
 -1.4274254441e-02
 -1.4271613210e-02
 -1.4268971048e-02
 -1.4266329817e-02
 -1.4263687655e-02
 -1.4261046425e-02
 -1.4258404262e-02
 -1.4255763032e-02
 -1.4253120869e-02
 -1.4250479639e-02
 -1.4247837476e-02
 -1.4245196246e-02
 -1.4242554083e-02
 -1.4239912853e-02
 -1.4237270691e-02
 -1.4234629460e-02
 -1.4231987298e-02
 -1.4229346067e-02
 -1.4226703905e-02
 -1.4224062674e-02
 -1.4221420512e-02
 -1.4218779281e-02
 -1.4216138050e-02
 -1.4213495888e-02
 -1.4210854657e-02
 -1.4208212495e-02
 -1.4205571264e-02
 -1.4202929102e-02
 -1.4200287871e-02
 -1.4197645709e-02
 -1.4195004478e-02
 -1.4192362316e-02
 -1.4189721085e-02
 -1.4187078923e-02
 -1.4184437692e-02
 -1.4181795530e-02
 -1.4179154299e-02
 -1.4176512137e-02
 -1.4173870906e-02
 -1.4171228744e-02
 -1.4168587513e-02
 -1.4165945351e-02
 -1.4163304120e-02
 -1.4160661958e-02
 -1.4158020727e-02
 -1.4155379497e-02
 -1.4152737334e-02
 -1.4150096104e-02
 -1.4147453941e-02
 -1.4144812711e-02
 -1.4142170548e-02
 -1.4139529318e-02
 -1.4136887155e-02
 -1.4134245925e-02
 -1.4131603763e-02
 -1.4128962532e-02
 -1.4126320370e-02
 -1.4123679139e-02
 -1.4121036977e-02
 -1.4118395746e-02
 -1.4115753584e-02
 -1.4113112353e-02
 -1.4110470191e-02
 -1.4107828960e-02
 -1.4105186798e-02
 -1.4102545567e-02
 -1.4099903405e-02
 -1.4097262174e-02
 -1.4094620943e-02
 -1.4091978781e-02
 -1.4089337550e-02
 -1.4086695388e-02
 -1.4084054157e-02
 -1.4081411995e-02
 -1.4078770764e-02
 -1.4076128602e-02
 -1.4073487371e-02
 -1.4070845209e-02
 -1.4068203978e-02
 -1.4065561816e-02
 -1.4062920585e-02
 -1.4060278423e-02
 -1.4057637192e-02
 -1.4054995030e-02
 -1.4052353799e-02
 -1.4049711637e-02
 -1.4047070406e-02
 -1.4044428244e-02
 -1.4041787013e-02
 -1.4039144851e-02
 -1.4036503620e-02
 -1.4033862390e-02
 -1.4031220227e-02
 -1.4028578997e-02
 -1.4025936835e-02
 -1.4023295604e-02
 -1.4020653442e-02
 -1.4018012211e-02
 -1.4015370049e-02
 -1.4012728818e-02
 -1.4010086656e-02
 -1.4007445425e-02
 -1.4004803263e-02
 -1.4002162032e-02
 -1.3999519870e-02
 -1.3996878639e-02
 -1.3994236477e-02
 -1.3991595246e-02
 -1.3988953084e-02
 -1.3986311853e-02
 -1.3983669691e-02
 -1.3981028460e-02
 -1.3978386298e-02
 -1.3975745067e-02
 -1.3973103836e-02
 -1.3970461674e-02
 -1.3967820443e-02
 -1.3965178281e-02
 -1.3962537050e-02
 -1.3959894888e-02
 -1.3957253657e-02
 -1.3954611495e-02
 -1.3951970264e-02
 -1.3949328102e-02
 -1.3946686871e-02
 -1.3944044709e-02
 -1.3941403478e-02
 -1.3938761316e-02
 -1.3936120085e-02
 -1.3933477923e-02
 -1.3930836692e-02
 -1.3928194530e-02
 -1.3925553299e-02
 -1.3922911137e-02
 -1.3920269907e-02
 -1.3917627744e-02
 -1.3914986514e-02
 -1.3912345283e-02
 -1.3909703121e-02
 -1.3907061890e-02
 -1.3904419728e-02
 -1.3901778497e-02
 -1.3899136335e-02
 -1.3896495104e-02
 -1.3893852942e-02
 -1.3891211711e-02
 -1.3888569549e-02
 -1.3885928318e-02
 -1.3883286156e-02
 -1.3880644925e-02
 -1.3878002763e-02
 -1.3875361532e-02
 -1.3872719370e-02
 -1.3870078139e-02
 -1.3867435977e-02
 -1.3864794746e-02
 -1.3862152584e-02
 -1.3859511353e-02
 -1.3856869191e-02
 -1.3854227960e-02
 -1.3851586729e-02
 -1.3848944567e-02
 -1.3846303336e-02
 -1.3843661174e-02
 -1.3841019943e-02
 -1.3838377781e-02
 -1.3835736550e-02
 -1.3833094388e-02
 -1.3830453157e-02
 -1.3827810995e-02
 -1.3825169764e-02
 -1.3822527602e-02
 -1.3819886371e-02
 -1.3817244209e-02
 -1.3814602979e-02
 -1.3811960816e-02
 -1.3809319586e-02
 -1.3806677423e-02
 -1.3804036193e-02
 -1.3801394030e-02
 -1.3798752800e-02
 -1.3796110637e-02
 -1.3793469407e-02
 -1.3790828176e-02
 -1.3788186014e-02
 -1.3785544783e-02
 -1.3782902621e-02
 -1.3780261390e-02
 -1.3777619228e-02
 -1.3774977997e-02
 -1.3772335835e-02
 -1.3769694604e-02
 -1.3767052442e-02
 -1.3764411211e-02
 -1.3761769049e-02
 -1.3759127818e-02
 -1.3756485656e-02
 -1.3753844425e-02
 -1.3751202263e-02
 -1.3748561032e-02
 -1.3745918870e-02
 -1.3743277639e-02
 -1.3740635477e-02
 -1.3737994246e-02
 -1.3735352084e-02
 -1.3732710853e-02
 -1.3730069622e-02
 -1.3727427460e-02
 -1.3724786229e-02
 -1.3722144067e-02
 -1.3719502836e-02
 -1.3716860674e-02
 -1.3714219444e-02
 -1.3711577281e-02
 -1.3708936051e-02
 -1.3706293888e-02
 -1.3703652658e-02
 -1.3701010495e-02
 -1.3698369265e-02
 -1.3695727102e-02
 -1.3693085872e-02
 -1.3690443709e-02
 -1.3687802479e-02
 -1.3685160317e-02
 -1.3682519086e-02
 -1.3679876924e-02
 -1.3677235693e-02
 -1.3674593531e-02
 -1.3671952300e-02
 -1.3669311069e-02
 -1.3666668907e-02
 -1.3664027676e-02
 -1.3661385514e-02
 -1.3658744283e-02
 -1.3656102121e-02
 -1.3653460890e-02
 -1.3650818728e-02
 -1.3648177497e-02
 -1.3645535335e-02
 -1.3642894104e-02
 -1.3640251942e-02
 -1.3637610711e-02
 -1.3634968549e-02
 -1.3632327318e-02
 -1.3629685156e-02
 -1.3627043925e-02
 -1.3624401763e-02
 -1.3621760532e-02
 -1.3619118370e-02
 -1.3616477139e-02
 -1.3613834977e-02
 -1.3611193746e-02
 -1.3608552516e-02
 -1.3605910353e-02
 -1.3603269123e-02
 -1.3600626960e-02
 -1.3597985730e-02
 -1.3595343567e-02
 -1.3592702337e-02
 -1.3590060174e-02
 -1.3587418944e-02
 -1.3584776781e-02
 -1.3582135551e-02
 -1.3579493389e-02
 -1.3576852158e-02
 -1.3574209996e-02
 -1.3571568765e-02
 -1.3568926603e-02
 -1.3566285372e-02
 -1.3563643210e-02
 -1.3561001979e-02
 -1.3558359817e-02
 -1.3555718586e-02
 -1.3553076424e-02
 -1.3550435193e-02
 -1.3547793962e-02
 -1.3545151800e-02
 -1.3542510569e-02
 -1.3539868407e-02
 -1.3537227176e-02
 -1.3534585014e-02
 -1.3531943783e-02
 -1.3529301621e-02
 -1.3526660390e-02
 -1.3524018228e-02
 -1.3521376997e-02
 -1.3518734835e-02
 -1.3516093604e-02
 -1.3513451442e-02
 -1.3510810211e-02
 -1.3508168049e-02
 -1.3505526818e-02
 -1.3502884656e-02
 -1.3500243425e-02
 -1.3497601263e-02
 -1.3494960032e-02
 -1.3492317870e-02
 -1.3489676639e-02
 -1.3487035409e-02
 -1.3484393246e-02
 -1.3481752016e-02
 -1.3479109854e-02
 -1.3476468623e-02
 -1.3473826461e-02
 -1.3471185230e-02
 -1.3468543068e-02
 -1.3465901837e-02
 -1.3463259675e-02
 -1.3460618444e-02
 -1.3457976282e-02
 -1.3455335051e-02
 -1.3452692889e-02
 -1.3450051658e-02
 -1.3447409496e-02
 -1.3444768265e-02
 -1.3442126103e-02
 -1.3439484872e-02
 -1.3436842710e-02
 -1.3434201479e-02
 -1.3431560248e-02
 -1.3428918086e-02
 -1.3426276855e-02
 -1.3423634693e-02
 -1.3420993462e-02
 -1.3418351300e-02
 -1.3415710069e-02
 -1.3413067907e-02
 -1.3410426676e-02
 -1.3407784514e-02
 -1.3405143283e-02
 -1.3402501121e-02
 -1.3399859890e-02
 -1.3397217728e-02
 -1.3394576497e-02
 -1.3391934335e-02
 -1.3389293104e-02
 -1.3386650942e-02
 -1.3384009711e-02
 -1.3381367549e-02
 -1.3378726318e-02
 -1.3376084156e-02
 -1.3373442926e-02
 -1.3370801695e-02
 -1.3368159533e-02
 -1.3365518302e-02
 -1.3362876140e-02
 -1.3360234909e-02
 -1.3357592747e-02
 -1.3354951516e-02
 -1.3352309354e-02
 -1.3349668123e-02
 -1.3347025961e-02
 -1.3344384730e-02
 -1.3341742568e-02
 -1.3339101337e-02
 -1.3336459175e-02
 -1.3333817944e-02
 -1.3331175782e-02
 -1.3328534551e-02
 -1.3325892389e-02
 -1.3323251158e-02
 -1.3320608996e-02
 -1.3317967765e-02
 -1.3315325603e-02
 -1.3312684372e-02
 -1.3310043141e-02
 -1.3307400979e-02
 -1.3304759748e-02
 -1.3302117586e-02
 -1.3299476355e-02
 -1.3296834193e-02
 -1.3294192962e-02
 -1.3291550800e-02
 -1.3288909569e-02
 -1.3286267407e-02
 -1.3283626176e-02
 -1.3280984014e-02
 -1.3278342783e-02
 -1.3275700621e-02
 -1.3273059390e-02
 -1.3270417228e-02
 -1.3267775998e-02
 -1.3265133835e-02
 -1.3262492605e-02
 -1.3259850442e-02
 -1.3257209212e-02
 -1.3254567049e-02
 -1.3251925819e-02
 -1.3249284588e-02
 -1.3246642426e-02
 -1.3244001195e-02
 -1.3241359033e-02
 -1.3238717802e-02
 -1.3236075640e-02
 -1.3233434409e-02
 -1.3230792247e-02
 -1.3228151016e-02
 -1.3225508854e-02
 -1.3222867623e-02
 -1.3220225461e-02
 -1.3217584230e-02
 -1.3214942068e-02
 -1.3212300837e-02
 -1.3209658675e-02
 -1.3207017444e-02
 -1.3204375282e-02
 -1.3201734051e-02
 -1.3199091889e-02
 -1.3196450658e-02
 -1.3193808496e-02
 -1.3191167265e-02
 -1.3188526034e-02
 -1.3185883872e-02
 -1.3183242641e-02
 -1.3180600479e-02
 -1.3177959248e-02
 -1.3175317086e-02
 -1.3172675855e-02
 -1.3170033693e-02
 -1.3167392462e-02
 -1.3164750300e-02
 -1.3162109070e-02
 -1.3159466907e-02
 -1.3156825677e-02
 -1.3154183514e-02
 -1.3151542284e-02
 -1.3148900121e-02
 -1.3146258891e-02
 -1.3143616728e-02
 -1.3140975498e-02
 -1.3138333336e-02
 -1.3135692105e-02
 -1.3133049943e-02
 -1.3130408712e-02
 -1.3127767481e-02
 -1.3125125319e-02
 -1.3122484088e-02
 -1.3119841926e-02
 -1.3117200695e-02
 -1.3114558533e-02
 -1.3111917302e-02
 -1.3109275140e-02
 -1.3106633909e-02
 -1.3103991747e-02
 -1.3101350516e-02
 -1.3098708354e-02
 -1.3096067123e-02
 -1.3093424961e-02
 -1.3090783730e-02
 -1.3088141568e-02
 -1.3085500337e-02
 -1.3082858175e-02
 -1.3080216944e-02
 -1.3077574782e-02
 -1.3074933551e-02
 -1.3072291389e-02
 -1.3069650158e-02
 -1.3067008927e-02
 -1.3064366765e-02
 -1.3061725534e-02
 -1.3059083372e-02
 -1.3056442142e-02
 -1.3053799979e-02
 -1.3051158749e-02
 -1.3048516586e-02
 -1.3045875356e-02
 -1.3043233193e-02
 -1.3040591963e-02
 -1.3037949800e-02
 -1.3035308570e-02
 -1.3032666408e-02
 -1.3030025177e-02
 -1.3027383015e-02
 -1.3024741784e-02
 -1.3022099622e-02
 -1.3019458391e-02
 -1.3016816229e-02
 -1.3014174998e-02
 -1.3011532836e-02
 -1.3008891605e-02
 -1.3006250374e-02
 -1.3003608212e-02
 -1.3000966981e-02
 -1.2998324819e-02
 -1.2995683588e-02
 -1.2993041426e-02
 -1.2990400195e-02
 -1.2987758033e-02
 -1.2985116802e-02
 -1.2982474640e-02
 -1.2979833409e-02
 -1.2977191247e-02
 -1.2974550016e-02
 -1.2971907854e-02
 -1.2969266623e-02
 -1.2966624461e-02
 -1.2963983230e-02
 -1.2961341068e-02
 -1.2958699837e-02
 -1.2956057675e-02
 -1.2953416444e-02
 -1.2950774282e-02
 -1.2948133051e-02
 -1.2945491821e-02
 -1.2942849658e-02
 -1.2940208428e-02
 -1.2937566265e-02
 -1.2934925035e-02
 -1.2932282872e-02
 -1.2929641642e-02
 -1.2926999480e-02
 -1.2924358249e-02
 -1.2921716087e-02
 -1.2919074856e-02
 -1.2916432694e-02
 -1.2913791463e-02
 -1.2911149301e-02
 -1.2908508070e-02
 -1.2905865908e-02
 -1.2903224677e-02
