luts/V3_LogC_3200_to_linear.spi1d
Version 1
From 0 1
Length 65536
Components 1
{
 -1.8721254542e-02
 -1.8718177453e-02
 -1.8715100363e-02
 -1.8712023273e-02
 -1.8708946183e-02
 -1.8705870956e-02
 -1.8702793866e-02
 -1.8699716777e-02
 -1.8696639687e-02
 -1.8693562597e-02
 -1.8690485507e-02
 -1.8687408417e-02
 -1.8684331328e-02
 -1.8681254238e-02
 -1.8678177148e-02
 -1.8675100058e-02
 -1.8672022969e-02
 -1.8668945879e-02
 -1.8665868789e-02
 -1.8662791699e-02
 -1.8659714609e-02
 -1.8656637520e-02
 -1.8653560430e-02
 -1.8650483340e-02
 -1.8647406250e-02
 -1.8644329160e-02
 -1.8641252071e-02
 -1.8638174981e-02
 -1.8635099754e-02
 -1.8632022664e-02
 -1.8628945574e-02
 -1.8625868484e-02
 -1.8622791395e-02
 -1.8619714305e-02
 -1.8616637215e-02
 -1.8613560125e-02
 -1.8610483035e-02
 -1.8607405946e-02
 -1.8604328856e-02
 -1.8601251766e-02
 -1.8598174676e-02
 -1.8595097587e-02
 -1.8592020497e-02
 -1.8588943407e-02
 -1.8585866317e-02
 -1.8582789227e-02
 -1.8579712138e-02
 -1.8576635048e-02
 -1.8573557958e-02
 -1.8570480868e-02
 -1.8567403778e-02
 -1.8564328551e-02
 -1.8561251462e-02
 -1.8558174372e-02
 -1.8555097282e-02
 -1.8552020192e-02
 -1.8548943102e-02
 -1.8545866013e-02
 -1.8542788923e-02
 -1.8539711833e-02
 -1.8536634743e-02
 -1.8533557653e-02
 -1.8530480564e-02
 -1.8527403474e-02
 -1.8524326384e-02
 -1.8521249294e-02
 -1.8518172204e-02
 -1.8515095115e-02
 -1.8512018025e-02
 -1.8508940935e-02
 -1.8505863845e-02
 -1.8502786756e-02
 -1.8499709666e-02
 -1.8496632576e-02
 -1.8493557349e-02
 -1.8490480259e-02
 -1.8487403169e-02
 -1.8484326079e-02
 -1.8481248990e-02
 -1.8478171900e-02
 -1.8475094810e-02
 -1.8472017720e-02
 -1.8468940631e-02
 -1.8465863541e-02
 -1.8462786451e-02
 -1.8459709361e-02
 -1.8456632271e-02
 -1.8453555182e-02
 -1.8450478092e-02
 -1.8447401002e-02
 -1.8444323912e-02
 -1.8441246822e-02
 -1.8438169733e-02
 -1.8435092643e-02
 -1.8432015553e-02
 -1.8428938463e-02
 -1.8425861374e-02
 -1.8422786146e-02
 -1.8419709057e-02
 -1.8416631967e-02
 -1.8413554877e-02
 -1.8410477787e-02
 -1.8407400697e-02
 -1.8404323608e-02
 -1.8401246518e-02
 -1.8398169428e-02
 -1.8395092338e-02
 -1.8392015249e-02
 -1.8388938159e-02
 -1.8385861069e-02
 -1.8382783979e-02
 -1.8379706889e-02
 -1.8376629800e-02
 -1.8373552710e-02
 -1.8370475620e-02
 -1.8367398530e-02
 -1.8364321440e-02
 -1.8361244351e-02
 -1.8358167261e-02
 -1.8355090171e-02
 -1.8352014944e-02
 -1.8348937854e-02
 -1.8345860764e-02
 -1.8342783675e-02
 -1.8339706585e-02
 -1.8336629495e-02
 -1.8333552405e-02
 -1.8330475315e-02
 -1.8327398226e-02
 -1.8324321136e-02
 -1.8321244046e-02
 -1.8318166956e-02
 -1.8315089867e-02
 -1.8312012777e-02
 -1.8308935687e-02
 -1.8305858597e-02
 -1.8302781507e-02
 -1.8299704418e-02
 -1.8296627328e-02
 -1.8293550238e-02
 -1.8290473148e-02
 -1.8287396058e-02
 -1.8284318969e-02
 -1.8281243742e-02
 -1.8278166652e-02
 -1.8275089562e-02
 -1.8272012472e-02
 -1.8268935382e-02
 -1.8265858293e-02
 -1.8262781203e-02
 -1.8259704113e-02
 -1.8256627023e-02
 -1.8253549933e-02
 -1.8250472844e-02
 -1.8247395754e-02
 -1.8244318664e-02
 -1.8241241574e-02
 -1.8238164485e-02
 -1.8235087395e-02
 -1.8232010305e-02
 -1.8228933215e-02
 -1.8225856125e-02
 -1.8222779036e-02
 -1.8219701946e-02
 -1.8216624856e-02
 -1.8213547766e-02
 -1.8210472539e-02
 -1.8207395449e-02
 -1.8204318359e-02
 -1.8201241270e-02
 -1.8198164180e-02
 -1.8195087090e-02
 -1.8192010000e-02
 -1.8188932911e-02
 -1.8185855821e-02
 -1.8182778731e-02
 -1.8179701641e-02
 -1.8176624551e-02
 -1.8173547462e-02
 -1.8170470372e-02
 -1.8167393282e-02
 -1.8164316192e-02
 -1.8161239102e-02
 -1.8158162013e-02
 -1.8155084923e-02
 -1.8152007833e-02
 -1.8148930743e-02
 -1.8145853654e-02
 -1.8142776564e-02
 -1.8139701337e-02
 -1.8136624247e-02
 -1.8133547157e-02
 -1.8130470067e-02
 -1.8127392977e-02
 -1.8124315888e-02
 -1.8121238798e-02
 -1.8118161708e-02
 -1.8115084618e-02
 -1.8112007529e-02
 -1.8108930439e-02
 -1.8105853349e-02
 -1.8102776259e-02
 -1.8099699169e-02
 -1.8096622080e-02
 -1.8093544990e-02
 -1.8090467900e-02
 -1.8087390810e-02
 -1.8084313720e-02
 -1.8081236631e-02
 -1.8078159541e-02
 -1.8075082451e-02
 -1.8072005361e-02
 -1.8068930134e-02
 -1.8065853044e-02
 -1.8062775955e-02
 -1.8059698865e-02
 -1.8056621775e-02
 -1.8053544685e-02
 -1.8050467595e-02
 -1.8047390506e-02
 -1.8044313416e-02
 -1.8041236326e-02
 -1.8038159236e-02
 -1.8035082147e-02
 -1.8032005057e-02
 -1.8028927967e-02
 -1.8025850877e-02
 -1.8022773787e-02
 -1.8019696698e-02
 -1.8016619608e-02
 -1.8013542518e-02
 -1.8010465428e-02
 -1.8007388338e-02
 -1.8004311249e-02
 -1.8001234159e-02
 -1.7998158932e-02
 -1.7995081842e-02
 -1.7992004752e-02
 -1.7988927662e-02
 -1.7985850573e-02
 -1.7982773483e-02
 -1.7979696393e-02
 -1.7976619303e-02
 -1.7973542213e-02
 -1.7970465124e-02
 -1.7967388034e-02
 -1.7964310944e-02
 -1.7961233854e-02
 -1.7958156765e-02
 -1.7955079675e-02
 -1.7952002585e-02
 -1.7948925495e-02
 -1.7945848405e-02
 -1.7942771316e-02
 -1.7939694226e-02
 -1.7936617136e-02
 -1.7933540046e-02
 -1.7930464819e-02
 -1.7927387729e-02
 -1.7924310640e-02
 -1.7921233550e-02
 -1.7918156460e-02
 -1.7915079370e-02
 -1.7912002280e-02
 -1.7908925191e-02
 -1.7905848101e-02
 -1.7902771011e-02
 -1.7899693921e-02
 -1.7896616831e-02
 -1.7893539742e-02
 -1.7890462652e-02
 -1.7887385562e-02
 -1.7884308472e-02
 -1.7881231382e-02
 -1.7878154293e-02
 -1.7875077203e-02
 -1.7872000113e-02
 -1.7868923023e-02
 -1.7865845934e-02
 -1.7862768844e-02
 -1.7859693617e-02
 -1.7856616527e-02
 -1.7853539437e-02
 -1.7850462347e-02
 -1.7847385257e-02
 -1.7844308168e-02
 -1.7841231078e-02
 -1.7838153988e-02
 -1.7835076898e-02
 -1.7831999809e-02
 -1.7828922719e-02
 -1.7825845629e-02
 -1.7822768539e-02
 -1.7819691449e-02
 -1.7816614360e-02
 -1.7813537270e-02
 -1.7810460180e-02
 -1.7807383090e-02
 -1.7804306000e-02
 -1.7801228911e-02
 -1.7798151821e-02
 -1.7795074731e-02
 -1.7791997641e-02
 -1.7788922414e-02
 -1.7785845324e-02
 -1.7782768235e-02
 -1.7779691145e-02
 -1.7776614055e-02
 -1.7773536965e-02
 -1.7770459875e-02
 -1.7767382786e-02
 -1.7764305696e-02
 -1.7761228606e-02
 -1.7758151516e-02
 -1.7755074427e-02
 -1.7751997337e-02
 -1.7748920247e-02
 -1.7745843157e-02
 -1.7742766067e-02
 -1.7739688978e-02
 -1.7736611888e-02
 -1.7733534798e-02
 -1.7730457708e-02
 -1.7727380618e-02
 -1.7724303529e-02
 -1.7721226439e-02
 -1.7718151212e-02
 -1.7715074122e-02
 -1.7711997032e-02
 -1.7708919942e-02
 -1.7705842853e-02
 -1.7702765763e-02
 -1.7699688673e-02
 -1.7696611583e-02
 -1.7693534493e-02
 -1.7690457404e-02
 -1.7687380314e-02
 -1.7684303224e-02
 -1.7681226134e-02
 -1.7678149045e-02
 -1.7675071955e-02
 -1.7671994865e-02
 -1.7668917775e-02
 -1.7665840685e-02
 -1.7662763596e-02
 -1.7659686506e-02
 -1.7656609416e-02
 -1.7653532326e-02
 -1.7650455236e-02
 -1.7647380009e-02
 -1.7644302920e-02
 -1.7641225830e-02
 -1.7638148740e-02
 -1.7635071650e-02
 -1.7631994560e-02
 -1.7628917471e-02
 -1.7625840381e-02
 -1.7622763291e-02
 -1.7619686201e-02
 -1.7616609111e-02
 -1.7613532022e-02
 -1.7610454932e-02
 -1.7607377842e-02
 -1.7604300752e-02
 -1.7601223662e-02
 -1.7598146573e-02
 -1.7595069483e-02
 -1.7591992393e-02
 -1.7588915303e-02
 -1.7585838214e-02
 -1.7582761124e-02
 -1.7579684034e-02
 -1.7576608807e-02
 -1.7573531717e-02
 -1.7570454627e-02
 -1.7567377537e-02
 -1.7564300448e-02
 -1.7561223358e-02
 -1.7558146268e-02
 -1.7555069178e-02
 -1.7551992089e-02
 -1.7548914999e-02
 -1.7545837909e-02
 -1.7542760819e-02
 -1.7539683729e-02
 -1.7536606640e-02
 -1.7533529550e-02
 -1.7530452460e-02
 -1.7527375370e-02
 -1.7524298280e-02
 -1.7521221191e-02
 -1.7518144101e-02
 -1.7515067011e-02
 -1.7511989921e-02
 -1.7508912832e-02
 -1.7505837604e-02
 -1.7502760515e-02
 -1.7499683425e-02
 -1.7496606335e-02
 -1.7493529245e-02
 -1.7490452155e-02
 -1.7487375066e-02
 -1.7484297976e-02
 -1.7481220886e-02
 -1.7478143796e-02
 -1.7475066707e-02
 -1.7471989617e-02
 -1.7468912527e-02
 -1.7465835437e-02
 -1.7462758347e-02
 -1.7459681258e-02
 -1.7456604168e-02
 -1.7453527078e-02
 -1.7450449988e-02
 -1.7447372898e-02
 -1.7444295809e-02
 -1.7441218719e-02
 -1.7438141629e-02
 -1.7435066402e-02
 -1.7431989312e-02
 -1.7428912222e-02
 -1.7425835133e-02
 -1.7422758043e-02
 -1.7419680953e-02
 -1.7416603863e-02
 -1.7413526773e-02
 -1.7410449684e-02
 -1.7407372594e-02
 -1.7404295504e-02
 -1.7401218414e-02
 -1.7398141325e-02
 -1.7395064235e-02
 -1.7391987145e-02
 -1.7388910055e-02
 -1.7385832965e-02
 -1.7382755876e-02
 -1.7379678786e-02
 -1.7376601696e-02
 -1.7373524606e-02
 -1.7370447516e-02
 -1.7367370427e-02
 -1.7364295200e-02
 -1.7361218110e-02
 -1.7358141020e-02
 -1.7355063930e-02
 -1.7351986840e-02
 -1.7348909751e-02
 -1.7345832661e-02
 -1.7342755571e-02
 -1.7339678481e-02
 -1.7336601391e-02
 -1.7333524302e-02
 -1.7330447212e-02
 -1.7327370122e-02
 -1.7324293032e-02
 -1.7321215943e-02
 -1.7318138853e-02
 -1.7315061763e-02
 -1.7311984673e-02
 -1.7308907583e-02
 -1.7305830494e-02
 -1.7302753404e-02
 -1.7299676314e-02
 -1.7296599224e-02
 -1.7293523997e-02
 -1.7290446907e-02
 -1.7287369817e-02
 -1.7284292728e-02
 -1.7281215638e-02
 -1.7278138548e-02
 -1.7275061458e-02
 -1.7271984369e-02
 -1.7268907279e-02
 -1.7265830189e-02
 -1.7262753099e-02
 -1.7259676009e-02
 -1.7256598920e-02
 -1.7253521830e-02
 -1.7250444740e-02
 -1.7247367650e-02
 -1.7244290560e-02
 -1.7241213471e-02
 -1.7238136381e-02
 -1.7235059291e-02
 -1.7231982201e-02
 -1.7228905112e-02
 -1.7225828022e-02
 -1.7222752795e-02
 -1.7219675705e-02
 -1.7216598615e-02
 -1.7213521525e-02
 -1.7210444435e-02
 -1.7207367346e-02
 -1.7204290256e-02
 -1.7201213166e-02
 -1.7198136076e-02
 -1.7195058987e-02
 -1.7191981897e-02
 -1.7188904807e-02
 -1.7185827717e-02
 -1.7182750627e-02
 -1.7179673538e-02
 -1.7176596448e-02
 -1.7173519358e-02
 -1.7170442268e-02
 -1.7167365178e-02
 -1.7164288089e-02
 -1.7161210999e-02
 -1.7158133909e-02
 -1.7155056819e-02
 -1.7151981592e-02
 -1.7148904502e-02
 -1.7145827413e-02
 -1.7142750323e-02
 -1.7139673233e-02
 -1.7136596143e-02
 -1.7133519053e-02
 -1.7130441964e-02
 -1.7127364874e-02
 -1.7124287784e-02
 -1.7121210694e-02
 -1.7118133605e-02
 -1.7115056515e-02
 -1.7111979425e-02
 -1.7108902335e-02
 -1.7105825245e-02
 -1.7102748156e-02
 -1.7099671066e-02
 -1.7096593976e-02
 -1.7093516886e-02
 -1.7090439796e-02
 -1.7087362707e-02
 -1.7084285617e-02
 -1.7081210390e-02
 -1.7078133300e-02
 -1.7075056210e-02
 -1.7071979120e-02
 -1.7068902031e-02
 -1.7065824941e-02
 -1.7062747851e-02
 -1.7059670761e-02
 -1.7056593671e-02
 -1.7053516582e-02
 -1.7050439492e-02
 -1.7047362402e-02
 -1.7044285312e-02
 -1.7041208223e-02
 -1.7038131133e-02
 -1.7035054043e-02
 -1.7031976953e-02
 -1.7028899863e-02
 -1.7025822774e-02
 -1.7022745684e-02
 -1.7019668594e-02
 -1.7016591504e-02
 -1.7013516277e-02
 -1.7010439187e-02
 -1.7007362098e-02
 -1.7004285008e-02
 -1.7001207918e-02
 -1.6998130828e-02
 -1.6995053738e-02
 -1.6991976649e-02
 -1.6988899559e-02
 -1.6985822469e-02
 -1.6982745379e-02
 -1.6979668289e-02
 -1.6976591200e-02
 -1.6973514110e-02
 -1.6970437020e-02
 -1.6967359930e-02
 -1.6964282840e-02
 -1.6961205751e-02
 -1.6958128661e-02
 -1.6955051571e-02
 -1.6951974481e-02
 -1.6948897392e-02
 -1.6945820302e-02
 -1.6942745075e-02
 -1.6939667985e-02
 -1.6936590895e-02
 -1.6933513805e-02
 -1.6930436715e-02
 -1.6927359626e-02
 -1.6924282536e-02
 -1.6921205446e-02
 -1.6918128356e-02
 -1.6915051267e-02
 -1.6911974177e-02
 -1.6908897087e-02
 -1.6905819997e-02
 -1.6902742907e-02
 -1.6899665818e-02
 -1.6896588728e-02
 -1.6893511638e-02
 -1.6890434548e-02
 -1.6887357458e-02
 -1.6884280369e-02
 -1.6881203279e-02
 -1.6878126189e-02
 -1.6875049099e-02
 -1.6871973872e-02
 -1.6868896782e-02
 -1.6865819693e-02
 -1.6862742603e-02
 -1.6859665513e-02
 -1.6856588423e-02
 -1.6853511333e-02
 -1.6850434244e-02
 -1.6847357154e-02
 -1.6844280064e-02
 -1.6841202974e-02
 -1.6838125885e-02
 -1.6835048795e-02
 -1.6831971705e-02
 -1.6828894615e-02
 -1.6825817525e-02
 -1.6822740436e-02
 -1.6819663346e-02
 -1.6816586256e-02
 -1.6813509166e-02
 -1.6810432076e-02
 -1.6807354987e-02
 -1.6804277897e-02
 -1.6801202670e-02
 -1.6798125580e-02
 -1.6795048490e-02
 -1.6791971400e-02
 -1.6788894311e-02
 -1.6785817221e-02
 -1.6782740131e-02
 -1.6779663041e-02
 -1.6776585951e-02
 -1.6773508862e-02
 -1.6770431772e-02
 -1.6767354682e-02
 -1.6764277592e-02
 -1.6761200503e-02
 -1.6758123413e-02
 -1.6755046323e-02
 -1.6751969233e-02
 -1.6748892143e-02
 -1.6745815054e-02
 -1.6742737964e-02
 -1.6739660874e-02
 -1.6736583784e-02
 -1.6733506694e-02
 -1.6730431467e-02
 -1.6727354378e-02
 -1.6724277288e-02
 -1.6721200198e-02
 -1.6718123108e-02
 -1.6715046018e-02
 -1.6711968929e-02
 -1.6708891839e-02
 -1.6705814749e-02
 -1.6702737659e-02
 -1.6699660569e-02
 -1.6696583480e-02
 -1.6693506390e-02
 -1.6690429300e-02
 -1.6687352210e-02
 -1.6684275120e-02
 -1.6681198031e-02
 -1.6678120941e-02
 -1.6675043851e-02
 -1.6671966761e-02
 -1.6668889672e-02
 -1.6665812582e-02
 -1.6662735492e-02
 -1.6659660265e-02
 -1.6656583175e-02
 -1.6653506085e-02
 -1.6650428995e-02
 -1.6647351906e-02
 -1.6644274816e-02
 -1.6641197726e-02
 -1.6638120636e-02
 -1.6635043547e-02
 -1.6631966457e-02
 -1.6628889367e-02
 -1.6625812277e-02
 -1.6622735187e-02
 -1.6619658098e-02
 -1.6616581008e-02
 -1.6613503918e-02
 -1.6610426828e-02
 -1.6607349738e-02
 -1.6604272649e-02
 -1.6601195559e-02
 -1.6598118469e-02
 -1.6595041379e-02
 -1.6591964290e-02
 -1.6588889062e-02
 -1.6585811973e-02
 -1.6582734883e-02
 -1.6579657793e-02
 -1.6576580703e-02
 -1.6573503613e-02
 -1.6570426524e-02
 -1.6567349434e-02
 -1.6564272344e-02
 -1.6561195254e-02
 -1.6558118165e-02
 -1.6555041075e-02
 -1.6551963985e-02
 -1.6548886895e-02
 -1.6545809805e-02
 -1.6542732716e-02
 -1.6539655626e-02
 -1.6536578536e-02
 -1.6533501446e-02
 -1.6530424356e-02
 -1.6527347267e-02
 -1.6524270177e-02
 -1.6521193087e-02
 -1.6518117860e-02
 -1.6515040770e-02
 -1.6511963680e-02
 -1.6508886591e-02
 -1.6505809501e-02
 -1.6502732411e-02
 -1.6499655321e-02
 -1.6496578231e-02
 -1.6493501142e-02
 -1.6490424052e-02
 -1.6487346962e-02
 -1.6484269872e-02
 -1.6481192783e-02
 -1.6478115693e-02
 -1.6475038603e-02
 -1.6471961513e-02
 -1.6468884423e-02
 -1.6465807334e-02
 -1.6462730244e-02
 -1.6459653154e-02
 -1.6456576064e-02
 -1.6453498974e-02
 -1.6450421885e-02
 -1.6447346658e-02
 -1.6444269568e-02
 -1.6441192478e-02
 -1.6438115388e-02
 -1.6435038298e-02
 -1.6431961209e-02
 -1.6428884119e-02
 -1.6425807029e-02
 -1.6422729939e-02
 -1.6419652849e-02
 -1.6416575760e-02
 -1.6413498670e-02
 -1.6410421580e-02
 -1.6407344490e-02
 -1.6404267401e-02
 -1.6401190311e-02
 -1.6398113221e-02
 -1.6395036131e-02
 -1.6391959041e-02
 -1.6388881952e-02
 -1.6385804862e-02
 -1.6382727772e-02
 -1.6379650682e-02
 -1.6376575455e-02
 -1.6373498365e-02
 -1.6370421275e-02
 -1.6367344186e-02
 -1.6364267096e-02
 -1.6361190006e-02
 -1.6358112916e-02
 -1.6355035827e-02
 -1.6351958737e-02
 -1.6348881647e-02
 -1.6345804557e-02
 -1.6342727467e-02
 -1.6339650378e-02
 -1.6336573288e-02
 -1.6333496198e-02
 -1.6330419108e-02
 -1.6327342018e-02
 -1.6324264929e-02
 -1.6321187839e-02
 -1.6318110749e-02
 -1.6315033659e-02
 -1.6311956570e-02
 -1.6308879480e-02
 -1.6305804253e-02
 -1.6302727163e-02
 -1.6299650073e-02
 -1.6296572983e-02
 -1.6293495893e-02
 -1.6290418804e-02
 -1.6287341714e-02
 -1.6284264624e-02
 -1.6281187534e-02
 -1.6278110445e-02
 -1.6275033355e-02
 -1.6271956265e-02
 -1.6268879175e-02
 -1.6265802085e-02
 -1.6262724996e-02
 -1.6259647906e-02
 -1.6256570816e-02
 -1.6253493726e-02
 -1.6250416636e-02
 -1.6247339547e-02
 -1.6244262457e-02
 -1.6241185367e-02
 -1.6238108277e-02
 -1.6235033050e-02
 -1.6231955960e-02
 -1.6228878871e-02
 -1.6225801781e-02
 -1.6222724691e-02
 -1.6219647601e-02
 -1.6216570511e-02
 -1.6213493422e-02
 -1.6210416332e-02
 -1.6207339242e-02
 -1.6204262152e-02
 -1.6201185063e-02
 -1.6198107973e-02
 -1.6195030883e-02
 -1.6191953793e-02
 -1.6188876703e-02
 -1.6185799614e-02
 -1.6182722524e-02
 -1.6179645434e-02
 -1.6176568344e-02
 -1.6173491254e-02
 -1.6170414165e-02
 -1.6167337075e-02
 -1.6164261848e-02
 -1.6161184758e-02
 -1.6158107668e-02
 -1.6155030578e-02
 -1.6151953489e-02
 -1.6148876399e-02
 -1.6145799309e-02
 -1.6142722219e-02
 -1.6139645129e-02
 -1.6136568040e-02
 -1.6133490950e-02
 -1.6130413860e-02
 -1.6127336770e-02
 -1.6124259681e-02
 -1.6121182591e-02
 -1.6118105501e-02
 -1.6115028411e-02
 -1.6111951321e-02
 -1.6108874232e-02
 -1.6105797142e-02
 -1.6102720052e-02
 -1.6099642962e-02
 -1.6096567735e-02
 -1.6093490645e-02
 -1.6090413556e-02
 -1.6087336466e-02
 -1.6084259376e-02
 -1.6081182286e-02
 -1.6078105196e-02
 -1.6075028107e-02
 -1.6071951017e-02
 -1.6068873927e-02
 -1.6065796837e-02
 -1.6062719747e-02
 -1.6059642658e-02
 -1.6056565568e-02
 -1.6053488478e-02
 -1.6050411388e-02
 -1.6047334298e-02
 -1.6044257209e-02
 -1.6041180119e-02
 -1.6038103029e-02
 -1.6035025939e-02
 -1.6031948850e-02
 -1.6028871760e-02
 -1.6025796533e-02
 -1.6022719443e-02
 -1.6019642353e-02
 -1.6016565263e-02
 -1.6013488173e-02
 -1.6010411084e-02
 -1.6007333994e-02
 -1.6004256904e-02
 -1.6001179814e-02
 -1.5998102725e-02
 -1.5995025635e-02
 -1.5991948545e-02
 -1.5988871455e-02
 -1.5985794365e-02
 -1.5982717276e-02
 -1.5979640186e-02
 -1.5976563096e-02
 -1.5973486006e-02
 -1.5970408916e-02
 -1.5967331827e-02
 -1.5964254737e-02
 -1.5961177647e-02
 -1.5958100557e-02
 -1.5955025330e-02
 -1.5951948240e-02
 -1.5948871151e-02
 -1.5945794061e-02
 -1.5942716971e-02
 -1.5939639881e-02
 -1.5936562791e-02
 -1.5933485702e-02
 -1.5930408612e-02
 -1.5927331522e-02
 -1.5924254432e-02
 -1.5921177343e-02
 -1.5918100253e-02
 -1.5915023163e-02
 -1.5911946073e-02
 -1.5908868983e-02
 -1.5905791894e-02
 -1.5902714804e-02
 -1.5899637714e-02
 -1.5896560624e-02
 -1.5893483534e-02
 -1.5890406445e-02
 -1.5887329355e-02
 -1.5884254128e-02
 -1.5881177038e-02
 -1.5878099948e-02
 -1.5875022858e-02
 -1.5871945769e-02
 -1.5868868679e-02
 -1.5865791589e-02
 -1.5862714499e-02
 -1.5859637409e-02
 -1.5856560320e-02
 -1.5853483230e-02
 -1.5850406140e-02
 -1.5847329050e-02
 -1.5844251961e-02
 -1.5841174871e-02
 -1.5838097781e-02
 -1.5835020691e-02
 -1.5831943601e-02
 -1.5828866512e-02
 -1.5825789422e-02
 -1.5822712332e-02
 -1.5819635242e-02
 -1.5816558152e-02
 -1.5813482925e-02
 -1.5810405836e-02
 -1.5807328746e-02
 -1.5804251656e-02
 -1.5801174566e-02
 -1.5798097476e-02
 -1.5795020387e-02
 -1.5791943297e-02
 -1.5788866207e-02
 -1.5785789117e-02
 -1.5782712027e-02
 -1.5779634938e-02
 -1.5776557848e-02
 -1.5773480758e-02
 -1.5770403668e-02
 -1.5767326578e-02
 -1.5764249489e-02
 -1.5761172399e-02
 -1.5758095309e-02
 -1.5755018219e-02
 -1.5751941130e-02
 -1.5748864040e-02
 -1.5745786950e-02
 -1.5742711723e-02
 -1.5739634633e-02
 -1.5736557543e-02
 -1.5733480453e-02
 -1.5730403364e-02
 -1.5727326274e-02
 -1.5724249184e-02
 -1.5721172094e-02
 -1.5718095005e-02
 -1.5715017915e-02
 -1.5711940825e-02
 -1.5708863735e-02
 -1.5705786645e-02
 -1.5702709556e-02
 -1.5699632466e-02
 -1.5696555376e-02
 -1.5693478286e-02
 -1.5690401196e-02
 -1.5687324107e-02
 -1.5684247017e-02
 -1.5681169927e-02
 -1.5678092837e-02
 -1.5675015748e-02
 -1.5671940520e-02
 -1.5668863431e-02
 -1.5665786341e-02
 -1.5662709251e-02
 -1.5659632161e-02
 -1.5656555071e-02
 -1.5653477982e-02
 -1.5650400892e-02
 -1.5647323802e-02
 -1.5644246712e-02
 -1.5641169623e-02
 -1.5638092533e-02
 -1.5635015443e-02
 -1.5631938353e-02
 -1.5628861263e-02
 -1.5625784174e-02
 -1.5622707084e-02
 -1.5619630925e-02
 -1.5616553836e-02
 -1.5613476746e-02
 -1.5610399656e-02
 -1.5607322566e-02
 -1.5604245476e-02
 -1.5601168387e-02
 -1.5598091297e-02
 -1.5595014207e-02
 -1.5591937117e-02
 -1.5588860027e-02
 -1.5585782938e-02
 -1.5582706779e-02
 -1.5579629689e-02
 -1.5576552600e-02
 -1.5573475510e-02
 -1.5570398420e-02
 -1.5567321330e-02
 -1.5564244241e-02
 -1.5561167151e-02
 -1.5558090061e-02
 -1.5555012971e-02
 -1.5551935881e-02
 -1.5548859723e-02
 -1.5545782633e-02
 -1.5542705543e-02
 -1.5539628454e-02
 -1.5536551364e-02
 -1.5533474274e-02
 -1.5530397184e-02
 -1.5527320094e-02
 -1.5524243005e-02
 -1.5521165915e-02
 -1.5518088825e-02
 -1.5515011735e-02
 -1.5511935577e-02
 -1.5508858487e-02
 -1.5505781397e-02
 -1.5502704307e-02
 -1.5499627218e-02
 -1.5496550128e-02
 -1.5493473038e-02
 -1.5490395948e-02
 -1.5487318859e-02
 -1.5484241769e-02
 -1.5481164679e-02
 -1.5478088520e-02
 -1.5475011431e-02
 -1.5471934341e-02
 -1.5468857251e-02
 -1.5465780161e-02
 -1.5462703072e-02
 -1.5459625982e-02
 -1.5456548892e-02
 -1.5453471802e-02
 -1.5450394712e-02
 -1.5447317623e-02
 -1.5444240533e-02
 -1.5441164374e-02
 -1.5438087285e-02
 -1.5435010195e-02
 -1.5431933105e-02
 -1.5428856015e-02
 -1.5425778925e-02
 -1.5422701836e-02
 -1.5419624746e-02
 -1.5416547656e-02
 -1.5413470566e-02
 -1.5410393476e-02
 -1.5407317318e-02
 -1.5404240228e-02
 -1.5401163138e-02
 -1.5398086049e-02
 -1.5395008959e-02
 -1.5391931869e-02
 -1.5388854779e-02
 -1.5385777690e-02
 -1.5382700600e-02
 -1.5379623510e-02
 -1.5376546420e-02
 -1.5373470262e-02
 -1.5370393172e-02
 -1.5367316082e-02
 -1.5364238992e-02
 -1.5361161903e-02
 -1.5358084813e-02
 -1.5355007723e-02
 -1.5351930633e-02
 -1.5348853543e-02
 -1.5345776454e-02
 -1.5342699364e-02
 -1.5339622274e-02
 -1.5336546116e-02
 -1.5333469026e-02
 -1.5330391936e-02
 -1.5327314846e-02
 -1.5324237756e-02
 -1.5321160667e-02
 -1.5318083577e-02
 -1.5315006487e-02
 -1.5311929397e-02
 -1.5308852307e-02
 -1.5305775218e-02
 -1.5302699059e-02
 -1.5299621969e-02
 -1.5296544880e-02
 -1.5293467790e-02
 -1.5290390700e-02
 -1.5287313610e-02
 -1.5284236521e-02
 -1.5281159431e-02
 -1.5278082341e-02
 -1.5275005251e-02
 -1.5271928161e-02
 -1.5268851072e-02
 -1.5265774913e-02
 -1.5262697823e-02
 -1.5259620734e-02
 -1.5256543644e-02
 -1.5253466554e-02
 -1.5250389464e-02
 -1.5247312374e-02
 -1.5244235285e-02
 -1.5241158195e-02
 -1.5238081105e-02
 -1.5235004015e-02
 -1.5231927857e-02
 -1.5228850767e-02
 -1.5225773677e-02
 -1.5222696587e-02
 -1.5219619498e-02
 -1.5216542408e-02
 -1.5213465318e-02
 -1.5210388228e-02
 -1.5207311139e-02
 -1.5204234049e-02
 -1.5201156959e-02
 -1.5198079869e-02
 -1.5195003711e-02
 -1.5191926621e-02
 -1.5188849531e-02
 -1.5185772441e-02
 -1.5182695352e-02
 -1.5179618262e-02
 -1.5176541172e-02
 -1.5173464082e-02
 -1.5170386992e-02
 -1.5167309903e-02
 -1.5164232813e-02
 -1.5161156654e-02
 -1.5158079565e-02
 -1.5155002475e-02
 -1.5151925385e-02
 -1.5148848295e-02
 -1.5145771205e-02
 -1.5142694116e-02
 -1.5139617026e-02
 -1.5136539936e-02
 -1.5133462846e-02
 -1.5130385756e-02
 -1.5127308667e-02
 -1.5124232508e-02
 -1.5121155418e-02
 -1.5118078329e-02
 -1.5115001239e-02
 -1.5111924149e-02
 -1.5108847059e-02
 -1.5105769970e-02
 -1.5102692880e-02
 -1.5099615790e-02
 -1.5096538700e-02
 -1.5093461610e-02
 -1.5090385452e-02
 -1.5087308362e-02
 -1.5084231272e-02
 -1.5081154183e-02
 -1.5078077093e-02
 -1.5075000003e-02
 -1.5071922913e-02
 -1.5068845823e-02
 -1.5065768734e-02
 -1.5062691644e-02
 -1.5059614554e-02
 -1.5056537464e-02
 -1.5053461306e-02
 -1.5050384216e-02
 -1.5047307126e-02
 -1.5044230036e-02
 -1.5041152947e-02
