luts/V3_LogC_250_to_linear.spi1d
Version 1
From 0 1
Length 65536
Components 1
{
 -1.6248408705e-02
 -1.6245737672e-02
 -1.6243064776e-02
 -1.6240393743e-02
 -1.6237720847e-02
 -1.6235047951e-02
 -1.6232376918e-02
 -1.6229704022e-02
 -1.6227032989e-02
 -1.6224360093e-02
 -1.6221689060e-02
 -1.6219016165e-02
 -1.6216343269e-02
 -1.6213672236e-02
 -1.6210999340e-02
 -1.6208328307e-02
 -1.6205655411e-02
 -1.6202984378e-02
 -1.6200311482e-02
 -1.6197638586e-02
 -1.6194967553e-02
 -1.6192294657e-02
 -1.6189623624e-02
 -1.6186950728e-02
 -1.6184277833e-02
 -1.6181606799e-02
 -1.6178933904e-02
 -1.6176262870e-02
 -1.6173589975e-02
 -1.6170918941e-02
 -1.6168246046e-02
 -1.6165573150e-02
 -1.6162902117e-02
 -1.6160229221e-02
 -1.6157558188e-02
 -1.6154885292e-02
 -1.6152214259e-02
 -1.6149541363e-02
 -1.6146868467e-02
 -1.6144197434e-02
 -1.6141524538e-02
 -1.6138853505e-02
 -1.6136180609e-02
 -1.6133509576e-02
 -1.6130836681e-02
 -1.6128163785e-02
 -1.6125492752e-02
 -1.6122819856e-02
 -1.6120148823e-02
 -1.6117475927e-02
 -1.6114804894e-02
 -1.6112131998e-02
 -1.6109459102e-02
 -1.6106788069e-02
 -1.6104115173e-02
 -1.6101444140e-02
 -1.6098771244e-02
 -1.6096100211e-02
 -1.6093427315e-02
 -1.6090754420e-02
 -1.6088083386e-02
 -1.6085410491e-02
 -1.6082739457e-02
 -1.6080066562e-02
 -1.6077395529e-02
 -1.6074722633e-02
 -1.6072049737e-02
 -1.6069378704e-02
 -1.6066705808e-02
 -1.6064034775e-02
 -1.6061361879e-02
 -1.6058690846e-02
 -1.6056017950e-02
 -1.6053345054e-02
 -1.6050674021e-02
 -1.6048001125e-02
 -1.6045330092e-02
 -1.6042657197e-02
 -1.6039986163e-02
 -1.6037313268e-02
 -1.6034640372e-02
 -1.6031969339e-02
 -1.6029296443e-02
 -1.6026625410e-02
 -1.6023952514e-02
 -1.6021279618e-02
 -1.6018608585e-02
 -1.6015935689e-02
 -1.6013264656e-02
 -1.6010591760e-02
 -1.6007920727e-02
 -1.6005247831e-02
 -1.6002574936e-02
 -1.5999903902e-02
 -1.5997231007e-02
 -1.5994559973e-02
 -1.5991887078e-02
 -1.5989216045e-02
 -1.5986543149e-02
 -1.5983870253e-02
 -1.5981199220e-02
 -1.5978526324e-02
 -1.5975855291e-02
 -1.5973182395e-02
 -1.5970511362e-02
 -1.5967838466e-02
 -1.5965165570e-02
 -1.5962494537e-02
 -1.5959821641e-02
 -1.5957150608e-02
 -1.5954477713e-02
 -1.5951806679e-02
 -1.5949133784e-02
 -1.5946460888e-02
 -1.5943789855e-02
 -1.5941116959e-02
 -1.5938445926e-02
 -1.5935773030e-02
 -1.5933101997e-02
 -1.5930429101e-02
 -1.5927756205e-02
 -1.5925085172e-02
 -1.5922412276e-02
 -1.5919741243e-02
 -1.5917068347e-02
 -1.5914397314e-02
 -1.5911724418e-02
 -1.5909051523e-02
 -1.5906380489e-02
 -1.5903707594e-02
 -1.5901036561e-02
 -1.5898363665e-02
 -1.5895692632e-02
 -1.5893019736e-02
 -1.5890346840e-02
 -1.5887675807e-02
 -1.5885002911e-02
 -1.5882331878e-02
 -1.5879658982e-02
 -1.5876987949e-02
 -1.5874315053e-02
 -1.5871642157e-02
 -1.5868971124e-02
 -1.5866298229e-02
 -1.5863627195e-02
 -1.5860954300e-02
 -1.5858281404e-02
 -1.5855610371e-02
 -1.5852937475e-02
 -1.5850266442e-02
 -1.5847593546e-02
 -1.5844922513e-02
 -1.5842249617e-02
 -1.5839576721e-02
 -1.5836905688e-02
 -1.5834232792e-02
 -1.5831561759e-02
 -1.5828888863e-02
 -1.5826217830e-02
 -1.5823544934e-02
 -1.5820872039e-02
 -1.5818201005e-02
 -1.5815528110e-02
 -1.5812857077e-02
 -1.5810184181e-02
 -1.5807513148e-02
 -1.5804840252e-02
 -1.5802167356e-02
 -1.5799496323e-02
 -1.5796823427e-02
 -1.5794152394e-02
 -1.5791479498e-02
 -1.5788808465e-02
 -1.5786135569e-02
 -1.5783462673e-02
 -1.5780791640e-02
 -1.5778118744e-02
 -1.5775447711e-02
 -1.5772774816e-02
 -1.5770103782e-02
 -1.5767430887e-02
 -1.5764757991e-02
 -1.5762086958e-02
 -1.5759414062e-02
 -1.5756743029e-02
 -1.5754070133e-02
 -1.5751399100e-02
 -1.5748726204e-02
 -1.5746053308e-02
 -1.5743382275e-02
 -1.5740709379e-02
 -1.5738038346e-02
 -1.5735365450e-02
 -1.5732694417e-02
 -1.5730021521e-02
 -1.5727348626e-02
 -1.5724677593e-02
 -1.5722004697e-02
 -1.5719333664e-02
 -1.5716660768e-02
 -1.5713987872e-02
 -1.5711316839e-02
 -1.5708643943e-02
 -1.5705972910e-02
 -1.5703300014e-02
 -1.5700628981e-02
 -1.5697956085e-02
 -1.5695283189e-02
 -1.5692612156e-02
 -1.5689939260e-02
 -1.5687268227e-02
 -1.5684595332e-02
 -1.5681924298e-02
 -1.5679251403e-02
 -1.5676578507e-02
 -1.5673907474e-02
 -1.5671234578e-02
 -1.5668563545e-02
 -1.5665890649e-02
 -1.5663219616e-02
 -1.5660546720e-02
 -1.5657873824e-02
 -1.5655202791e-02
 -1.5652529895e-02
 -1.5649858862e-02
 -1.5647185966e-02
 -1.5644514933e-02
 -1.5641842037e-02
 -1.5639169142e-02
 -1.5636498109e-02
 -1.5633825213e-02
 -1.5631154180e-02
 -1.5628481284e-02
 -1.5625810251e-02
 -1.5623137355e-02
 -1.5620465390e-02
 -1.5617793426e-02
 -1.5615121461e-02
 -1.5612448566e-02
 -1.5609776601e-02
 -1.5607104637e-02
 -1.5604432672e-02
 -1.5601760708e-02
 -1.5599088743e-02
 -1.5596415848e-02
 -1.5593743883e-02
 -1.5591071919e-02
 -1.5588399954e-02
 -1.5585727990e-02
 -1.5583056025e-02
 -1.5580384061e-02
 -1.5577711165e-02
 -1.5575039200e-02
 -1.5572367236e-02
 -1.5569695272e-02
 -1.5567023307e-02
 -1.5564351343e-02
 -1.5561679378e-02
 -1.5559006482e-02
 -1.5556334518e-02
 -1.5553662553e-02
 -1.5550990589e-02
 -1.5548318624e-02
 -1.5545646660e-02
 -1.5542974696e-02
 -1.5540301800e-02
 -1.5537629835e-02
 -1.5534957871e-02
 -1.5532285906e-02
 -1.5529613942e-02
 -1.5526941977e-02
 -1.5524269082e-02
 -1.5521597117e-02
 -1.5518925153e-02
 -1.5516253188e-02
 -1.5513581224e-02
 -1.5510909259e-02
 -1.5508237295e-02
 -1.5505564399e-02
 -1.5502892435e-02
 -1.5500220470e-02
 -1.5497548506e-02
 -1.5494876541e-02
 -1.5492204577e-02
 -1.5489532612e-02
 -1.5486859716e-02
 -1.5484187752e-02
 -1.5481515788e-02
 -1.5478843823e-02
 -1.5476171859e-02
 -1.5473499894e-02
 -1.5470827930e-02
 -1.5468155034e-02
 -1.5465483069e-02
 -1.5462811105e-02
 -1.5460139140e-02
 -1.5457467176e-02
 -1.5454795212e-02
 -1.5452123247e-02
 -1.5449450351e-02
 -1.5446778387e-02
 -1.5444106422e-02
 -1.5441434458e-02
 -1.5438762493e-02
 -1.5436090529e-02
 -1.5433417633e-02
 -1.5430745669e-02
 -1.5428073704e-02
 -1.5425401740e-02
 -1.5422729775e-02
 -1.5420057811e-02
 -1.5417385846e-02
 -1.5414712951e-02
 -1.5412040986e-02
 -1.5409369022e-02
 -1.5406697057e-02
 -1.5404025093e-02
 -1.5401353128e-02
 -1.5398681164e-02
 -1.5396008268e-02
 -1.5393336304e-02
 -1.5390664339e-02
 -1.5387992375e-02
 -1.5385320410e-02
 -1.5382648446e-02
 -1.5379976481e-02
 -1.5377303585e-02
 -1.5374631621e-02
 -1.5371959656e-02
 -1.5369287692e-02
 -1.5366615728e-02
 -1.5363943763e-02
 -1.5361270867e-02
 -1.5358598903e-02
 -1.5355926938e-02
 -1.5353254974e-02
 -1.5350583009e-02
 -1.5347911045e-02
 -1.5345239080e-02
 -1.5342566185e-02
 -1.5339894220e-02
 -1.5337222256e-02
 -1.5334550291e-02
 -1.5331878327e-02
 -1.5329206362e-02
 -1.5326534398e-02
 -1.5323861502e-02
 -1.5321189538e-02
 -1.5318517573e-02
 -1.5315845609e-02
 -1.5313173644e-02
 -1.5310501680e-02
 -1.5307829715e-02
 -1.5305156820e-02
 -1.5302484855e-02
 -1.5299812891e-02
 -1.5297140926e-02
 -1.5294468962e-02
 -1.5291796997e-02
 -1.5289124101e-02
 -1.5286452137e-02
 -1.5283780172e-02
 -1.5281108208e-02
 -1.5278436244e-02
 -1.5275764279e-02
 -1.5273092315e-02
 -1.5270419419e-02
 -1.5267747454e-02
 -1.5265075490e-02
 -1.5262403525e-02
 -1.5259731561e-02
 -1.5257059596e-02
 -1.5254387632e-02
 -1.5251714736e-02
 -1.5249042772e-02
 -1.5246370807e-02
 -1.5243698843e-02
 -1.5241026878e-02
 -1.5238354914e-02
 -1.5235682949e-02
 -1.5233010054e-02
 -1.5230338089e-02
 -1.5227666125e-02
 -1.5224994160e-02
 -1.5222322196e-02
 -1.5219650231e-02
 -1.5216978267e-02
 -1.5214305371e-02
 -1.5211633407e-02
 -1.5208961442e-02
 -1.5206289478e-02
 -1.5203617513e-02
 -1.5200945549e-02
 -1.5198272653e-02
 -1.5195600688e-02
 -1.5192928724e-02
 -1.5190256760e-02
 -1.5187584795e-02
 -1.5184912831e-02
 -1.5182240866e-02
 -1.5179567970e-02
 -1.5176896006e-02
 -1.5174224041e-02
 -1.5171552077e-02
 -1.5168880112e-02
 -1.5166208148e-02
 -1.5163536184e-02
 -1.5160863288e-02
 -1.5158191323e-02
 -1.5155519359e-02
 -1.5152847394e-02
 -1.5150175430e-02
 -1.5147503465e-02
 -1.5144831501e-02
 -1.5142158605e-02
 -1.5139486641e-02
 -1.5136814676e-02
 -1.5134142712e-02
 -1.5131470747e-02
 -1.5128798783e-02
 -1.5126125887e-02
 -1.5123453923e-02
 -1.5120781958e-02
 -1.5118109994e-02
 -1.5115438029e-02
 -1.5112766065e-02
 -1.5110094100e-02
 -1.5107421204e-02
 -1.5104749240e-02
 -1.5102077276e-02
 -1.5099405311e-02
 -1.5096733347e-02
 -1.5094061382e-02
 -1.5091389418e-02
 -1.5088716522e-02
 -1.5086044557e-02
 -1.5083372593e-02
 -1.5080700628e-02
 -1.5078028664e-02
 -1.5075356700e-02
 -1.5072684735e-02
 -1.5070011839e-02
 -1.5067339875e-02
 -1.5064667910e-02
 -1.5061995946e-02
 -1.5059323981e-02
 -1.5056652017e-02
 -1.5053979121e-02
 -1.5051307157e-02
 -1.5048635192e-02
 -1.5045963228e-02
 -1.5043291263e-02
 -1.5040619299e-02
 -1.5037947334e-02
 -1.5035274439e-02
 -1.5032602474e-02
 -1.5029930510e-02
 -1.5027258545e-02
 -1.5024586581e-02
 -1.5021914616e-02
 -1.5019242652e-02
 -1.5016569756e-02
 -1.5013897792e-02
 -1.5011225827e-02
 -1.5008553863e-02
 -1.5005881898e-02
 -1.5003209934e-02
 -1.5000537969e-02
 -1.4997865073e-02
 -1.4995193109e-02
 -1.4992521144e-02
 -1.4989849180e-02
 -1.4987177216e-02
 -1.4984505251e-02
 -1.4981833287e-02
 -1.4979160391e-02
 -1.4976488426e-02
 -1.4973816462e-02
 -1.4971144497e-02
 -1.4968472533e-02
 -1.4965800568e-02
 -1.4963127673e-02
 -1.4960455708e-02
 -1.4957783744e-02
 -1.4955111779e-02
 -1.4952439815e-02
 -1.4949767850e-02
 -1.4947095886e-02
 -1.4944422990e-02
 -1.4941751026e-02
 -1.4939079061e-02
 -1.4936407097e-02
 -1.4933735132e-02
 -1.4931063168e-02
 -1.4928391203e-02
 -1.4925718307e-02
 -1.4923046343e-02
 -1.4920374379e-02
 -1.4917702414e-02
 -1.4915030450e-02
 -1.4912358485e-02
 -1.4909686521e-02
 -1.4907013625e-02
 -1.4904341660e-02
 -1.4901669696e-02
 -1.4898997732e-02
 -1.4896325767e-02
 -1.4893653803e-02
 -1.4890980907e-02
 -1.4888308942e-02
 -1.4885636978e-02
 -1.4882965013e-02
 -1.4880293049e-02
 -1.4877621084e-02
 -1.4874949120e-02
 -1.4872276224e-02
 -1.4869604260e-02
 -1.4866932295e-02
 -1.4864260331e-02
 -1.4861588366e-02
 -1.4858916402e-02
 -1.4856244437e-02
 -1.4853571542e-02
 -1.4850899577e-02
 -1.4848227613e-02
 -1.4845555648e-02
 -1.4842883684e-02
 -1.4840211719e-02
 -1.4837539755e-02
 -1.4834866859e-02
 -1.4832194895e-02
 -1.4829522930e-02
 -1.4826850966e-02
 -1.4824179001e-02
 -1.4821507037e-02
 -1.4818834141e-02
 -1.4816162176e-02
 -1.4813490212e-02
 -1.4810818247e-02
 -1.4808146283e-02
 -1.4805474319e-02
 -1.4802802354e-02
 -1.4800129458e-02
 -1.4797457494e-02
 -1.4794785529e-02
 -1.4792113565e-02
 -1.4789441600e-02
 -1.4786769636e-02
 -1.4784097672e-02
 -1.4781424776e-02
 -1.4778752811e-02
 -1.4776080847e-02
 -1.4773408882e-02
 -1.4770736918e-02
 -1.4768064953e-02
 -1.4765392989e-02
 -1.4762720093e-02
 -1.4760048129e-02
 -1.4757376164e-02
 -1.4754704200e-02
 -1.4752032235e-02
 -1.4749360271e-02
 -1.4746687375e-02
 -1.4744015411e-02
 -1.4741343446e-02
 -1.4738671482e-02
 -1.4735999517e-02
 -1.4733327553e-02
 -1.4730655588e-02
 -1.4727982692e-02
 -1.4725310728e-02
 -1.4722638763e-02
 -1.4719966799e-02
 -1.4717294835e-02
 -1.4714622870e-02
 -1.4711950906e-02
 -1.4709278010e-02
 -1.4706606045e-02
 -1.4703934081e-02
 -1.4701262116e-02
 -1.4698590152e-02
 -1.4695918187e-02
 -1.4693246223e-02
 -1.4690573327e-02
 -1.4687901363e-02
 -1.4685229398e-02
 -1.4682557434e-02
 -1.4679885469e-02
 -1.4677213505e-02
 -1.4674541540e-02
 -1.4671868645e-02
 -1.4669196680e-02
 -1.4666524716e-02
 -1.4663852751e-02
 -1.4661180787e-02
 -1.4658508822e-02
 -1.4655835927e-02
 -1.4653163962e-02
 -1.4650491998e-02
 -1.4647820033e-02
 -1.4645148069e-02
 -1.4642476104e-02
 -1.4639804140e-02
 -1.4637131244e-02
 -1.4634459279e-02
 -1.4631787315e-02
 -1.4629115351e-02
 -1.4626443386e-02
 -1.4623771422e-02
 -1.4621099457e-02
 -1.4618426561e-02
 -1.4615754597e-02
 -1.4613082632e-02
 -1.4610410668e-02
 -1.4607738703e-02
 -1.4605066739e-02
 -1.4602394775e-02
 -1.4599721879e-02
 -1.4597049914e-02
 -1.4594377950e-02
 -1.4591705985e-02
 -1.4589034021e-02
 -1.4586362056e-02
 -1.4583689161e-02
 -1.4581017196e-02
 -1.4578345232e-02
 -1.4575673267e-02
 -1.4573001303e-02
 -1.4570329338e-02
 -1.4567657374e-02
 -1.4564984478e-02
 -1.4562312514e-02
 -1.4559640549e-02
 -1.4556968585e-02
 -1.4554296620e-02
 -1.4551624656e-02
 -1.4548952691e-02
 -1.4546279795e-02
 -1.4543607831e-02
 -1.4540935867e-02
 -1.4538263902e-02
 -1.4535591938e-02
 -1.4532919973e-02
 -1.4530248009e-02
 -1.4527575113e-02
 -1.4524903148e-02
 -1.4522231184e-02
 -1.4519559219e-02
 -1.4516887255e-02
 -1.4514215291e-02
 -1.4511542395e-02
 -1.4508870430e-02
 -1.4506198466e-02
 -1.4503526501e-02
 -1.4500854537e-02
 -1.4498182572e-02
 -1.4495510608e-02
 -1.4492837712e-02
 -1.4490165748e-02
 -1.4487493783e-02
 -1.4484821819e-02
 -1.4482149854e-02
 -1.4479477890e-02
 -1.4476805925e-02
 -1.4474133030e-02
 -1.4471461065e-02
 -1.4468789101e-02
 -1.4466117136e-02
 -1.4463445172e-02
 -1.4460773207e-02
 -1.4458101243e-02
 -1.4455428347e-02
 -1.4452756383e-02
 -1.4450084418e-02
 -1.4447412454e-02
 -1.4444740489e-02
 -1.4442068525e-02
 -1.4439396560e-02
 -1.4436723664e-02
 -1.4434051700e-02
 -1.4431379735e-02
 -1.4428707771e-02
 -1.4426035807e-02
 -1.4423363842e-02
 -1.4420690946e-02
 -1.4418018982e-02
 -1.4415347017e-02
 -1.4412675053e-02
 -1.4410003088e-02
 -1.4407331124e-02
 -1.4404659159e-02
 -1.4401986264e-02
 -1.4399314299e-02
 -1.4396642335e-02
 -1.4393970370e-02
 -1.4391298406e-02
 -1.4388626441e-02
 -1.4385954477e-02
 -1.4383281581e-02
 -1.4380609617e-02
 -1.4377937652e-02
 -1.4375265688e-02
 -1.4372593723e-02
 -1.4369921759e-02
 -1.4367249794e-02
 -1.4364576899e-02
 -1.4361904934e-02
 -1.4359232970e-02
 -1.4356561005e-02
 -1.4353889041e-02
 -1.4351217076e-02
 -1.4348544180e-02
 -1.4345872216e-02
 -1.4343200251e-02
 -1.4340528287e-02
 -1.4337856323e-02
 -1.4335184358e-02
 -1.4332512394e-02
 -1.4329839498e-02
 -1.4327167533e-02
 -1.4324495569e-02
 -1.4321823604e-02
 -1.4319151640e-02
 -1.4316479675e-02
 -1.4313807711e-02
 -1.4311134815e-02
 -1.4308462851e-02
 -1.4305790886e-02
 -1.4303118922e-02
 -1.4300446957e-02
 -1.4297774993e-02
 -1.4295103028e-02
 -1.4292430133e-02
 -1.4289758168e-02
 -1.4287086204e-02
 -1.4284414239e-02
 -1.4281742275e-02
 -1.4279070310e-02
 -1.4276397415e-02
 -1.4273725450e-02
 -1.4271053486e-02
 -1.4268381521e-02
 -1.4265709557e-02
 -1.4263037592e-02
 -1.4260365628e-02
 -1.4257692732e-02
 -1.4255020767e-02
 -1.4252348803e-02
 -1.4249676839e-02
 -1.4247004874e-02
 -1.4244332910e-02
 -1.4241660945e-02
 -1.4238988049e-02
 -1.4236316085e-02
 -1.4233644120e-02
 -1.4230972156e-02
 -1.4228300191e-02
 -1.4225628227e-02
 -1.4222956263e-02
 -1.4220283367e-02
 -1.4217611402e-02
 -1.4214939438e-02
 -1.4212267473e-02
 -1.4209595509e-02
 -1.4206923544e-02
 -1.4204251580e-02
 -1.4201578684e-02
 -1.4198906720e-02
 -1.4196234755e-02
 -1.4193562791e-02
 -1.4190890826e-02
 -1.4188218862e-02
 -1.4185545966e-02
 -1.4182874002e-02
 -1.4180202037e-02
 -1.4177530073e-02
 -1.4174858108e-02
 -1.4172186144e-02
 -1.4169514179e-02
 -1.4166841283e-02
 -1.4164169319e-02
 -1.4161497355e-02
 -1.4158825390e-02
 -1.4156153426e-02
 -1.4153481461e-02
 -1.4150809497e-02
 -1.4148136601e-02
 -1.4145464636e-02
 -1.4142792672e-02
 -1.4140120707e-02
 -1.4137448743e-02
 -1.4134776779e-02
 -1.4132104814e-02
 -1.4129431918e-02
 -1.4126759954e-02
 -1.4124087989e-02
 -1.4121416025e-02
 -1.4118744060e-02
 -1.4116072096e-02
 -1.4113399200e-02
 -1.4110727236e-02
 -1.4108055271e-02
 -1.4105383307e-02
 -1.4102711342e-02
 -1.4100039378e-02
 -1.4097367413e-02
 -1.4094694518e-02
 -1.4092022553e-02
 -1.4089350589e-02
 -1.4086678624e-02
 -1.4084006660e-02
 -1.4081334695e-02
 -1.4078662731e-02
 -1.4075989835e-02
 -1.4073317870e-02
 -1.4070645906e-02
 -1.4067973942e-02
 -1.4065301977e-02
 -1.4062630013e-02
 -1.4059958048e-02
 -1.4057285152e-02
 -1.4054613188e-02
 -1.4051941223e-02
 -1.4049269259e-02
 -1.4046597295e-02
 -1.4043925330e-02
 -1.4041252434e-02
 -1.4038580470e-02
 -1.4035908505e-02
 -1.4033236541e-02
 -1.4030564576e-02
 -1.4027892612e-02
 -1.4025220647e-02
 -1.4022547752e-02
 -1.4019875787e-02
 -1.4017203823e-02
 -1.4014531858e-02
 -1.4011859894e-02
 -1.4009187929e-02
 -1.4006515965e-02
 -1.4003843069e-02
 -1.4001171105e-02
 -1.3998499140e-02
 -1.3995827176e-02
 -1.3993155211e-02
 -1.3990483247e-02
 -1.3987811282e-02
 -1.3985138386e-02
 -1.3982466422e-02
 -1.3979794458e-02
 -1.3977122493e-02
 -1.3974450529e-02
 -1.3971778564e-02
 -1.3969105668e-02
 -1.3966433704e-02
 -1.3963761739e-02
 -1.3961089775e-02
 -1.3958417810e-02
 -1.3955745846e-02
 -1.3953073882e-02
 -1.3950400986e-02
 -1.3947729021e-02
 -1.3945057057e-02
 -1.3942385092e-02
 -1.3939713128e-02
 -1.3937041163e-02
 -1.3934369199e-02
 -1.3931696303e-02
 -1.3929024339e-02
 -1.3926352374e-02
 -1.3923680410e-02
 -1.3921008445e-02
 -1.3918336481e-02
 -1.3915664516e-02
 -1.3912991621e-02
 -1.3910319656e-02
 -1.3907647692e-02
 -1.3904975727e-02
 -1.3902303763e-02
 -1.3899631798e-02
 -1.3896959834e-02
 -1.3894286938e-02
 -1.3891614974e-02
 -1.3888943009e-02
 -1.3886271045e-02
 -1.3883599080e-02
 -1.3880927116e-02
 -1.3878254220e-02
 -1.3875582255e-02
 -1.3872910291e-02
 -1.3870238326e-02
 -1.3867566362e-02
 -1.3864894398e-02
 -1.3862222433e-02
 -1.3859549537e-02
 -1.3856877573e-02
 -1.3854205608e-02
 -1.3851533644e-02
 -1.3848861679e-02
 -1.3846189715e-02
 -1.3843517751e-02
 -1.3840844855e-02
 -1.3838172890e-02
 -1.3835500926e-02
 -1.3832828961e-02
 -1.3830156997e-02
 -1.3827485032e-02
 -1.3824813068e-02
 -1.3822140172e-02
 -1.3819468208e-02
 -1.3816796243e-02
 -1.3814124279e-02
 -1.3811452314e-02
 -1.3808780350e-02
 -1.3806107454e-02
 -1.3803435490e-02
 -1.3800763525e-02
 -1.3798091561e-02
 -1.3795419596e-02
 -1.3792747632e-02
 -1.3790075667e-02
 -1.3787402771e-02
 -1.3784730807e-02
 -1.3782058842e-02
 -1.3779386878e-02
 -1.3776714914e-02
 -1.3774042949e-02
 -1.3771370985e-02
 -1.3768698089e-02
 -1.3766026124e-02
 -1.3763354160e-02
 -1.3760682195e-02
 -1.3758010231e-02
 -1.3755338266e-02
 -1.3752666302e-02
 -1.3749993406e-02
 -1.3747321442e-02
 -1.3744649477e-02
 -1.3741977513e-02
 -1.3739305548e-02
 -1.3736633584e-02
 -1.3733960688e-02
 -1.3731288724e-02
 -1.3728616759e-02
 -1.3725944795e-02
 -1.3723272830e-02
 -1.3720600866e-02
 -1.3717928901e-02
 -1.3715256006e-02
 -1.3712584041e-02
 -1.3709912077e-02
 -1.3707240112e-02
 -1.3704568148e-02
 -1.3701896183e-02
 -1.3699224219e-02
 -1.3696551323e-02
 -1.3693879358e-02
 -1.3691207394e-02
 -1.3688535430e-02
 -1.3685863465e-02
 -1.3683191501e-02
 -1.3680519536e-02
 -1.3677846640e-02
 -1.3675174676e-02
 -1.3672502711e-02
 -1.3669830747e-02
 -1.3667158782e-02
 -1.3664486818e-02
 -1.3661814854e-02
 -1.3659141958e-02
 -1.3656469993e-02
 -1.3653798029e-02
 -1.3651126064e-02
 -1.3648454100e-02
 -1.3645782135e-02
 -1.3643109240e-02
 -1.3640437275e-02
 -1.3637765311e-02
 -1.3635093346e-02
 -1.3632421382e-02
 -1.3629749417e-02
 -1.3627077453e-02
 -1.3624404557e-02
 -1.3621732593e-02
 -1.3619060628e-02
 -1.3616388664e-02
 -1.3613716699e-02
 -1.3611044735e-02
 -1.3608372770e-02
 -1.3605699874e-02
 -1.3603027910e-02
 -1.3600355946e-02
 -1.3597683981e-02
 -1.3595012017e-02
 -1.3592340052e-02
 -1.3589668088e-02
 -1.3586995192e-02
 -1.3584323227e-02
 -1.3581651263e-02
 -1.3578979298e-02
 -1.3576307334e-02
 -1.3573635370e-02
 -1.3570962474e-02
 -1.3568290509e-02
 -1.3565618545e-02
 -1.3562946580e-02
 -1.3560274616e-02
 -1.3557602651e-02
 -1.3554930687e-02
 -1.3552257791e-02
 -1.3549585827e-02
 -1.3546913862e-02
 -1.3544241898e-02
 -1.3541569933e-02
 -1.3538897969e-02
 -1.3536226004e-02
 -1.3533553109e-02
 -1.3530881144e-02
 -1.3528209180e-02
 -1.3525537215e-02
 -1.3522865251e-02
 -1.3520193286e-02
 -1.3517521322e-02
 -1.3514848426e-02
 -1.3512176462e-02
 -1.3509504497e-02
 -1.3506832533e-02
 -1.3504160568e-02
 -1.3501488604e-02
 -1.3498815708e-02
 -1.3496143743e-02
 -1.3493471779e-02
 -1.3490799814e-02
 -1.3488127850e-02
 -1.3485455886e-02
 -1.3482783921e-02
 -1.3480111025e-02
 -1.3477439061e-02
 -1.3474767096e-02
 -1.3472095132e-02
 -1.3469423167e-02
 -1.3466751203e-02
 -1.3464079238e-02
 -1.3461406343e-02
 -1.3458734378e-02
 -1.3456062414e-02
 -1.3453390449e-02
 -1.3450718485e-02
 -1.3448046520e-02
 -1.3445374556e-02
 -1.3442701660e-02
 -1.3440029696e-02
 -1.3437357731e-02
 -1.3434685767e-02
 -1.3432013802e-02
 -1.3429341838e-02
 -1.3426669873e-02
 -1.3423996978e-02
 -1.3421325013e-02
 -1.3418653049e-02
 -1.3415981084e-02
 -1.3413309120e-02
 -1.3410637155e-02
 -1.3407964259e-02
 -1.3405292295e-02
 -1.3402620330e-02
 -1.3399948366e-02
 -1.3397276402e-02
 -1.3394604437e-02
 -1.3391932473e-02
 -1.3389259577e-02
 -1.3386587612e-02
 -1.3383915648e-02
 -1.3381243683e-02
 -1.3378571719e-02
 -1.3375899754e-02
 -1.3373227790e-02
 -1.3370554894e-02
 -1.3367882930e-02
 -1.3365210965e-02
 -1.3362539001e-02
 -1.3359867036e-02
 -1.3357195072e-02
 -1.3354523107e-02
 -1.3351850212e-02
 -1.3349178247e-02
 -1.3346506283e-02
 -1.3343834318e-02
 -1.3341162354e-02
 -1.3338490389e-02
 -1.3335817493e-02
 -1.3333145529e-02
 -1.3330473565e-02
 -1.3327801600e-02
 -1.3325129636e-02
 -1.3322457671e-02
 -1.3319785707e-02
 -1.3317112811e-02
 -1.3314440846e-02
 -1.3311768882e-02
 -1.3309096918e-02
 -1.3306424953e-02
 -1.3303752989e-02
 -1.3301081024e-02
 -1.3298408128e-02
 -1.3295736164e-02
 -1.3293064199e-02
 -1.3290392235e-02
 -1.3287720270e-02
 -1.3285048306e-02
 -1.3282376342e-02
 -1.3279703446e-02
 -1.3277031481e-02
 -1.3274359517e-02
 -1.3271687552e-02
 -1.3269015588e-02
 -1.3266343623e-02
 -1.3263670728e-02
 -1.3260998763e-02
 -1.3258326799e-02
 -1.3255654834e-02
 -1.3252982870e-02
 -1.3250310905e-02
 -1.3247638941e-02
 -1.3244966045e-02
 -1.3242294081e-02
 -1.3239622116e-02
 -1.3236950152e-02
 -1.3234278187e-02
 -1.3231606223e-02
 -1.3228934258e-02
 -1.3226261362e-02
 -1.3223589398e-02
 -1.3220917434e-02
 -1.3218245469e-02
 -1.3215573505e-02
 -1.3212901540e-02
 -1.3210229576e-02
 -1.3207556680e-02
 -1.3204884715e-02
 -1.3202212751e-02
 -1.3199540786e-02
 -1.3196868822e-02
 -1.3194196858e-02
 -1.3191523962e-02
 -1.3188851997e-02
 -1.3186180033e-02
 -1.3183508068e-02
 -1.3180836104e-02
 -1.3178164139e-02
 -1.3175492175e-02
 -1.3172819279e-02
 -1.3170147315e-02
 -1.3167475350e-02
 -1.3164803386e-02
 -1.3162131421e-02
 -1.3159459457e-02
 -1.3156787492e-02
 -1.3154114597e-02
 -1.3151442632e-02
 -1.3148770668e-02
 -1.3146098703e-02
 -1.3143426739e-02
 -1.3140754774e-02
 -1.3138082810e-02
 -1.3135409914e-02
 -1.3132737949e-02
 -1.3130065985e-02
 -1.3127394021e-02
 -1.3124722056e-02
 -1.3122050092e-02
 -1.3119378127e-02
 -1.3116705231e-02
 -1.3114033267e-02
 -1.3111361302e-02
 -1.3108689338e-02
 -1.3106017374e-02
 -1.3103345409e-02
 -1.3100672513e-02
 -1.3098000549e-02
 -1.3095328584e-02
 -1.3092656620e-02
 -1.3089984655e-02
 -1.3087312691e-02
 -1.3084640726e-02
 -1.3081967831e-02
 -1.3079295866e-02
 -1.3076623902e-02
 -1.3073951937e-02
 -1.3071279973e-02
 -1.3068608008e-02
 -1.3065936044e-02
 -1.3063263148e-02
 -1.3060591184e-02
 -1.3057919219e-02
 -1.3055247255e-02
 -1.3052575290e-02
