luts/V3_LogC_320_to_linear.spi1d
Version 1
From 0 1
Length 65536
Components 1
{
 -1.6458950937e-02
 -1.6456244513e-02
 -1.6453538090e-02
 -1.6450831667e-02
 -1.6448125243e-02
 -1.6445418820e-02
 -1.6442712396e-02
 -1.6440005973e-02
 -1.6437299550e-02
 -1.6434593126e-02
 -1.6431886703e-02
 -1.6429178417e-02
 -1.6426471993e-02
 -1.6423765570e-02
 -1.6421059147e-02
 -1.6418352723e-02
 -1.6415646300e-02
 -1.6412939876e-02
 -1.6410233453e-02
 -1.6407527030e-02
 -1.6404820606e-02
 -1.6402114183e-02
 -1.6399405897e-02
 -1.6396699473e-02
 -1.6393993050e-02
 -1.6391286626e-02
 -1.6388580203e-02
 -1.6385873780e-02
 -1.6383167356e-02
 -1.6380460933e-02
 -1.6377754509e-02
 -1.6375048086e-02
 -1.6372341663e-02
 -1.6369633377e-02
 -1.6366926953e-02
 -1.6364220530e-02
 -1.6361514106e-02
 -1.6358807683e-02
 -1.6356101260e-02
 -1.6353394836e-02
 -1.6350688413e-02
 -1.6347981989e-02
 -1.6345275566e-02
 -1.6342569143e-02
 -1.6339862719e-02
 -1.6337154433e-02
 -1.6334448010e-02
 -1.6331741586e-02
 -1.6329035163e-02
 -1.6326328740e-02
 -1.6323622316e-02
 -1.6320915893e-02
 -1.6318209469e-02
 -1.6315503046e-02
 -1.6312796623e-02
 -1.6310090199e-02
 -1.6307381913e-02
 -1.6304675490e-02
 -1.6301969066e-02
 -1.6299262643e-02
 -1.6296556219e-02
 -1.6293849796e-02
 -1.6291143373e-02
 -1.6288436949e-02
 -1.6285730526e-02
 -1.6283024102e-02
 -1.6280317679e-02
 -1.6277609393e-02
 -1.6274902970e-02
 -1.6272196546e-02
 -1.6269490123e-02
 -1.6266783699e-02
 -1.6264077276e-02
 -1.6261370853e-02
 -1.6258664429e-02
 -1.6255958006e-02
 -1.6253251582e-02
 -1.6250545159e-02
 -1.6247836873e-02
 -1.6245130450e-02
 -1.6242424026e-02
 -1.6239717603e-02
 -1.6237011179e-02
 -1.6234304756e-02
 -1.6231598333e-02
 -1.6228891909e-02
 -1.6226185486e-02
 -1.6223479062e-02
 -1.6220772639e-02
 -1.6218066216e-02
 -1.6215357929e-02
 -1.6212651506e-02
 -1.6209945083e-02
 -1.6207238659e-02
 -1.6204532236e-02
 -1.6201825812e-02
 -1.6199119389e-02
 -1.6196412966e-02
 -1.6193706542e-02
 -1.6191000119e-02
 -1.6188293695e-02
 -1.6185585409e-02
 -1.6182878986e-02
 -1.6180172563e-02
 -1.6177466139e-02
 -1.6174759716e-02
 -1.6172053292e-02
 -1.6169346869e-02
 -1.6166640446e-02
 -1.6163934022e-02
 -1.6161227599e-02
 -1.6158521175e-02
 -1.6155812889e-02
 -1.6153106466e-02
 -1.6150400043e-02
 -1.6147693619e-02
 -1.6144987196e-02
 -1.6142280772e-02
 -1.6139574349e-02
 -1.6136867926e-02
 -1.6134161502e-02
 -1.6131455079e-02
 -1.6128748655e-02
 -1.6126040369e-02
 -1.6123333946e-02
 -1.6120627522e-02
 -1.6117921099e-02
 -1.6115214676e-02
 -1.6112508252e-02
 -1.6109801829e-02
 -1.6107095405e-02
 -1.6104388982e-02
 -1.6101682559e-02
 -1.6098976135e-02
 -1.6096269712e-02
 -1.6093561426e-02
 -1.6090855002e-02
 -1.6088148579e-02
 -1.6085442156e-02
 -1.6082735732e-02
 -1.6080029309e-02
 -1.6077322885e-02
 -1.6074616462e-02
 -1.6071910039e-02
 -1.6069203615e-02
 -1.6066497192e-02
 -1.6063788906e-02
 -1.6061082482e-02
 -1.6058376059e-02
 -1.6055669636e-02
 -1.6052963212e-02
 -1.6050256789e-02
 -1.6047550365e-02
 -1.6044843942e-02
 -1.6042137519e-02
 -1.6039431095e-02
 -1.6036724672e-02
 -1.6034016386e-02
 -1.6031309962e-02
 -1.6028603539e-02
 -1.6025897115e-02
 -1.6023190692e-02
 -1.6020484269e-02
 -1.6017777845e-02
 -1.6015071422e-02
 -1.6012364998e-02
 -1.6009658575e-02
 -1.6006952152e-02
 -1.6004243866e-02
 -1.6001537442e-02
 -1.5998831019e-02
 -1.5996124595e-02
 -1.5993418172e-02
 -1.5990711749e-02
 -1.5988005325e-02
 -1.5985298902e-02
 -1.5982592478e-02
 -1.5979886055e-02
 -1.5977179632e-02
 -1.5974473208e-02
 -1.5971764922e-02
 -1.5969058499e-02
 -1.5966352075e-02
 -1.5963645652e-02
 -1.5960939229e-02
 -1.5958232805e-02
 -1.5955526382e-02
 -1.5952819958e-02
 -1.5950113535e-02
 -1.5947407112e-02
 -1.5944700688e-02
 -1.5941992402e-02
 -1.5939285979e-02
 -1.5936579555e-02
 -1.5933873132e-02
 -1.5931166708e-02
 -1.5928460285e-02
 -1.5925753862e-02
 -1.5923047438e-02
 -1.5920341015e-02
 -1.5917634591e-02
 -1.5914928168e-02
 -1.5912219882e-02
 -1.5909513459e-02
 -1.5906807035e-02
 -1.5904100612e-02
 -1.5901394188e-02
 -1.5898687765e-02
 -1.5895981342e-02
 -1.5893274918e-02
 -1.5890568495e-02
 -1.5887862071e-02
 -1.5885155648e-02
 -1.5882447362e-02
 -1.5879740939e-02
 -1.5877034515e-02
 -1.5874328092e-02
 -1.5871621668e-02
 -1.5868915245e-02
 -1.5866208822e-02
 -1.5863502398e-02
 -1.5860795975e-02
 -1.5858089551e-02
 -1.5855383128e-02
 -1.5852676705e-02
 -1.5849968418e-02
 -1.5847261995e-02
 -1.5844555572e-02
 -1.5841849148e-02
 -1.5839142725e-02
 -1.5836436301e-02
 -1.5833729878e-02
 -1.5831023455e-02
 -1.5828317031e-02
 -1.5825610608e-02
 -1.5822904184e-02
 -1.5820195898e-02
 -1.5817489475e-02
 -1.5814783052e-02
 -1.5812076628e-02
 -1.5809370205e-02
 -1.5806663781e-02
 -1.5803957358e-02
 -1.5801250935e-02
 -1.5798544511e-02
 -1.5795838088e-02
 -1.5793131664e-02
 -1.5790423378e-02
 -1.5787716955e-02
 -1.5785010532e-02
 -1.5782304108e-02
 -1.5779597685e-02
 -1.5776891261e-02
 -1.5774184838e-02
 -1.5771478415e-02
 -1.5768771991e-02
 -1.5766065568e-02
 -1.5763359144e-02
 -1.5760650858e-02
 -1.5757944435e-02
 -1.5755238011e-02
 -1.5752531588e-02
 -1.5749825165e-02
 -1.5747118741e-02
 -1.5744412318e-02
 -1.5741705894e-02
 -1.5738999471e-02
 -1.5736293048e-02
 -1.5733586624e-02
 -1.5730880201e-02
 -1.5728171915e-02
 -1.5725465491e-02
 -1.5722759068e-02
 -1.5720052645e-02
 -1.5717346221e-02
 -1.5714639798e-02
 -1.5711933374e-02
 -1.5709226951e-02
 -1.5706520528e-02
 -1.5703814104e-02
 -1.5701107681e-02
 -1.5698399395e-02
 -1.5695692971e-02
 -1.5692986548e-02
 -1.5690280125e-02
 -1.5687573701e-02
 -1.5684867278e-02
 -1.5682160854e-02
 -1.5679454431e-02
 -1.5676748008e-02
 -1.5674041584e-02
 -1.5671335161e-02
 -1.5668626875e-02
 -1.5665920451e-02
 -1.5663214028e-02
 -1.5660507604e-02
 -1.5657801181e-02
 -1.5655094758e-02
 -1.5652388334e-02
 -1.5649681911e-02
 -1.5646975487e-02
 -1.5644269064e-02
 -1.5641562641e-02
 -1.5638854355e-02
 -1.5636147931e-02
 -1.5633441508e-02
 -1.5630735084e-02
 -1.5628028661e-02
 -1.5625322238e-02
 -1.5622615814e-02
 -1.5619909391e-02
 -1.5617202967e-02
 -1.5614495613e-02
 -1.5611789189e-02
 -1.5609082766e-02
 -1.5606376342e-02
 -1.5603669919e-02
 -1.5600962564e-02
 -1.5598256141e-02
 -1.5595549718e-02
 -1.5592843294e-02
 -1.5590136871e-02
 -1.5587430447e-02
 -1.5584723093e-02
 -1.5582016669e-02
 -1.5579310246e-02
 -1.5576603822e-02
 -1.5573897399e-02
 -1.5571190976e-02
 -1.5568483621e-02
 -1.5565777197e-02
 -1.5563070774e-02
 -1.5560364351e-02
 -1.5557657927e-02
 -1.5554950573e-02
 -1.5552244149e-02
 -1.5549537726e-02
 -1.5546831302e-02
 -1.5544124879e-02
 -1.5541418456e-02
 -1.5538711101e-02
 -1.5536004677e-02
 -1.5533298254e-02
 -1.5530591831e-02
 -1.5527885407e-02
 -1.5525178984e-02
 -1.5522471629e-02
 -1.5519765206e-02
 -1.5517058782e-02
 -1.5514352359e-02
 -1.5511645935e-02
 -1.5508938581e-02
 -1.5506232157e-02
 -1.5503525734e-02
 -1.5500819311e-02
 -1.5498112887e-02
 -1.5495406464e-02
 -1.5492699109e-02
 -1.5489992686e-02
 -1.5487286262e-02
 -1.5484579839e-02
 -1.5481873415e-02
 -1.5479166061e-02
 -1.5476459637e-02
 -1.5473753214e-02
 -1.5471046790e-02
 -1.5468340367e-02
 -1.5465633944e-02
 -1.5462926589e-02
 -1.5460220166e-02
 -1.5457513742e-02
 -1.5454807319e-02
 -1.5452100895e-02
 -1.5449394472e-02
 -1.5446687117e-02
 -1.5443980694e-02
 -1.5441274270e-02
 -1.5438567847e-02
 -1.5435861424e-02
 -1.5433154069e-02
 -1.5430447645e-02
 -1.5427741222e-02
 -1.5425034799e-02
 -1.5422328375e-02
 -1.5419621952e-02
 -1.5416914597e-02
 -1.5414208174e-02
 -1.5411501750e-02
 -1.5408795327e-02
 -1.5406088904e-02
 -1.5403382480e-02
 -1.5400675125e-02
 -1.5397968702e-02
 -1.5395262279e-02
 -1.5392555855e-02
 -1.5389849432e-02
 -1.5387142077e-02
 -1.5384435654e-02
 -1.5381729230e-02
 -1.5379022807e-02
 -1.5376316383e-02
 -1.5373609960e-02
 -1.5370902605e-02
 -1.5368196182e-02
 -1.5365489759e-02
 -1.5362783335e-02
 -1.5360076912e-02
 -1.5357369557e-02
 -1.5354663134e-02
 -1.5351956710e-02
 -1.5349250287e-02
 -1.5346543863e-02
 -1.5343837440e-02
 -1.5341130085e-02
 -1.5338423662e-02
 -1.5335717238e-02
 -1.5333010815e-02
 -1.5330304392e-02
 -1.5327597968e-02
 -1.5324890614e-02
 -1.5322184190e-02
 -1.5319477767e-02
 -1.5316771343e-02
 -1.5314064920e-02
 -1.5311357565e-02
 -1.5308651142e-02
 -1.5305944718e-02
 -1.5303238295e-02
 -1.5300531872e-02
 -1.5297825448e-02
 -1.5295118093e-02
 -1.5292411670e-02
 -1.5289705247e-02
 -1.5286998823e-02
 -1.5284292400e-02
 -1.5281585976e-02
 -1.5278878622e-02
 -1.5276172198e-02
 -1.5273465775e-02
 -1.5270759352e-02
 -1.5268052928e-02
 -1.5265345573e-02
 -1.5262639150e-02
 -1.5259932727e-02
 -1.5257226303e-02
 -1.5254519880e-02
 -1.5251813456e-02
 -1.5249106102e-02
 -1.5246399678e-02
 -1.5243693255e-02
 -1.5240986831e-02
 -1.5238280408e-02
 -1.5235573053e-02
 -1.5232866630e-02
 -1.5230160207e-02
 -1.5227453783e-02
 -1.5224747360e-02
 -1.5222040936e-02
 -1.5219333582e-02
 -1.5216627158e-02
 -1.5213920735e-02
 -1.5211214311e-02
 -1.5208507888e-02
 -1.5205801465e-02
 -1.5203094110e-02
 -1.5200387686e-02
 -1.5197681263e-02
 -1.5194974840e-02
 -1.5192268416e-02
 -1.5189561062e-02
 -1.5186854638e-02
 -1.5184148215e-02
 -1.5181441791e-02
 -1.5178735368e-02
 -1.5176028945e-02
 -1.5173321590e-02
 -1.5170615166e-02
 -1.5167908743e-02
 -1.5165202320e-02
 -1.5162495896e-02
 -1.5159789473e-02
 -1.5157082118e-02
 -1.5154375695e-02
 -1.5151669271e-02
 -1.5148962848e-02
 -1.5146256424e-02
 -1.5143549070e-02
 -1.5140842646e-02
 -1.5138136223e-02
 -1.5135429800e-02
 -1.5132723376e-02
 -1.5130016953e-02
 -1.5127309598e-02
 -1.5124603175e-02
 -1.5121896751e-02
 -1.5119190328e-02
 -1.5116483904e-02
 -1.5113776550e-02
 -1.5111070126e-02
 -1.5108363703e-02
 -1.5105657279e-02
 -1.5102950856e-02
 -1.5100244433e-02
 -1.5097537078e-02
 -1.5094830655e-02
 -1.5092124231e-02
 -1.5089417808e-02
 -1.5086711384e-02
 -1.5084004961e-02
 -1.5081297606e-02
 -1.5078591183e-02
 -1.5075884759e-02
 -1.5073178336e-02
 -1.5070471913e-02
 -1.5067764558e-02
 -1.5065058134e-02
 -1.5062351711e-02
 -1.5059645288e-02
 -1.5056938864e-02
 -1.5054232441e-02
 -1.5051525086e-02
 -1.5048818663e-02
 -1.5046112239e-02
 -1.5043405816e-02
 -1.5040699393e-02
 -1.5037992969e-02
 -1.5035285614e-02
 -1.5032579191e-02
 -1.5029872768e-02
 -1.5027166344e-02
 -1.5024459921e-02
 -1.5021752566e-02
 -1.5019046143e-02
 -1.5016339719e-02
 -1.5013633296e-02
 -1.5010926872e-02
 -1.5008220449e-02
 -1.5005513094e-02
 -1.5002806671e-02
 -1.5000100248e-02
 -1.4997393824e-02
 -1.4994687401e-02
 -1.4991980046e-02
 -1.4989273623e-02
 -1.4986567199e-02
 -1.4983860776e-02
 -1.4981154352e-02
 -1.4978447929e-02
 -1.4975740574e-02
 -1.4973034151e-02
 -1.4970327727e-02
 -1.4967621304e-02
 -1.4964914881e-02
 -1.4962208457e-02
 -1.4959501103e-02
 -1.4956794679e-02
 -1.4954088256e-02
 -1.4951381832e-02
 -1.4948675409e-02
 -1.4945968054e-02
 -1.4943261631e-02
 -1.4940555207e-02
 -1.4937848784e-02
 -1.4935142361e-02
 -1.4932435937e-02
 -1.4929728583e-02
 -1.4927022159e-02
 -1.4924315736e-02
 -1.4921609312e-02
 -1.4918902889e-02
 -1.4916196465e-02
 -1.4913489111e-02
 -1.4910782687e-02
 -1.4908076264e-02
 -1.4905369841e-02
 -1.4902663417e-02
 -1.4899956062e-02
 -1.4897249639e-02
 -1.4894543216e-02
 -1.4891836792e-02
 -1.4889130369e-02
 -1.4886423945e-02
 -1.4883716591e-02
 -1.4881010167e-02
 -1.4878303744e-02
 -1.4875597320e-02
 -1.4872890897e-02
 -1.4870183542e-02
 -1.4867477119e-02
 -1.4864770696e-02
 -1.4862064272e-02
 -1.4859357849e-02
 -1.4856651425e-02
 -1.4853944071e-02
 -1.4851237647e-02
 -1.4848531224e-02
 -1.4845824800e-02
 -1.4843118377e-02
 -1.4840411954e-02
 -1.4837704599e-02
 -1.4834998176e-02
 -1.4832291752e-02
 -1.4829585329e-02
 -1.4826878905e-02
 -1.4824171551e-02
 -1.4821465127e-02
 -1.4818758704e-02
 -1.4816052280e-02
 -1.4813345857e-02
 -1.4810639434e-02
 -1.4807932079e-02
 -1.4805225655e-02
 -1.4802519232e-02
 -1.4799812809e-02
 -1.4797106385e-02
 -1.4794399962e-02
 -1.4791692607e-02
 -1.4788986184e-02
 -1.4786279760e-02
 -1.4783573337e-02
 -1.4780866913e-02
 -1.4778159559e-02
 -1.4775453135e-02
 -1.4772746712e-02
 -1.4770040289e-02
 -1.4767333865e-02
 -1.4764627442e-02
 -1.4761920087e-02
 -1.4759213664e-02
 -1.4756507240e-02
 -1.4753800817e-02
 -1.4751094393e-02
 -1.4748387970e-02
 -1.4745680615e-02
 -1.4742974192e-02
 -1.4740267769e-02
 -1.4737561345e-02
 -1.4734854922e-02
 -1.4732147567e-02
 -1.4729441144e-02
 -1.4726734720e-02
 -1.4724028297e-02
 -1.4721321873e-02
 -1.4718615450e-02
 -1.4715908095e-02
 -1.4713201672e-02
 -1.4710495248e-02
 -1.4707788825e-02
 -1.4705082402e-02
 -1.4702375047e-02
 -1.4699668624e-02
 -1.4696962200e-02
 -1.4694255777e-02
 -1.4691549353e-02
 -1.4688842930e-02
 -1.4686135575e-02
 -1.4683429152e-02
 -1.4680722728e-02
 -1.4678016305e-02
 -1.4675309882e-02
 -1.4672603458e-02
 -1.4669896103e-02
 -1.4667189680e-02
 -1.4664483257e-02
 -1.4661776833e-02
 -1.4659070410e-02
 -1.4656363055e-02
 -1.4653656632e-02
 -1.4650950208e-02
 -1.4648243785e-02
 -1.4645537362e-02
 -1.4642830938e-02
 -1.4640123583e-02
 -1.4637417160e-02
 -1.4634710737e-02
 -1.4632004313e-02
 -1.4629297890e-02
 -1.4626591466e-02
 -1.4623884112e-02
 -1.4621177688e-02
 -1.4618471265e-02
 -1.4615764841e-02
 -1.4613058418e-02
 -1.4610351063e-02
 -1.4607644640e-02
 -1.4604938217e-02
 -1.4602231793e-02
 -1.4599525370e-02
 -1.4596818946e-02
 -1.4594111592e-02
 -1.4591405168e-02
 -1.4588698745e-02
 -1.4585992321e-02
 -1.4583285898e-02
 -1.4580578543e-02
 -1.4577872120e-02
 -1.4575165696e-02
 -1.4572459273e-02
 -1.4569752850e-02
 -1.4567046426e-02
 -1.4564339072e-02
 -1.4561632648e-02
 -1.4558926225e-02
 -1.4556219801e-02
 -1.4553513378e-02
 -1.4550806955e-02
 -1.4548099600e-02
 -1.4545393176e-02
 -1.4542686753e-02
 -1.4539980330e-02
 -1.4537273906e-02
 -1.4534566551e-02
 -1.4531860128e-02
 -1.4529153705e-02
 -1.4526447281e-02
 -1.4523740858e-02
 -1.4521034434e-02
 -1.4518327080e-02
 -1.4515620656e-02
 -1.4512914233e-02
 -1.4510207810e-02
 -1.4507501386e-02
 -1.4504794963e-02
 -1.4502087608e-02
 -1.4499381185e-02
 -1.4496674761e-02
 -1.4493968338e-02
 -1.4491261914e-02
 -1.4488554560e-02
 -1.4485848136e-02
 -1.4483141713e-02
 -1.4480435289e-02
 -1.4477728866e-02
 -1.4475022443e-02
 -1.4472315088e-02
 -1.4469608665e-02
 -1.4466902241e-02
 -1.4464195818e-02
 -1.4461489394e-02
 -1.4458782040e-02
 -1.4456075616e-02
 -1.4453369193e-02
 -1.4450662769e-02
 -1.4447956346e-02
 -1.4445249923e-02
 -1.4442542568e-02
 -1.4439836144e-02
 -1.4437129721e-02
 -1.4434423298e-02
 -1.4431716874e-02
 -1.4429010451e-02
 -1.4426303096e-02
 -1.4423596673e-02
 -1.4420890249e-02
 -1.4418183826e-02
 -1.4415477403e-02
 -1.4412770048e-02
 -1.4410063624e-02
 -1.4407357201e-02
 -1.4404650778e-02
 -1.4401944354e-02
 -1.4399237931e-02
 -1.4396530576e-02
 -1.4393824153e-02
 -1.4391117729e-02
 -1.4388411306e-02
 -1.4385704882e-02
 -1.4382998459e-02
 -1.4380291104e-02
 -1.4377584681e-02
 -1.4374878258e-02
 -1.4372171834e-02
 -1.4369465411e-02
 -1.4366758056e-02
 -1.4364051633e-02
 -1.4361345209e-02
 -1.4358638786e-02
 -1.4355932362e-02
 -1.4353225939e-02
 -1.4350518584e-02
 -1.4347812161e-02
 -1.4345105737e-02
 -1.4342399314e-02
 -1.4339692891e-02
 -1.4336985536e-02
 -1.4334279113e-02
 -1.4331572689e-02
 -1.4328866266e-02
 -1.4326159842e-02
 -1.4323453419e-02
 -1.4320746064e-02
 -1.4318039641e-02
 -1.4315333217e-02
 -1.4312626794e-02
 -1.4309920371e-02
 -1.4307213947e-02
 -1.4304506592e-02
 -1.4301800169e-02
 -1.4299093746e-02
 -1.4296387322e-02
 -1.4293680899e-02
 -1.4290973544e-02
 -1.4288267121e-02
 -1.4285560697e-02
 -1.4282854274e-02
 -1.4280147851e-02
 -1.4277441427e-02
 -1.4274734072e-02
 -1.4272027649e-02
 -1.4269321226e-02
 -1.4266614802e-02
 -1.4263908379e-02
 -1.4261201955e-02
 -1.4258494601e-02
 -1.4255788177e-02
 -1.4253081754e-02
 -1.4250375330e-02
 -1.4247668907e-02
 -1.4244961552e-02
 -1.4242255129e-02
 -1.4239548706e-02
 -1.4236842282e-02
 -1.4234135859e-02
 -1.4231429435e-02
 -1.4228722081e-02
 -1.4226015657e-02
 -1.4223309234e-02
 -1.4220602810e-02
 -1.4217896387e-02
 -1.4215189032e-02
 -1.4212482609e-02
 -1.4209776185e-02
 -1.4207069762e-02
 -1.4204363339e-02
 -1.4201656915e-02
 -1.4198949561e-02
 -1.4196243137e-02
 -1.4193536714e-02
 -1.4190830290e-02
 -1.4188123867e-02
 -1.4185417444e-02
 -1.4182710089e-02
 -1.4180003665e-02
 -1.4177297242e-02
 -1.4174590819e-02
 -1.4171884395e-02
 -1.4169177040e-02
 -1.4166470617e-02
 -1.4163764194e-02
 -1.4161057770e-02
 -1.4158351347e-02
 -1.4155644923e-02
 -1.4152937569e-02
 -1.4150231145e-02
 -1.4147524722e-02
 -1.4144818299e-02
 -1.4142111875e-02
 -1.4139405452e-02
 -1.4136698097e-02
 -1.4133991674e-02
 -1.4131285250e-02
 -1.4128578827e-02
 -1.4125872403e-02
 -1.4123165049e-02
 -1.4120458625e-02
 -1.4117752202e-02
 -1.4115045778e-02
 -1.4112339355e-02
 -1.4109632932e-02
 -1.4106925577e-02
 -1.4104219154e-02
 -1.4101512730e-02
 -1.4098806307e-02
 -1.4096099883e-02
 -1.4093392529e-02
 -1.4090686105e-02
 -1.4087979682e-02
 -1.4085273258e-02
 -1.4082566835e-02
 -1.4079860412e-02
 -1.4077153057e-02
 -1.4074446633e-02
 -1.4071740210e-02
 -1.4069033787e-02
 -1.4066327363e-02
 -1.4063620940e-02
 -1.4060913585e-02
 -1.4058207162e-02
 -1.4055500738e-02
 -1.4052794315e-02
 -1.4050087892e-02
 -1.4047380537e-02
 -1.4044674113e-02
 -1.4041967690e-02
 -1.4039261267e-02
 -1.4036554843e-02
 -1.4033848420e-02
 -1.4031141065e-02
 -1.4028434642e-02
 -1.4025728218e-02
 -1.4023021795e-02
 -1.4020315371e-02
 -1.4017608948e-02
 -1.4014901593e-02
 -1.4012195170e-02
 -1.4009488747e-02
 -1.4006782323e-02
 -1.4004075900e-02
 -1.4001368545e-02
 -1.3998662122e-02
 -1.3995955698e-02
 -1.3993249275e-02
 -1.3990542851e-02
 -1.3987836428e-02
 -1.3985129073e-02
 -1.3982422650e-02
 -1.3979716226e-02
 -1.3977009803e-02
 -1.3974303380e-02
 -1.3971596025e-02
 -1.3968889602e-02
 -1.3966183178e-02
 -1.3963476755e-02
 -1.3960770331e-02
 -1.3958063908e-02
 -1.3955356553e-02
 -1.3952650130e-02
 -1.3949943706e-02
 -1.3947237283e-02
 -1.3944530860e-02
 -1.3941824436e-02
 -1.3939117081e-02
 -1.3936410658e-02
 -1.3933704235e-02
 -1.3930997811e-02
 -1.3928291388e-02
 -1.3925584033e-02
 -1.3922877610e-02
 -1.3920171186e-02
 -1.3917464763e-02
 -1.3914758340e-02
 -1.3912051916e-02
 -1.3909344561e-02
 -1.3906638138e-02
 -1.3903931715e-02
 -1.3901225291e-02
 -1.3898518868e-02
 -1.3895812444e-02
 -1.3893105090e-02
 -1.3890398666e-02
 -1.3887692243e-02
 -1.3884985819e-02
 -1.3882279396e-02
 -1.3879572041e-02
 -1.3876865618e-02
 -1.3874159195e-02
 -1.3871452771e-02
 -1.3868746348e-02
 -1.3866039924e-02
 -1.3863332570e-02
 -1.3860626146e-02
 -1.3857919723e-02
 -1.3855213299e-02
 -1.3852506876e-02
 -1.3849799521e-02
 -1.3847093098e-02
 -1.3844386674e-02
 -1.3841680251e-02
 -1.3838973828e-02
 -1.3836267404e-02
 -1.3833560050e-02
 -1.3830853626e-02
 -1.3828147203e-02
 -1.3825440779e-02
 -1.3822734356e-02
 -1.3820027933e-02
 -1.3817320578e-02
 -1.3814614154e-02
 -1.3811907731e-02
 -1.3809201308e-02
 -1.3806494884e-02
 -1.3803787529e-02
 -1.3801081106e-02
 -1.3798374683e-02
 -1.3795668259e-02
 -1.3792961836e-02
 -1.3790255412e-02
 -1.3787548058e-02
 -1.3784841634e-02
 -1.3782135211e-02
 -1.3779428788e-02
 -1.3776722364e-02
 -1.3774015941e-02
 -1.3771308586e-02
 -1.3768602163e-02
 -1.3765895739e-02
 -1.3763189316e-02
 -1.3760482892e-02
 -1.3757775538e-02
 -1.3755069114e-02
 -1.3752362691e-02
 -1.3749656267e-02
 -1.3746949844e-02
 -1.3744243421e-02
 -1.3741536066e-02
 -1.3738829643e-02
 -1.3736123219e-02
 -1.3733416796e-02
 -1.3730710372e-02
 -1.3728003018e-02
 -1.3725296594e-02
 -1.3722590171e-02
 -1.3719883747e-02
 -1.3717177324e-02
 -1.3714470901e-02
 -1.3711763546e-02
 -1.3709057122e-02
 -1.3706350699e-02
 -1.3703644276e-02
 -1.3700937852e-02
 -1.3698231429e-02
 -1.3695524074e-02
 -1.3692817651e-02
 -1.3690111227e-02
 -1.3687404804e-02
 -1.3684698381e-02
 -1.3681991026e-02
 -1.3679284602e-02
 -1.3676578179e-02
 -1.3673871756e-02
 -1.3671165332e-02
 -1.3668458909e-02
 -1.3665751554e-02
 -1.3663045131e-02
 -1.3660338707e-02
 -1.3657632284e-02
 -1.3654925860e-02
 -1.3652219437e-02
 -1.3649512082e-02
 -1.3646805659e-02
 -1.3644099236e-02
 -1.3641392812e-02
 -1.3638686389e-02
 -1.3635979034e-02
 -1.3633272611e-02
 -1.3630566187e-02
 -1.3627859764e-02
 -1.3625153340e-02
 -1.3622446917e-02
 -1.3619739562e-02
 -1.3617033139e-02
 -1.3614326715e-02
 -1.3611620292e-02
 -1.3608913869e-02
 -1.3606206514e-02
 -1.3603500091e-02
 -1.3600793667e-02
 -1.3598087244e-02
 -1.3595380820e-02
 -1.3592674397e-02
 -1.3589967042e-02
 -1.3587260619e-02
 -1.3584554195e-02
 -1.3581847772e-02
 -1.3579141349e-02
 -1.3576434925e-02
 -1.3573727570e-02
 -1.3571021147e-02
 -1.3568314724e-02
 -1.3565608300e-02
 -1.3562901877e-02
 -1.3560194522e-02
 -1.3557488099e-02
 -1.3554781675e-02
 -1.3552075252e-02
 -1.3549368829e-02
 -1.3546662405e-02
 -1.3543955050e-02
 -1.3541248627e-02
 -1.3538542204e-02
 -1.3535835780e-02
 -1.3533129357e-02
 -1.3530422933e-02
 -1.3527715579e-02
 -1.3525009155e-02
 -1.3522302732e-02
 -1.3519596308e-02
 -1.3516889885e-02
 -1.3514182530e-02
 -1.3511476107e-02
 -1.3508769684e-02
 -1.3506063260e-02
 -1.3503356837e-02
 -1.3500650413e-02
 -1.3497943059e-02
 -1.3495236635e-02
 -1.3492530212e-02
 -1.3489823788e-02
 -1.3487117365e-02
 -1.3484410010e-02
 -1.3481703587e-02
 -1.3478997163e-02
 -1.3476290740e-02
 -1.3473584317e-02
 -1.3470877893e-02
 -1.3468170539e-02
 -1.3465464115e-02
 -1.3462757692e-02
 -1.3460051268e-02
 -1.3457344845e-02
 -1.3454638422e-02
 -1.3451931067e-02
 -1.3449224643e-02
 -1.3446518220e-02
 -1.3443811797e-02
 -1.3441105373e-02
 -1.3438398018e-02
 -1.3435691595e-02
 -1.3432985172e-02
 -1.3430278748e-02
 -1.3427572325e-02
 -1.3424865901e-02
 -1.3422158547e-02
 -1.3419452123e-02
 -1.3416745700e-02
 -1.3414039277e-02
 -1.3411332853e-02
 -1.3408626430e-02
 -1.3405919075e-02
 -1.3403212652e-02
 -1.3400506228e-02
 -1.3397799805e-02
 -1.3395093381e-02
 -1.3392386027e-02
 -1.3389679603e-02
 -1.3386973180e-02
 -1.3384266756e-02
 -1.3381560333e-02
 -1.3378853910e-02
 -1.3376146555e-02
 -1.3373440132e-02
 -1.3370733708e-02
 -1.3368027285e-02
 -1.3365320861e-02
 -1.3362614438e-02
 -1.3359907083e-02
 -1.3357200660e-02
 -1.3354494236e-02
 -1.3351787813e-02
 -1.3349081390e-02
 -1.3346374035e-02
 -1.3343667611e-02
 -1.3340961188e-02
 -1.3338254765e-02
 -1.3335548341e-02
 -1.3332841918e-02
 -1.3330134563e-02
 -1.3327428140e-02
 -1.3324721716e-02
 -1.3322015293e-02
 -1.3319308870e-02
 -1.3316601515e-02
 -1.3313895091e-02
 -1.3311188668e-02
 -1.3308482245e-02
 -1.3305775821e-02
 -1.3303069398e-02
 -1.3300362043e-02
 -1.3297655620e-02
 -1.3294949196e-02
 -1.3292242773e-02
 -1.3289536349e-02
 -1.3286829926e-02
 -1.3284122571e-02
 -1.3281416148e-02
 -1.3278709725e-02
 -1.3276003301e-02
 -1.3273296878e-02
 -1.3270589523e-02
 -1.3267883100e-02
 -1.3265176676e-02
 -1.3262470253e-02
 -1.3259763829e-02
 -1.3257057406e-02
 -1.3254350051e-02
 -1.3251643628e-02
 -1.3248937204e-02
 -1.3246230781e-02
 -1.3243524358e-02
 -1.3240817934e-02
 -1.3238110580e-02
 -1.3235404156e-02
 -1.3232697733e-02
 -1.3229991309e-02
 -1.3227284886e-02
 -1.3224577531e-02
 -1.3221871108e-02
