luts/V3_LogC_1000_to_linear.spi1d
Version 1
From 0 1
Length 65536
Components 1
{
 -1.7505850643e-02
 -1.7502972856e-02
 -1.7500095069e-02
 -1.7497217283e-02
 -1.7494339496e-02
 -1.7491461709e-02
 -1.7488583922e-02
 -1.7485704273e-02
 -1.7482826486e-02
 -1.7479948699e-02
 -1.7477070913e-02
 -1.7474193126e-02
 -1.7471315339e-02
 -1.7468437552e-02
 -1.7465557903e-02
 -1.7462680116e-02
 -1.7459802330e-02
 -1.7456924543e-02
 -1.7454046756e-02
 -1.7451168969e-02
 -1.7448291183e-02
 -1.7445413396e-02
 -1.7442533746e-02
 -1.7439655960e-02
 -1.7436778173e-02
 -1.7433900386e-02
 -1.7431022599e-02
 -1.7428144813e-02
 -1.7425267026e-02
 -1.7422387376e-02
 -1.7419509590e-02
 -1.7416631803e-02
 -1.7413754016e-02
 -1.7410876229e-02
 -1.7407998443e-02
 -1.7405120656e-02
 -1.7402241006e-02
 -1.7399363220e-02
 -1.7396485433e-02
 -1.7393607646e-02
 -1.7390729859e-02
 -1.7387852073e-02
 -1.7384974286e-02
 -1.7382096499e-02
 -1.7379216850e-02
 -1.7376339063e-02
 -1.7373461276e-02
 -1.7370583490e-02
 -1.7367705703e-02
 -1.7364827916e-02
 -1.7361950129e-02
 -1.7359070480e-02
 -1.7356192693e-02
 -1.7353314906e-02
 -1.7350437120e-02
 -1.7347559333e-02
 -1.7344681546e-02
 -1.7341803759e-02
 -1.7338925973e-02
 -1.7336046323e-02
 -1.7333168536e-02
 -1.7330290750e-02
 -1.7327412963e-02
 -1.7324535176e-02
 -1.7321657389e-02
 -1.7318779603e-02
 -1.7315899953e-02
 -1.7313022166e-02
 -1.7310144380e-02
 -1.7307266593e-02
 -1.7304388806e-02
 -1.7301511019e-02
 -1.7298633233e-02
 -1.7295753583e-02
 -1.7292875797e-02
 -1.7289998010e-02
 -1.7287120223e-02
 -1.7284242436e-02
 -1.7281364650e-02
 -1.7278486863e-02
 -1.7275609076e-02
 -1.7272729427e-02
 -1.7269851640e-02
 -1.7266973853e-02
 -1.7264096066e-02
 -1.7261218280e-02
 -1.7258340493e-02
 -1.7255462706e-02
 -1.7252583057e-02
 -1.7249705270e-02
 -1.7246827483e-02
 -1.7243949696e-02
 -1.7241071910e-02
 -1.7238194123e-02
 -1.7235316336e-02
 -1.7232438549e-02
 -1.7229558900e-02
 -1.7226681113e-02
 -1.7223803326e-02
 -1.7220925540e-02
 -1.7218047753e-02
 -1.7215169966e-02
 -1.7212292179e-02
 -1.7209412530e-02
 -1.7206534743e-02
 -1.7203656957e-02
 -1.7200779170e-02
 -1.7197901383e-02
 -1.7195023596e-02
 -1.7192145810e-02
 -1.7189268023e-02
 -1.7186388373e-02
 -1.7183510587e-02
 -1.7180632800e-02
 -1.7177755013e-02
 -1.7174877226e-02
 -1.7171999440e-02
 -1.7169121653e-02
 -1.7166242003e-02
 -1.7163364217e-02
 -1.7160486430e-02
 -1.7157608643e-02
 -1.7154730856e-02
 -1.7151853070e-02
 -1.7148975283e-02
 -1.7146095634e-02
 -1.7143217847e-02
 -1.7140340060e-02
 -1.7137462273e-02
 -1.7134584486e-02
 -1.7131706700e-02
 -1.7128828913e-02
 -1.7125951126e-02
 -1.7123071477e-02
 -1.7120193690e-02
 -1.7117315903e-02
 -1.7114438117e-02
 -1.7111560330e-02
 -1.7108682543e-02
 -1.7105804756e-02
 -1.7102925107e-02
 -1.7100047320e-02
 -1.7097169533e-02
 -1.7094291747e-02
 -1.7091413960e-02
 -1.7088536173e-02
 -1.7085658386e-02
 -1.7082780600e-02
 -1.7079900950e-02
 -1.7077023163e-02
 -1.7074145377e-02
 -1.7071267590e-02
 -1.7068389803e-02
 -1.7065512016e-02
 -1.7062634230e-02
 -1.7059754580e-02
 -1.7056876794e-02
 -1.7053999007e-02
 -1.7051121220e-02
 -1.7048243433e-02
 -1.7045365646e-02
 -1.7042487860e-02
 -1.7039608210e-02
 -1.7036730424e-02
 -1.7033852637e-02
 -1.7030974850e-02
 -1.7028097063e-02
 -1.7025219277e-02
 -1.7022341490e-02
 -1.7019463703e-02
 -1.7016584054e-02
 -1.7013706267e-02
 -1.7010828480e-02
 -1.7007950693e-02
 -1.7005072907e-02
 -1.7002195120e-02
 -1.6999317333e-02
 -1.6996437684e-02
 -1.6993559897e-02
 -1.6990682110e-02
 -1.6987804323e-02
 -1.6984926537e-02
 -1.6982048750e-02
 -1.6979170963e-02
 -1.6976293176e-02
 -1.6973413527e-02
 -1.6970535740e-02
 -1.6967657954e-02
 -1.6964780167e-02
 -1.6961902380e-02
 -1.6959024593e-02
 -1.6956146806e-02
 -1.6953267157e-02
 -1.6950389370e-02
 -1.6947511584e-02
 -1.6944633797e-02
 -1.6941756010e-02
 -1.6938878223e-02
 -1.6936000437e-02
 -1.6933120787e-02
 -1.6930243000e-02
 -1.6927365214e-02
 -1.6924487427e-02
 -1.6921609640e-02
 -1.6918731853e-02
 -1.6915854067e-02
 -1.6912976280e-02
 -1.6910096630e-02
 -1.6907218844e-02
 -1.6904341057e-02
 -1.6901463270e-02
 -1.6898585483e-02
 -1.6895707697e-02
 -1.6892829910e-02
 -1.6889950261e-02
 -1.6887072474e-02
 -1.6884194687e-02
 -1.6881316900e-02
 -1.6878439113e-02
 -1.6875561327e-02
 -1.6872683540e-02
 -1.6869805753e-02
 -1.6866926104e-02
 -1.6864048317e-02
 -1.6861170530e-02
 -1.6858292744e-02
 -1.6855414957e-02
 -1.6852537170e-02
 -1.6849659383e-02
 -1.6846779734e-02
 -1.6843901947e-02
 -1.6841024160e-02
 -1.6838146374e-02
 -1.6835268587e-02
 -1.6832390800e-02
 -1.6829513013e-02
 -1.6826635227e-02
 -1.6823755577e-02
 -1.6820877790e-02
 -1.6818000004e-02
 -1.6815122217e-02
 -1.6812244430e-02
 -1.6809366643e-02
 -1.6806488857e-02
 -1.6803609207e-02
 -1.6800731421e-02
 -1.6797853634e-02
 -1.6794975847e-02
 -1.6792098060e-02
 -1.6789220273e-02
 -1.6786342487e-02
 -1.6783462837e-02
 -1.6780585051e-02
 -1.6777707264e-02
 -1.6774829477e-02
 -1.6771951690e-02
 -1.6769073904e-02
 -1.6766196117e-02
 -1.6763318330e-02
 -1.6760438681e-02
 -1.6757560894e-02
 -1.6754683107e-02
 -1.6751805320e-02
 -1.6748927534e-02
 -1.6746049747e-02
 -1.6743171960e-02
 -1.6740292311e-02
 -1.6737414524e-02
 -1.6734536737e-02
 -1.6731658950e-02
 -1.6728781164e-02
 -1.6725903377e-02
 -1.6723025590e-02
 -1.6720147803e-02
 -1.6717268154e-02
 -1.6714390367e-02
 -1.6711512581e-02
 -1.6708634794e-02
 -1.6705757007e-02
 -1.6702879220e-02
 -1.6700001433e-02
 -1.6697121784e-02
 -1.6694243997e-02
 -1.6691366211e-02
 -1.6688488424e-02
 -1.6685610637e-02
 -1.6682732850e-02
 -1.6679855064e-02
 -1.6676975414e-02
 -1.6674097627e-02
 -1.6671219841e-02
 -1.6668342054e-02
 -1.6665464267e-02
 -1.6662586480e-02
 -1.6659708694e-02
 -1.6656830907e-02
 -1.6653951257e-02
 -1.6651073471e-02
 -1.6648195684e-02
 -1.6645317897e-02
 -1.6642440110e-02
 -1.6639562324e-02
 -1.6636684537e-02
 -1.6633804888e-02
 -1.6630927101e-02
 -1.6628049314e-02
 -1.6625171527e-02
 -1.6622293741e-02
 -1.6619415954e-02
 -1.6616538167e-02
 -1.6613660380e-02
 -1.6610780731e-02
 -1.6607902944e-02
 -1.6605025157e-02
 -1.6602147371e-02
 -1.6599269584e-02
 -1.6596391797e-02
 -1.6593514010e-02
 -1.6590634361e-02
 -1.6587756574e-02
 -1.6584878787e-02
 -1.6582001001e-02
 -1.6579123214e-02
 -1.6576245427e-02
 -1.6573367640e-02
 -1.6570487991e-02
 -1.6567610204e-02
 -1.6564732417e-02
 -1.6561854631e-02
 -1.6558976844e-02
 -1.6556099057e-02
 -1.6553221270e-02
 -1.6550343484e-02
 -1.6547463834e-02
 -1.6544586048e-02
 -1.6541708261e-02
 -1.6538830474e-02
 -1.6535952687e-02
 -1.6533074901e-02
 -1.6530197114e-02
 -1.6527317464e-02
 -1.6524439678e-02
 -1.6521561891e-02
 -1.6518684104e-02
 -1.6515806317e-02
 -1.6512928531e-02
 -1.6510050744e-02
 -1.6507172957e-02
 -1.6504293308e-02
 -1.6501415521e-02
 -1.6498537734e-02
 -1.6495659947e-02
 -1.6492782161e-02
 -1.6489904374e-02
 -1.6487026587e-02
 -1.6484146938e-02
 -1.6481269151e-02
 -1.6478391364e-02
 -1.6475513577e-02
 -1.6472635791e-02
 -1.6469758004e-02
 -1.6466880217e-02
 -1.6464000568e-02
 -1.6461122781e-02
 -1.6458244994e-02
 -1.6455367208e-02
 -1.6452489421e-02
 -1.6449611634e-02
 -1.6446733847e-02
 -1.6443856061e-02
 -1.6440976411e-02
 -1.6438098624e-02
 -1.6435220838e-02
 -1.6432343051e-02
 -1.6429465264e-02
 -1.6426587477e-02
 -1.6423709691e-02
 -1.6420830041e-02
 -1.6417952254e-02
 -1.6415074468e-02
 -1.6412196681e-02
 -1.6409318894e-02
 -1.6406441107e-02
 -1.6403563321e-02
 -1.6400685534e-02
 -1.6397805884e-02
 -1.6394928098e-02
 -1.6392050311e-02
 -1.6389172524e-02
 -1.6386294737e-02
 -1.6383416951e-02
 -1.6380539164e-02
 -1.6377659515e-02
 -1.6374781728e-02
 -1.6371903941e-02
 -1.6369026154e-02
 -1.6366148368e-02
 -1.6363270581e-02
 -1.6360392794e-02
 -1.6357515007e-02
 -1.6354635358e-02
 -1.6351757571e-02
 -1.6348879784e-02
 -1.6346001998e-02
 -1.6343124211e-02
 -1.6340246424e-02
 -1.6337368637e-02
 -1.6334488988e-02
 -1.6331611201e-02
 -1.6328733414e-02
 -1.6325855628e-02
 -1.6322977841e-02
 -1.6320100054e-02
 -1.6317222267e-02
 -1.6314342618e-02
 -1.6311464831e-02
 -1.6308587044e-02
 -1.6305709258e-02
 -1.6302831471e-02
 -1.6299953684e-02
 -1.6297075897e-02
 -1.6294198111e-02
 -1.6291318461e-02
 -1.6288440675e-02
 -1.6285562888e-02
 -1.6282685101e-02
 -1.6279807314e-02
 -1.6276929528e-02
 -1.6274051741e-02
 -1.6271172091e-02
 -1.6268294305e-02
 -1.6265416518e-02
 -1.6262538731e-02
 -1.6259660944e-02
 -1.6256783158e-02
 -1.6253905371e-02
 -1.6251027584e-02
 -1.6248147935e-02
 -1.6245270148e-02
 -1.6242392361e-02
 -1.6239514574e-02
 -1.6236636788e-02
 -1.6233759001e-02
 -1.6230881214e-02
 -1.6228001565e-02
 -1.6225123778e-02
 -1.6222245991e-02
 -1.6219368204e-02
 -1.6216490418e-02
 -1.6213612631e-02
 -1.6210734844e-02
 -1.6207855195e-02
 -1.6204977408e-02
 -1.6202099621e-02
 -1.6199221835e-02
 -1.6196344048e-02
 -1.6193466261e-02
 -1.6190588474e-02
 -1.6187710688e-02
 -1.6184831038e-02
 -1.6181953251e-02
 -1.6179075465e-02
 -1.6176197678e-02
 -1.6173319891e-02
 -1.6170442104e-02
 -1.6167564318e-02
 -1.6164684668e-02
 -1.6161806881e-02
 -1.6158929095e-02
 -1.6156051308e-02
 -1.6153173521e-02
 -1.6150295734e-02
 -1.6147417948e-02
 -1.6144540161e-02
 -1.6141660511e-02
 -1.6138782725e-02
 -1.6135904938e-02
 -1.6133027151e-02
 -1.6130149364e-02
 -1.6127271578e-02
 -1.6124393791e-02
 -1.6121514142e-02
 -1.6118636355e-02
 -1.6115758568e-02
 -1.6112880781e-02
 -1.6110002995e-02
 -1.6107125208e-02
 -1.6104247421e-02
 -1.6101367772e-02
 -1.6098489985e-02
 -1.6095612198e-02
 -1.6092734411e-02
 -1.6089856625e-02
 -1.6086978838e-02
 -1.6084101051e-02
 -1.6081223264e-02
 -1.6078343615e-02
 -1.6075465828e-02
 -1.6072588041e-02
 -1.6069710255e-02
 -1.6066832468e-02
 -1.6063954681e-02
 -1.6061076894e-02
 -1.6058197245e-02
 -1.6055319458e-02
 -1.6052441671e-02
 -1.6049563885e-02
 -1.6046686098e-02
 -1.6043808311e-02
 -1.6040930524e-02
 -1.6038052738e-02
 -1.6035173088e-02
 -1.6032295302e-02
 -1.6029417515e-02
 -1.6026539728e-02
 -1.6023661941e-02
 -1.6020784155e-02
 -1.6017906368e-02
 -1.6015026718e-02
 -1.6012148932e-02
 -1.6009271145e-02
 -1.6006393358e-02
 -1.6003515571e-02
 -1.6000637785e-02
 -1.5997759998e-02
 -1.5994882211e-02
 -1.5992002562e-02
 -1.5989124775e-02
 -1.5986246988e-02
 -1.5983369201e-02
 -1.5980491415e-02
 -1.5977613628e-02
 -1.5974735841e-02
 -1.5971856192e-02
 -1.5968978405e-02
 -1.5966100618e-02
 -1.5963222831e-02
 -1.5960345045e-02
 -1.5957467258e-02
 -1.5954589471e-02
 -1.5951709822e-02
 -1.5948832035e-02
 -1.5945954248e-02
 -1.5943076462e-02
 -1.5940198675e-02
 -1.5937320888e-02
 -1.5934443101e-02
 -1.5931565315e-02
 -1.5928685665e-02
 -1.5925807878e-02
 -1.5922930092e-02
 -1.5920052305e-02
 -1.5917174518e-02
 -1.5914296731e-02
 -1.5911418945e-02
 -1.5908539295e-02
 -1.5905661508e-02
 -1.5902783722e-02
 -1.5899905935e-02
 -1.5897028148e-02
 -1.5894150361e-02
 -1.5891272575e-02
 -1.5888394788e-02
 -1.5885515139e-02
 -1.5882637352e-02
 -1.5879759565e-02
 -1.5876881778e-02
 -1.5874003991e-02
 -1.5871126205e-02
 -1.5868248418e-02
 -1.5865368769e-02
 -1.5862490982e-02
 -1.5859613195e-02
 -1.5856735408e-02
 -1.5853857622e-02
 -1.5850979835e-02
 -1.5848102048e-02
 -1.5845222399e-02
 -1.5842344612e-02
 -1.5839466825e-02
 -1.5836589038e-02
 -1.5833711252e-02
 -1.5830833465e-02
 -1.5827955678e-02
 -1.5825077891e-02
 -1.5822198242e-02
 -1.5819320455e-02
 -1.5816442668e-02
 -1.5813564882e-02
 -1.5810687095e-02
 -1.5807809308e-02
 -1.5804931521e-02
 -1.5802051872e-02
 -1.5799174085e-02
 -1.5796296299e-02
 -1.5793418512e-02
 -1.5790540725e-02
 -1.5787662938e-02
 -1.5784785151e-02
 -1.5781907365e-02
 -1.5779027715e-02
 -1.5776149929e-02
 -1.5773272142e-02
 -1.5770394355e-02
 -1.5767516568e-02
 -1.5764638782e-02
 -1.5761760995e-02
 -1.5758881345e-02
 -1.5756003559e-02
 -1.5753125772e-02
 -1.5750247985e-02
 -1.5747370198e-02
 -1.5744492412e-02
 -1.5741614625e-02
 -1.5738734975e-02
 -1.5735857189e-02
 -1.5732979402e-02
 -1.5730101615e-02
 -1.5727223828e-02
 -1.5724346042e-02
 -1.5721468255e-02
 -1.5718590468e-02
 -1.5715710819e-02
 -1.5712833032e-02
 -1.5709955245e-02
 -1.5707077459e-02
 -1.5704199672e-02
 -1.5701321885e-02
 -1.5698444098e-02
 -1.5695564449e-02
 -1.5692686662e-02
 -1.5689808875e-02
 -1.5686931089e-02
 -1.5684053302e-02
 -1.5681175515e-02
 -1.5678297728e-02
 -1.5675419942e-02
 -1.5672540292e-02
 -1.5669662505e-02
 -1.5666784719e-02
 -1.5663906932e-02
 -1.5661029145e-02
 -1.5658151358e-02
 -1.5655273572e-02
 -1.5652393922e-02
 -1.5649516135e-02
 -1.5646638349e-02
 -1.5643760562e-02
 -1.5640882775e-02
 -1.5638004988e-02
 -1.5635127202e-02
 -1.5632249415e-02
 -1.5629369766e-02
 -1.5626491979e-02
 -1.5623614192e-02
 -1.5620736405e-02
 -1.5617858618e-02
 -1.5614979900e-02
 -1.5612102114e-02
 -1.5609224327e-02
 -1.5606346540e-02
 -1.5603467822e-02
 -1.5600590035e-02
 -1.5597712249e-02
 -1.5594833530e-02
 -1.5591955744e-02
 -1.5589077957e-02
 -1.5586200170e-02
 -1.5583321452e-02
 -1.5580443665e-02
 -1.5577565879e-02
 -1.5574688092e-02
 -1.5571809374e-02
 -1.5568931587e-02
 -1.5566053800e-02
 -1.5563176014e-02
 -1.5560297295e-02
 -1.5557419509e-02
 -1.5554541722e-02
 -1.5551663004e-02
 -1.5548785217e-02
 -1.5545907430e-02
 -1.5543029644e-02
 -1.5540150926e-02
 -1.5537273139e-02
 -1.5534395352e-02
 -1.5531517565e-02
 -1.5528638847e-02
 -1.5525761060e-02
 -1.5522883274e-02
 -1.5520004556e-02
 -1.5517126769e-02
 -1.5514248982e-02
 -1.5511371195e-02
 -1.5508492477e-02
 -1.5505614690e-02
 -1.5502736904e-02
 -1.5499859117e-02
 -1.5496980399e-02
 -1.5494102612e-02
 -1.5491224825e-02
 -1.5488347039e-02
 -1.5485468321e-02
 -1.5482590534e-02
 -1.5479712747e-02
 -1.5476834029e-02
 -1.5473956242e-02
 -1.5471078455e-02
 -1.5468200669e-02
 -1.5465321951e-02
 -1.5462444164e-02
 -1.5459566377e-02
 -1.5456688590e-02
 -1.5453809872e-02
 -1.5450932086e-02
 -1.5448054299e-02
 -1.5445175581e-02
 -1.5442297794e-02
 -1.5439420007e-02
 -1.5436542220e-02
 -1.5433663502e-02
 -1.5430785716e-02
 -1.5427907929e-02
 -1.5425030142e-02
 -1.5422151424e-02
 -1.5419273637e-02
 -1.5416395850e-02
 -1.5413517132e-02
 -1.5410639346e-02
 -1.5407761559e-02
 -1.5404883772e-02
 -1.5402005054e-02
 -1.5399127267e-02
 -1.5396249481e-02
 -1.5393371694e-02
 -1.5390492976e-02
 -1.5387615189e-02
 -1.5384737402e-02
 -1.5381859615e-02
 -1.5378980897e-02
 -1.5376103111e-02
 -1.5373225324e-02
 -1.5370346606e-02
 -1.5367468819e-02
 -1.5364591032e-02
 -1.5361713246e-02
 -1.5358834527e-02
 -1.5355956741e-02
 -1.5353078954e-02
 -1.5350201167e-02
 -1.5347322449e-02
 -1.5344444662e-02
 -1.5341566876e-02
 -1.5338688157e-02
 -1.5335810371e-02
 -1.5332932584e-02
 -1.5330054797e-02
 -1.5327176079e-02
 -1.5324298292e-02
 -1.5321420506e-02
 -1.5318542719e-02
 -1.5315664001e-02
 -1.5312786214e-02
 -1.5309908427e-02
 -1.5307030641e-02
 -1.5304151922e-02
 -1.5301274136e-02
 -1.5298396349e-02
 -1.5295517631e-02
 -1.5292639844e-02
 -1.5289762057e-02
 -1.5286884271e-02
 -1.5284005553e-02
 -1.5281127766e-02
 -1.5278249979e-02
 -1.5275372192e-02
 -1.5272493474e-02
 -1.5269615687e-02
 -1.5266737901e-02
 -1.5263859183e-02
 -1.5260981396e-02
 -1.5258103609e-02
 -1.5255225822e-02
 -1.5252347104e-02
 -1.5249469317e-02
 -1.5246591531e-02
 -1.5243713744e-02
 -1.5240835026e-02
 -1.5237957239e-02
 -1.5235079452e-02
 -1.5232200734e-02
 -1.5229322948e-02
 -1.5226445161e-02
 -1.5223567374e-02
 -1.5220688656e-02
 -1.5217810869e-02
 -1.5214933082e-02
 -1.5212055296e-02
 -1.5209176578e-02
 -1.5206298791e-02
 -1.5203421004e-02
 -1.5200543217e-02
 -1.5197664499e-02
 -1.5194786713e-02
 -1.5191908926e-02
 -1.5189030208e-02
 -1.5186152421e-02
 -1.5183274634e-02
 -1.5180396847e-02
 -1.5177518129e-02
 -1.5174640343e-02
 -1.5171762556e-02
 -1.5168884769e-02
 -1.5166006051e-02
 -1.5163128264e-02
 -1.5160250477e-02
 -1.5157371759e-02
 -1.5154493973e-02
 -1.5151616186e-02
 -1.5148738399e-02
 -1.5145859681e-02
 -1.5142981894e-02
 -1.5140104108e-02
 -1.5137226321e-02
 -1.5134347603e-02
 -1.5131469816e-02
 -1.5128592029e-02
 -1.5125714242e-02
 -1.5122835524e-02
 -1.5119957738e-02
 -1.5117079951e-02
 -1.5114201233e-02
 -1.5111323446e-02
 -1.5108445659e-02
 -1.5105567873e-02
 -1.5102689154e-02
 -1.5099811368e-02
 -1.5096933581e-02
 -1.5094055794e-02
 -1.5091177076e-02
 -1.5088299289e-02
 -1.5085421503e-02
 -1.5082542785e-02
 -1.5079664998e-02
 -1.5076787211e-02
 -1.5073909424e-02
 -1.5071030706e-02
 -1.5068152919e-02
 -1.5065275133e-02
 -1.5062397346e-02
 -1.5059518628e-02
 -1.5056640841e-02
 -1.5053763054e-02
 -1.5050884336e-02
 -1.5048006549e-02
 -1.5045128763e-02
 -1.5042250976e-02
 -1.5039372258e-02
 -1.5036494471e-02
 -1.5033616684e-02
 -1.5030738898e-02
 -1.5027860180e-02
 -1.5024982393e-02
 -1.5022104606e-02
 -1.5019226819e-02
 -1.5016348101e-02
 -1.5013470314e-02
 -1.5010592528e-02
 -1.5007713810e-02
 -1.5004836023e-02
 -1.5001958236e-02
 -1.4999080449e-02
 -1.4996201731e-02
 -1.4993323945e-02
 -1.4990446158e-02
 -1.4987568371e-02
 -1.4984689653e-02
 -1.4981811866e-02
 -1.4978934079e-02
 -1.4976055361e-02
 -1.4973177575e-02
 -1.4970299788e-02
 -1.4967422001e-02
 -1.4964543283e-02
 -1.4961665496e-02
 -1.4958787709e-02
 -1.4955909923e-02
 -1.4953031205e-02
 -1.4950153418e-02
 -1.4947275631e-02
 -1.4944396913e-02
 -1.4941519126e-02
 -1.4938641340e-02
 -1.4935763553e-02
 -1.4932884835e-02
 -1.4930007048e-02
 -1.4927129261e-02
 -1.4924251474e-02
 -1.4921372756e-02
 -1.4918494970e-02
 -1.4915617183e-02
 -1.4912739396e-02
 -1.4909860678e-02
 -1.4906982891e-02
 -1.4904105105e-02
 -1.4901226386e-02
 -1.4898348600e-02
 -1.4895470813e-02
 -1.4892593026e-02
 -1.4889714308e-02
 -1.4886836521e-02
 -1.4883958735e-02
 -1.4881080948e-02
 -1.4878202230e-02
 -1.4875324443e-02
 -1.4872446656e-02
 -1.4869567938e-02
 -1.4866690151e-02
 -1.4863812365e-02
 -1.4860934578e-02
 -1.4858055860e-02
 -1.4855178073e-02
 -1.4852300286e-02
 -1.4849422500e-02
 -1.4846543781e-02
 -1.4843665995e-02
 -1.4840788208e-02
 -1.4837910421e-02
 -1.4835031703e-02
 -1.4832153916e-02
 -1.4829276130e-02
 -1.4826397412e-02
 -1.4823519625e-02
 -1.4820641838e-02
 -1.4817764051e-02
 -1.4814885333e-02
 -1.4812007546e-02
 -1.4809129760e-02
 -1.4806251973e-02
 -1.4803373255e-02
 -1.4800495468e-02
 -1.4797617681e-02
 -1.4794738963e-02
 -1.4791861176e-02
 -1.4788983390e-02
 -1.4786105603e-02
 -1.4783226885e-02
 -1.4780349098e-02
 -1.4777471311e-02
 -1.4774593525e-02
 -1.4771714807e-02
 -1.4768837020e-02
 -1.4765959233e-02
 -1.4763080515e-02
 -1.4760202728e-02
 -1.4757324941e-02
 -1.4754447155e-02
 -1.4751568437e-02
 -1.4748690650e-02
 -1.4745812863e-02
 -1.4742935076e-02
 -1.4740056358e-02
 -1.4737178572e-02
 -1.4734300785e-02
 -1.4731422998e-02
 -1.4728544280e-02
 -1.4725666493e-02
 -1.4722788706e-02
 -1.4719909988e-02
 -1.4717032202e-02
 -1.4714154415e-02
 -1.4711276628e-02
 -1.4708397910e-02
 -1.4705520123e-02
 -1.4702642336e-02
 -1.4699764550e-02
 -1.4696885832e-02
 -1.4694008045e-02
 -1.4691130258e-02
 -1.4688251540e-02
 -1.4685373753e-02
 -1.4682495967e-02
 -1.4679618180e-02
 -1.4676739462e-02
 -1.4673861675e-02
 -1.4670983888e-02
 -1.4668106101e-02
 -1.4665227383e-02
 -1.4662349597e-02
 -1.4659471810e-02
 -1.4656594023e-02
 -1.4653715305e-02
 -1.4650837518e-02
 -1.4647959732e-02
 -1.4645081013e-02
 -1.4642203227e-02
 -1.4639325440e-02
 -1.4636447653e-02
 -1.4633568935e-02
 -1.4630691148e-02
 -1.4627813362e-02
 -1.4624935575e-02
 -1.4622056857e-02
 -1.4619179070e-02
 -1.4616301283e-02
 -1.4613422565e-02
 -1.4610544778e-02
 -1.4607666992e-02
 -1.4604789205e-02
 -1.4601910487e-02
 -1.4599032700e-02
 -1.4596154913e-02
 -1.4593277127e-02
 -1.4590398408e-02
 -1.4587520622e-02
 -1.4584642835e-02
 -1.4581764117e-02
 -1.4578886330e-02
 -1.4576008543e-02
 -1.4573130757e-02
 -1.4570252039e-02
 -1.4567374252e-02
 -1.4564496465e-02
 -1.4561618678e-02
 -1.4558739960e-02
 -1.4555862173e-02
 -1.4552984387e-02
 -1.4550106600e-02
 -1.4547227882e-02
 -1.4544350095e-02
 -1.4541472308e-02
 -1.4538593590e-02
 -1.4535715804e-02
 -1.4532838017e-02
 -1.4529960230e-02
 -1.4527081512e-02
 -1.4524203725e-02
 -1.4521325938e-02
 -1.4518448152e-02
 -1.4515569434e-02
 -1.4512691647e-02
 -1.4509813860e-02
 -1.4506935142e-02
 -1.4504057355e-02
 -1.4501179568e-02
 -1.4498301782e-02
 -1.4495423064e-02
 -1.4492545277e-02
 -1.4489667490e-02
 -1.4486789703e-02
 -1.4483910985e-02
 -1.4481033199e-02
 -1.4478155412e-02
 -1.4475277625e-02
 -1.4472398907e-02
 -1.4469521120e-02
 -1.4466643333e-02
 -1.4463764615e-02
 -1.4460886829e-02
 -1.4458009042e-02
 -1.4455131255e-02
 -1.4452252537e-02
 -1.4449374750e-02
 -1.4446496964e-02
 -1.4443619177e-02
 -1.4440740459e-02
 -1.4437862672e-02
 -1.4434984885e-02
 -1.4432106167e-02
 -1.4429228380e-02
 -1.4426350594e-02
 -1.4423472807e-02
 -1.4420594089e-02
 -1.4417716302e-02
 -1.4414838515e-02
 -1.4411960728e-02
 -1.4409082010e-02
 -1.4406204224e-02
 -1.4403326437e-02
 -1.4400447719e-02
 -1.4397569932e-02
 -1.4394692145e-02
 -1.4391814359e-02
 -1.4388935640e-02
 -1.4386057854e-02
 -1.4383180067e-02
 -1.4380302280e-02
 -1.4377423562e-02
 -1.4374545775e-02
 -1.4371667989e-02
 -1.4368790202e-02
 -1.4365911484e-02
 -1.4363033697e-02
 -1.4360155910e-02
 -1.4357277192e-02
 -1.4354399405e-02
 -1.4351521619e-02
 -1.4348643832e-02
 -1.4345765114e-02
 -1.4342887327e-02
 -1.4340009540e-02
 -1.4337131754e-02
 -1.4334253035e-02
 -1.4331375249e-02
 -1.4328497462e-02
 -1.4325618744e-02
 -1.4322740957e-02
 -1.4319863170e-02
 -1.4316985384e-02
 -1.4314106666e-02
 -1.4311228879e-02
 -1.4308351092e-02
 -1.4305473305e-02
 -1.4302594587e-02
 -1.4299716800e-02
 -1.4296839014e-02
 -1.4293961227e-02
 -1.4291082509e-02
 -1.4288204722e-02
 -1.4285326935e-02
 -1.4282448217e-02
 -1.4279570431e-02
 -1.4276692644e-02
 -1.4273814857e-02
 -1.4270936139e-02
 -1.4268058352e-02
 -1.4265180565e-02
 -1.4262302779e-02
 -1.4259424061e-02
 -1.4256546274e-02
 -1.4253668487e-02
 -1.4250789769e-02
 -1.4247911982e-02
 -1.4245034195e-02
 -1.4242156409e-02
 -1.4239277691e-02
 -1.4236399904e-02
 -1.4233522117e-02
 -1.4230644330e-02
 -1.4227765612e-02
 -1.4224887826e-02
 -1.4222010039e-02
 -1.4219131321e-02
 -1.4216253534e-02
 -1.4213375747e-02
 -1.4210497960e-02
 -1.4207619242e-02
 -1.4204741456e-02
 -1.4201863669e-02
 -1.4198985882e-02
 -1.4196107164e-02
 -1.4193229377e-02
 -1.4190351591e-02
 -1.4187473804e-02
 -1.4184595086e-02
 -1.4181717299e-02
 -1.4178839512e-02
 -1.4175960794e-02
 -1.4173083007e-02
 -1.4170205221e-02
 -1.4167327434e-02
 -1.4164448716e-02
 -1.4161570929e-02
 -1.4158693142e-02
 -1.4155815355e-02
 -1.4152936637e-02
 -1.4150058851e-02
 -1.4147181064e-02
 -1.4144302346e-02
 -1.4141424559e-02
 -1.4138546772e-02
 -1.4135668986e-02
 -1.4132790267e-02
 -1.4129912481e-02
 -1.4127034694e-02
 -1.4124156907e-02
 -1.4121278189e-02
 -1.4118400402e-02
 -1.4115522616e-02
 -1.4112644829e-02
 -1.4109766111e-02
 -1.4106888324e-02
 -1.4104010537e-02
 -1.4101131819e-02
 -1.4098254032e-02
 -1.4095376246e-02
 -1.4092498459e-02
 -1.4089619741e-02
 -1.4086741954e-02
 -1.4083864167e-02
 -1.4080986381e-02
 -1.4078107662e-02
 -1.4075229876e-02
 -1.4072352089e-02
 -1.4069473371e-02
 -1.4066595584e-02
 -1.4063717797e-02
